{
  "type": "map",
  "version": "1.10",
  "orientation": "orthogonal",
  "renderorder": "right-down",
  "width": 128,
  "height": 128,
  "tilewidth": 16,
  "tileheight": 16,
  "infinite": false,
  "nextlayerid": 3,
  "nextobjectid": 157,
  "tilesets": [
    {
      "firstgid": 1,
      "source": "terrain.tsj"
    },
    {
      "firstgid": 1281,
      "source": "props.tsj"
    }
  ],
  "layers": [
    {
      "id": 1,
      "name": "Ground",
      "type": "tilelayer",
      "width": 128,
      "height": 128,
      "x": 0,
      "y": 0,
      "opacity": 1,
      "visible": true,
      "data": [
        913,
        786,
        787,
        788,
        785,
        786,
        787,
        788,
        785,
        786,
        787,
        788,
        785,
        786,
        787,
        788,
        785,
        786,
        787,
        788,
        785,
        786,
        787,
        788,
        785,
        786,
        787,
        788,
        785,
        786,
        787,
        788,
        785,
        786,
        787,
        788,
        785,
        786,
        787,
        788,
        785,
        786,
        787,
        788,
        785,
        786,
        787,
        788,
        785,
        786,
        787,
        788,
        785,
        786,
        787,
        788,
        785,
        786,
        787,
        788,
        785,
        786,
        787,
        788,
        785,
        786,
        787,
        788,
        785,
        786,
        787,
        788,
        785,
        786,
        787,
        788,
        785,
        786,
        787,
        788,
        785,
        786,
        787,
        788,
        785,
        786,
        787,
        788,
        785,
        786,
        787,
        788,
        785,
        786,
        787,
        788,
        785,
        786,
        787,
        788,
        785,
        786,
        787,
        788,
        785,
        786,
        787,
        788,
        785,
        786,
        787,
        788,
        785,
        786,
        787,
        788,
        785,
        786,
        787,
        788,
        785,
        786,
        787,
        788,
        785,
        786,
        787,
        820,
        901,
        774,
        775,
        776,
        773,
        774,
        775,
        776,
        773,
        774,
        775,
        776,
        773,
        774,
        775,
        776,
        773,
        774,
        775,
        776,
        773,
        774,
        775,
        776,
        773,
        774,
        775,
        776,
        773,
        774,
        775,
        776,
        773,
        774,
        775,
        776,
        773,
        774,
        775,
        776,
        773,
        774,
        775,
        776,
        773,
        774,
        775,
        776,
        773,
        774,
        775,
        776,
        773,
        774,
        775,
        776,
        773,
        774,
        775,
        776,
        773,
        774,
        775,
        776,
        773,
        774,
        775,
        776,
        773,
        774,
        775,
        776,
        773,
        774,
        775,
        776,
        773,
        774,
        775,
        776,
        773,
        774,
        775,
        776,
        773,
        774,
        775,
        776,
        773,
        774,
        775,
        776,
        773,
        774,
        775,
        776,
        773,
        774,
        775,
        776,
        773,
        774,
        775,
        776,
        773,
        774,
        775,
        776,
        773,
        774,
        775,
        776,
        773,
        774,
        775,
        776,
        773,
        774,
        775,
        776,
        773,
        774,
        775,
        776,
        773,
        774,
        775,
        808,
        905,
        778,
        779,
        844,
        841,
        842,
        843,
        844,
        841,
        842,
        843,
        844,
        841,
        842,
        843,
        844,
        841,
        842,
        843,
        844,
        841,
        842,
        843,
        844,
        841,
        842,
        843,
        844,
        841,
        842,
        843,
        844,
        841,
        842,
        843,
        844,
        841,
        842,
        843,
        844,
        841,
        842,
        843,
        844,
        841,
        842,
        843,
        844,
        841,
        842,
        843,
        844,
        841,
        842,
        843,
        844,
        841,
        842,
        843,
        844,
        841,
        842,
        843,
        844,
        841,
        842,
        843,
        844,
        841,
        842,
        843,
        844,
        841,
        842,
        843,
        844,
        841,
        842,
        843,
        844,
        841,
        842,
        843,
        844,
        841,
        842,
        843,
        844,
        841,
        842,
        843,
        844,
        841,
        842,
        843,
        844,
        841,
        842,
        843,
        844,
        841,
        842,
        843,
        844,
        841,
        842,
        843,
        844,
        841,
        842,
        843,
        844,
        841,
        842,
        843,
        844,
        841,
        842,
        843,
        844,
        841,
        842,
        843,
        844,
        841,
        778,
        779,
        812,
        909,
        782,
        815,
        160,
        29,
        30,
        31,
        32,
        29,
        30,
        31,
        32,
        29,
        30,
        31,
        32,
        29,
        30,
        31,
        32,
        29,
        30,
        31,
        32,
        29,
        30,
        31,
        32,
        29,
        30,
        31,
        32,
        29,
        30,
        31,
        32,
        29,
        30,
        31,
        32,
        29,
        30,
        31,
        32,
        29,
        30,
        31,
        32,
        29,
        30,
        31,
        32,
        29,
        30,
        31,
        32,
        29,
        30,
        31,
        32,
        29,
        30,
        31,
        32,
        29,
        30,
        31,
        32,
        29,
        30,
        31,
        32,
        29,
        30,
        31,
        32,
        29,
        30,
        31,
        32,
        29,
        30,
        31,
        32,
        29,
        30,
        31,
        32,
        29,
        30,
        31,
        32,
        29,
        30,
        31,
        32,
        29,
        30,
        31,
        32,
        29,
        30,
        31,
        32,
        29,
        30,
        31,
        32,
        29,
        30,
        31,
        32,
        29,
        30,
        31,
        32,
        29,
        30,
        31,
        32,
        29,
        30,
        31,
        32,
        61,
        910,
        783,
        816,
        897,
        770,
        803,
        132,
        1,
        2,
        3,
        4,
        1,
        2,
        3,
        4,
        1,
        2,
        3,
        4,
        1,
        2,
        3,
        4,
        1,
        2,
        3,
        4,
        1,
        2,
        3,
        4,
        1,
        2,
        3,
        4,
        1,
        2,
        3,
        4,
        1,
        2,
        3,
        4,
        1,
        2,
        3,
        4,
        1,
        2,
        3,
        4,
        1,
        2,
        3,
        4,
        1,
        2,
        3,
        4,
        1,
        2,
        3,
        4,
        1,
        2,
        3,
        4,
        1,
        2,
        3,
        4,
        1,
        2,
        3,
        4,
        1,
        2,
        3,
        4,
        1,
        2,
        3,
        4,
        1,
        2,
        3,
        4,
        1,
        2,
        3,
        4,
        1,
        2,
        3,
        4,
        1,
        2,
        3,
        4,
        1,
        2,
        3,
        4,
        1,
        2,
        3,
        4,
        1,
        2,
        3,
        4,
        1,
        2,
        3,
        4,
        1,
        2,
        3,
        4,
        1,
        2,
        3,
        4,
        1,
        2,
        3,
        4,
        33,
        898,
        771,
        804,
        901,
        774,
        807,
        136,
        5,
        6,
        7,
        8,
        5,
        6,
        7,
        8,
        5,
        6,
        7,
        8,
        5,
        6,
        7,
        8,
        5,
        6,
        7,
        8,
        5,
        6,
        7,
        8,
        5,
        6,
        7,
        8,
        5,
        6,
        7,
        8,
        5,
        6,
        7,
        8,
        5,
        6,
        7,
        8,
        5,
        6,
        7,
        8,
        5,
        6,
        7,
        8,
        5,
        6,
        7,
        8,
        5,
        6,
        7,
        8,
        5,
        6,
        7,
        8,
        5,
        6,
        7,
        8,
        5,
        6,
        7,
        8,
        5,
        6,
        7,
        8,
        5,
        6,
        7,
        8,
        5,
        6,
        7,
        8,
        5,
        6,
        7,
        8,
        5,
        6,
        7,
        8,
        5,
        6,
        7,
        8,
        5,
        6,
        7,
        8,
        5,
        6,
        7,
        8,
        5,
        6,
        7,
        8,
        5,
        6,
        7,
        8,
        5,
        6,
        7,
        8,
        5,
        6,
        7,
        8,
        5,
        6,
        7,
        8,
        37,
        902,
        775,
        808,
        905,
        778,
        811,
        140,
        9,
        10,
        11,
        12,
        9,
        10,
        11,
        12,
        9,
        10,
        11,
        12,
        9,
        10,
        11,
        12,
        9,
        10,
        11,
        12,
        9,
        10,
        11,
        12,
        9,
        10,
        11,
        12,
        9,
        10,
        11,
        12,
        9,
        10,
        11,
        12,
        9,
        10,
        11,
        12,
        9,
        10,
        11,
        12,
        9,
        10,
        11,
        12,
        9,
        10,
        11,
        12,
        9,
        10,
        11,
        12,
        9,
        10,
        11,
        12,
        9,
        10,
        11,
        12,
        9,
        10,
        11,
        12,
        9,
        10,
        11,
        12,
        9,
        10,
        11,
        12,
        9,
        10,
        11,
        12,
        9,
        10,
        11,
        12,
        9,
        10,
        11,
        12,
        9,
        10,
        11,
        12,
        9,
        10,
        11,
        12,
        9,
        10,
        11,
        12,
        9,
        10,
        11,
        12,
        9,
        10,
        11,
        12,
        9,
        10,
        11,
        12,
        9,
        10,
        11,
        12,
        9,
        10,
        11,
        12,
        41,
        906,
        779,
        812,
        909,
        782,
        815,
        144,
        13,
        14,
        15,
        16,
        13,
        14,
        15,
        16,
        13,
        14,
        15,
        16,
        13,
        14,
        15,
        16,
        13,
        14,
        15,
        16,
        13,
        14,
        15,
        16,
        13,
        14,
        15,
        16,
        13,
        14,
        15,
        16,
        13,
        14,
        15,
        16,
        13,
        14,
        15,
        16,
        13,
        14,
        15,
        16,
        13,
        14,
        15,
        16,
        13,
        14,
        15,
        16,
        13,
        14,
        15,
        16,
        13,
        14,
        15,
        16,
        13,
        14,
        15,
        16,
        13,
        14,
        15,
        16,
        13,
        14,
        15,
        16,
        13,
        14,
        15,
        16,
        13,
        14,
        15,
        16,
        13,
        14,
        15,
        16,
        13,
        14,
        15,
        16,
        13,
        14,
        15,
        16,
        13,
        14,
        15,
        16,
        13,
        14,
        15,
        16,
        13,
        14,
        15,
        16,
        13,
        14,
        15,
        16,
        13,
        14,
        15,
        16,
        13,
        14,
        15,
        16,
        13,
        14,
        15,
        16,
        45,
        910,
        783,
        816,
        897,
        770,
        803,
        132,
        1,
        2,
        3,
        4,
        1,
        2,
        3,
        4,
        1,
        2,
        3,
        4,
        1,
        2,
        3,
        4,
        1,
        2,
        3,
        4,
        1,
        2,
        3,
        4,
        1,
        2,
        3,
        4,
        1,
        2,
        3,
        4,
        1,
        2,
        3,
        4,
        1,
        2,
        3,
        4,
        1,
        2,
        3,
        4,
        1,
        2,
        3,
        4,
        1,
        2,
        3,
        4,
        1,
        2,
        3,
        4,
        1,
        2,
        3,
        4,
        1,
        2,
        3,
        4,
        1,
        2,
        3,
        4,
        1,
        2,
        3,
        4,
        1,
        2,
        3,
        4,
        1,
        2,
        3,
        4,
        1,
        2,
        3,
        4,
        1,
        2,
        3,
        4,
        1,
        2,
        3,
        4,
        1,
        2,
        3,
        4,
        1,
        2,
        3,
        4,
        1,
        2,
        3,
        4,
        1,
        2,
        3,
        4,
        1,
        2,
        3,
        4,
        1,
        2,
        3,
        4,
        1,
        2,
        3,
        4,
        33,
        898,
        771,
        804,
        901,
        774,
        807,
        136,
        5,
        6,
        7,
        8,
        5,
        6,
        7,
        8,
        5,
        6,
        7,
        8,
        5,
        6,
        7,
        8,
        5,
        6,
        7,
        8,
        5,
        6,
        7,
        8,
        5,
        6,
        7,
        8,
        5,
        6,
        7,
        8,
        5,
        6,
        7,
        8,
        5,
        6,
        7,
        8,
        5,
        6,
        7,
        8,
        5,
        6,
        7,
        8,
        5,
        6,
        7,
        8,
        5,
        6,
        7,
        8,
        5,
        6,
        7,
        8,
        5,
        6,
        7,
        8,
        5,
        6,
        7,
        8,
        5,
        6,
        7,
        8,
        5,
        6,
        7,
        8,
        5,
        6,
        7,
        8,
        5,
        6,
        7,
        8,
        5,
        6,
        7,
        8,
        5,
        6,
        7,
        8,
        5,
        6,
        7,
        8,
        5,
        6,
        7,
        8,
        5,
        6,
        7,
        8,
        5,
        6,
        7,
        8,
        5,
        6,
        7,
        8,
        5,
        6,
        7,
        8,
        5,
        6,
        7,
        8,
        37,
        902,
        775,
        808,
        905,
        778,
        811,
        140,
        9,
        10,
        11,
        12,
        9,
        10,
        11,
        12,
        9,
        10,
        11,
        12,
        9,
        10,
        11,
        12,
        9,
        10,
        11,
        12,
        9,
        10,
        11,
        12,
        9,
        10,
        11,
        12,
        9,
        10,
        11,
        12,
        9,
        10,
        11,
        12,
        9,
        10,
        11,
        12,
        9,
        10,
        11,
        12,
        9,
        10,
        11,
        12,
        9,
        10,
        11,
        12,
        9,
        10,
        11,
        12,
        9,
        10,
        11,
        12,
        9,
        10,
        11,
        12,
        9,
        10,
        11,
        12,
        9,
        10,
        11,
        12,
        9,
        10,
        11,
        12,
        9,
        10,
        11,
        12,
        9,
        10,
        11,
        12,
        9,
        10,
        11,
        12,
        9,
        10,
        11,
        12,
        9,
        10,
        11,
        12,
        9,
        10,
        11,
        12,
        9,
        10,
        11,
        12,
        9,
        10,
        11,
        12,
        9,
        10,
        11,
        12,
        9,
        10,
        11,
        12,
        9,
        10,
        11,
        12,
        41,
        906,
        779,
        812,
        909,
        782,
        815,
        144,
        13,
        14,
        15,
        16,
        13,
        14,
        15,
        16,
        13,
        14,
        15,
        16,
        13,
        14,
        15,
        16,
        13,
        14,
        15,
        16,
        13,
        14,
        15,
        16,
        13,
        14,
        15,
        16,
        13,
        14,
        15,
        16,
        13,
        14,
        15,
        16,
        13,
        14,
        15,
        16,
        13,
        14,
        15,
        16,
        13,
        14,
        15,
        16,
        13,
        14,
        15,
        16,
        13,
        14,
        15,
        16,
        13,
        14,
        15,
        16,
        13,
        14,
        15,
        16,
        13,
        14,
        15,
        16,
        13,
        14,
        15,
        16,
        13,
        14,
        15,
        16,
        13,
        14,
        15,
        16,
        13,
        14,
        15,
        16,
        13,
        14,
        15,
        16,
        13,
        14,
        15,
        16,
        13,
        14,
        15,
        16,
        13,
        14,
        15,
        16,
        13,
        14,
        15,
        16,
        13,
        14,
        15,
        16,
        13,
        14,
        15,
        16,
        13,
        14,
        15,
        16,
        13,
        14,
        15,
        16,
        45,
        910,
        783,
        816,
        897,
        770,
        803,
        132,
        1,
        2,
        3,
        4,
        1,
        2,
        3,
        4,
        1,
        2,
        3,
        4,
        1,
        2,
        3,
        4,
        1,
        2,
        3,
        4,
        1,
        2,
        3,
        4,
        1,
        2,
        3,
        4,
        1,
        2,
        3,
        4,
        1,
        2,
        3,
        4,
        1,
        2,
        3,
        4,
        1,
        2,
        3,
        4,
        1,
        2,
        3,
        4,
        1,
        2,
        3,
        4,
        1,
        2,
        3,
        4,
        1,
        2,
        3,
        4,
        1,
        2,
        3,
        4,
        1,
        2,
        3,
        4,
        1,
        2,
        3,
        4,
        1,
        2,
        3,
        4,
        1,
        2,
        3,
        4,
        1,
        2,
        3,
        4,
        1,
        2,
        3,
        4,
        1,
        2,
        3,
        4,
        1,
        2,
        3,
        4,
        1,
        2,
        3,
        4,
        1,
        2,
        3,
        4,
        1,
        2,
        3,
        4,
        1,
        2,
        3,
        4,
        1,
        2,
        3,
        4,
        1,
        2,
        3,
        4,
        33,
        898,
        771,
        804,
        901,
        774,
        807,
        136,
        5,
        6,
        7,
        8,
        5,
        6,
        7,
        8,
        5,
        6,
        7,
        8,
        5,
        6,
        7,
        8,
        5,
        6,
        7,
        8,
        5,
        6,
        71,
        72,
        69,
        70,
        71,
        72,
        69,
        70,
        71,
        72,
        69,
        70,
        71,
        72,
        69,
        70,
        71,
        72,
        69,
        70,
        71,
        72,
        69,
        70,
        71,
        72,
        69,
        70,
        71,
        72,
        69,
        70,
        71,
        72,
        69,
        70,
        71,
        72,
        69,
        70,
        71,
        72,
        69,
        70,
        71,
        72,
        69,
        70,
        71,
        72,
        69,
        70,
        71,
        72,
        69,
        70,
        71,
        72,
        69,
        70,
        71,
        72,
        69,
        70,
        71,
        72,
        69,
        70,
        71,
        72,
        69,
        70,
        71,
        72,
        69,
        70,
        71,
        8,
        5,
        6,
        7,
        8,
        5,
        6,
        7,
        8,
        5,
        6,
        7,
        8,
        5,
        6,
        7,
        8,
        5,
        6,
        7,
        8,
        37,
        902,
        775,
        808,
        905,
        778,
        811,
        140,
        9,
        10,
        11,
        12,
        9,
        10,
        11,
        12,
        9,
        10,
        11,
        12,
        9,
        10,
        11,
        12,
        9,
        10,
        11,
        76,
        73,
        106,
        411,
        284,
        281,
        282,
        283,
        284,
        281,
        282,
        283,
        284,
        281,
        282,
        283,
        284,
        281,
        282,
        283,
        284,
        281,
        282,
        283,
        284,
        281,
        282,
        283,
        284,
        281,
        282,
        283,
        284,
        281,
        282,
        283,
        284,
        281,
        282,
        283,
        284,
        281,
        282,
        283,
        284,
        281,
        282,
        283,
        284,
        281,
        282,
        283,
        284,
        281,
        282,
        283,
        284,
        281,
        282,
        283,
        284,
        281,
        282,
        283,
        284,
        281,
        282,
        283,
        284,
        281,
        282,
        283,
        284,
        281,
        282,
        283,
        284,
        281,
        282,
        315,
        204,
        73,
        74,
        11,
        12,
        9,
        10,
        11,
        12,
        9,
        10,
        11,
        12,
        9,
        10,
        11,
        12,
        9,
        10,
        11,
        12,
        41,
        906,
        779,
        812,
        909,
        782,
        815,
        144,
        13,
        14,
        15,
        16,
        13,
        14,
        15,
        16,
        13,
        14,
        15,
        16,
        13,
        14,
        15,
        16,
        13,
        78,
        111,
        416,
        285,
        286,
        271,
        272,
        269,
        270,
        271,
        272,
        269,
        270,
        271,
        272,
        269,
        270,
        271,
        272,
        269,
        270,
        271,
        272,
        269,
        270,
        271,
        272,
        269,
        270,
        271,
        272,
        269,
        270,
        271,
        272,
        269,
        270,
        271,
        272,
        269,
        270,
        271,
        272,
        269,
        270,
        271,
        272,
        269,
        270,
        271,
        272,
        269,
        270,
        271,
        272,
        269,
        270,
        271,
        272,
        269,
        270,
        271,
        272,
        269,
        270,
        271,
        272,
        269,
        270,
        271,
        272,
        269,
        270,
        271,
        272,
        269,
        270,
        271,
        272,
        269,
        270,
        271,
        288,
        285,
        318,
        207,
        80,
        13,
        14,
        15,
        16,
        13,
        14,
        15,
        16,
        13,
        14,
        15,
        16,
        13,
        14,
        15,
        16,
        45,
        910,
        783,
        816,
        897,
        770,
        803,
        132,
        1,
        2,
        3,
        4,
        1,
        2,
        3,
        4,
        1,
        2,
        3,
        4,
        1,
        2,
        3,
        4,
        97,
        402,
        275,
        260,
        257,
        258,
        259,
        260,
        257,
        258,
        259,
        260,
        257,
        258,
        259,
        260,
        257,
        258,
        259,
        260,
        257,
        258,
        259,
        260,
        257,
        258,
        259,
        260,
        257,
        258,
        259,
        260,
        257,
        258,
        259,
        260,
        257,
        258,
        259,
        260,
        257,
        258,
        259,
        260,
        257,
        258,
        259,
        260,
        257,
        258,
        259,
        260,
        257,
        258,
        259,
        260,
        257,
        258,
        259,
        260,
        257,
        258,
        259,
        260,
        257,
        258,
        259,
        260,
        257,
        258,
        259,
        260,
        257,
        258,
        259,
        260,
        257,
        258,
        259,
        260,
        257,
        258,
        259,
        260,
        257,
        258,
        275,
        308,
        193,
        2,
        3,
        4,
        1,
        2,
        3,
        4,
        1,
        2,
        3,
        4,
        1,
        2,
        3,
        4,
        33,
        898,
        771,
        804,
        901,
        774,
        807,
        136,
        5,
        6,
        7,
        8,
        5,
        6,
        7,
        8,
        5,
        6,
        7,
        8,
        5,
        6,
        7,
        104,
        405,
        262,
        263,
        264,
        261,
        262,
        263,
        264,
        261,
        262,
        263,
        264,
        261,
        262,
        263,
        264,
        261,
        262,
        263,
        264,
        261,
        262,
        263,
        264,
        261,
        262,
        263,
        264,
        261,
        262,
        263,
        264,
        261,
        262,
        263,
        264,
        261,
        262,
        263,
        264,
        261,
        262,
        263,
        264,
        261,
        262,
        263,
        264,
        261,
        262,
        263,
        264,
        261,
        262,
        263,
        264,
        261,
        262,
        263,
        264,
        261,
        262,
        263,
        264,
        261,
        262,
        263,
        264,
        261,
        262,
        263,
        264,
        261,
        262,
        263,
        264,
        261,
        262,
        263,
        264,
        261,
        262,
        263,
        264,
        261,
        262,
        263,
        264,
        309,
        198,
        7,
        8,
        5,
        6,
        7,
        8,
        5,
        6,
        7,
        8,
        5,
        6,
        7,
        8,
        37,
        902,
        775,
        808,
        905,
        778,
        811,
        140,
        9,
        10,
        11,
        12,
        9,
        10,
        11,
        12,
        9,
        10,
        11,
        12,
        9,
        10,
        107,
        412,
        265,
        266,
        267,
        268,
        265,
        266,
        267,
        268,
        265,
        266,
        267,
        268,
        265,
        266,
        267,
        268,
        265,
        266,
        267,
        268,
        265,
        266,
        267,
        268,
        265,
        266,
        267,
        268,
        265,
        266,
        267,
        268,
        265,
        266,
        267,
        268,
        265,
        266,
        267,
        268,
        265,
        266,
        267,
        268,
        265,
        266,
        267,
        268,
        265,
        266,
        267,
        268,
        265,
        266,
        267,
        268,
        265,
        266,
        267,
        268,
        265,
        266,
        267,
        268,
        265,
        266,
        267,
        268,
        265,
        266,
        267,
        268,
        265,
        266,
        267,
        268,
        265,
        266,
        267,
        268,
        265,
        266,
        267,
        268,
        265,
        266,
        267,
        268,
        265,
        314,
        203,
        12,
        9,
        10,
        11,
        12,
        9,
        10,
        11,
        12,
        9,
        10,
        11,
        12,
        41,
        906,
        779,
        812,
        909,
        782,
        815,
        144,
        13,
        14,
        15,
        16,
        13,
        14,
        15,
        16,
        13,
        14,
        15,
        16,
        13,
        110,
        415,
        272,
        269,
        270,
        271,
        272,
        269,
        270,
        335,
        336,
        333,
        334,
        335,
        336,
        333,
        334,
        335,
        336,
        333,
        334,
        335,
        336,
        333,
        334,
        335,
        336,
        333,
        334,
        335,
        336,
        333,
        334,
        335,
        336,
        333,
        334,
        335,
        336,
        333,
        334,
        335,
        336,
        333,
        270,
        271,
        272,
        269,
        270,
        271,
        336,
        333,
        334,
        335,
        336,
        333,
        334,
        335,
        336,
        333,
        334,
        335,
        336,
        333,
        334,
        335,
        336,
        333,
        334,
        335,
        336,
        333,
        334,
        335,
        336,
        333,
        334,
        335,
        336,
        333,
        334,
        335,
        336,
        333,
        334,
        335,
        272,
        269,
        270,
        271,
        272,
        269,
        270,
        319,
        208,
        13,
        14,
        15,
        16,
        13,
        14,
        15,
        16,
        13,
        14,
        15,
        16,
        45,
        910,
        783,
        816,
        897,
        770,
        803,
        132,
        1,
        2,
        3,
        4,
        1,
        2,
        3,
        4,
        1,
        2,
        3,
        4,
        97,
        402,
        259,
        260,
        257,
        258,
        259,
        260,
        321,
        354,
        147,
        20,
        17,
        18,
        19,
        20,
        17,
        18,
        19,
        20,
        17,
        18,
        19,
        20,
        17,
        18,
        19,
        20,
        17,
        18,
        19,
        20,
        17,
        18,
        19,
        20,
        17,
        18,
        19,
        20,
        17,
        18,
        19,
        20,
        49,
        386,
        259,
        260,
        257,
        258,
        291,
        148,
        17,
        18,
        19,
        20,
        17,
        18,
        19,
        20,
        17,
        18,
        19,
        20,
        17,
        18,
        19,
        20,
        17,
        18,
        19,
        20,
        17,
        18,
        19,
        20,
        17,
        18,
        19,
        20,
        17,
        18,
        19,
        20,
        17,
        18,
        51,
        452,
        321,
        258,
        259,
        260,
        257,
        258,
        259,
        308,
        193,
        2,
        3,
        4,
        1,
        2,
        3,
        4,
        1,
        2,
        3,
        4,
        33,
        898,
        771,
        804,
        901,
        774,
        807,
        136,
        5,
        6,
        7,
        8,
        5,
        6,
        7,
        8,
        5,
        6,
        7,
        40,
        405,
        262,
        263,
        264,
        261,
        262,
        263,
        360,
        149,
        22,
        7,
        8,
        5,
        6,
        7,
        8,
        5,
        6,
        7,
        8,
        5,
        6,
        7,
        8,
        5,
        6,
        7,
        8,
        5,
        6,
        7,
        8,
        5,
        6,
        7,
        8,
        5,
        6,
        7,
        8,
        5,
        6,
        7,
        8,
        37,
        390,
        263,
        264,
        261,
        262,
        295,
        136,
        5,
        6,
        7,
        8,
        5,
        6,
        7,
        8,
        5,
        6,
        7,
        8,
        5,
        6,
        7,
        8,
        5,
        6,
        7,
        8,
        5,
        6,
        7,
        8,
        5,
        6,
        7,
        8,
        5,
        6,
        7,
        8,
        5,
        6,
        7,
        24,
        53,
        454,
        263,
        264,
        261,
        262,
        263,
        264,
        309,
        134,
        7,
        8,
        5,
        6,
        7,
        8,
        5,
        6,
        7,
        8,
        37,
        902,
        775,
        808,
        905,
        778,
        811,
        140,
        9,
        10,
        11,
        12,
        9,
        10,
        11,
        12,
        9,
        10,
        11,
        108,
        393,
        266,
        267,
        268,
        265,
        266,
        363,
        156,
        9,
        10,
        11,
        12,
        9,
        10,
        11,
        12,
        9,
        10,
        11,
        12,
        9,
        10,
        11,
        12,
        9,
        10,
        11,
        12,
        9,
        10,
        11,
        12,
        9,
        10,
        11,
        12,
        9,
        10,
        11,
        12,
        9,
        10,
        11,
        12,
        41,
        394,
        267,
        268,
        265,
        266,
        299,
        140,
        9,
        10,
        11,
        12,
        9,
        10,
        11,
        12,
        9,
        10,
        11,
        12,
        9,
        10,
        11,
        12,
        9,
        10,
        11,
        12,
        9,
        10,
        11,
        12,
        9,
        10,
        11,
        12,
        9,
        10,
        11,
        12,
        9,
        10,
        11,
        12,
        9,
        58,
        459,
        268,
        265,
        266,
        267,
        268,
        297,
        202,
        11,
        12,
        9,
        10,
        11,
        12,
        9,
        10,
        11,
        12,
        41,
        906,
        779,
        812,
        909,
        782,
        815,
        144,
        13,
        14,
        15,
        16,
        13,
        14,
        15,
        16,
        13,
        14,
        47,
        416,
        269,
        270,
        271,
        272,
        269,
        366,
        159,
        16,
        13,
        14,
        15,
        16,
        13,
        14,
        15,
        16,
        13,
        14,
        15,
        16,
        13,
        14,
        15,
        16,
        13,
        14,
        15,
        16,
        13,
        14,
        15,
        16,
        13,
        14,
        15,
        16,
        13,
        14,
        15,
        16,
        13,
        14,
        15,
        16,
        45,
        398,
        271,
        272,
        269,
        270,
        303,
        144,
        13,
        14,
        15,
        16,
        13,
        14,
        15,
        16,
        13,
        14,
        15,
        16,
        13,
        14,
        15,
        16,
        13,
        14,
        15,
        16,
        13,
        14,
        15,
        16,
        13,
        14,
        15,
        16,
        13,
        14,
        15,
        16,
        13,
        14,
        15,
        16,
        13,
        14,
        63,
        464,
        269,
        270,
        271,
        272,
        269,
        318,
        143,
        16,
        13,
        14,
        15,
        16,
        13,
        14,
        15,
        16,
        45,
        910,
        783,
        816,
        897,
        770,
        803,
        132,
        1,
        2,
        3,
        4,
        1,
        2,
        3,
        4,
        1,
        2,
        35,
        388,
        257,
        258,
        259,
        260,
        289,
        146,
        3,
        4,
        1,
        2,
        3,
        4,
        1,
        2,
        3,
        4,
        1,
        2,
        3,
        4,
        1,
        2,
        3,
        4,
        1,
        2,
        3,
        4,
        1,
        2,
        3,
        4,
        1,
        2,
        3,
        4,
        1,
        2,
        3,
        4,
        1,
        2,
        3,
        4,
        33,
        386,
        259,
        260,
        257,
        258,
        291,
        132,
        1,
        2,
        3,
        4,
        1,
        2,
        3,
        4,
        1,
        2,
        3,
        4,
        1,
        2,
        3,
        4,
        1,
        2,
        3,
        4,
        1,
        2,
        3,
        4,
        1,
        2,
        3,
        4,
        1,
        2,
        3,
        4,
        1,
        2,
        3,
        4,
        1,
        2,
        3,
        52,
        385,
        258,
        259,
        260,
        257,
        290,
        131,
        4,
        1,
        2,
        3,
        4,
        1,
        2,
        3,
        4,
        33,
        898,
        771,
        804,
        901,
        774,
        807,
        136,
        5,
        6,
        7,
        8,
        5,
        6,
        7,
        8,
        5,
        6,
        103,
        392,
        261,
        262,
        263,
        264,
        357,
        134,
        7,
        8,
        5,
        6,
        7,
        8,
        5,
        6,
        7,
        8,
        5,
        6,
        7,
        8,
        5,
        6,
        7,
        8,
        5,
        6,
        7,
        8,
        5,
        6,
        7,
        8,
        5,
        6,
        7,
        8,
        5,
        6,
        7,
        8,
        5,
        6,
        7,
        8,
        37,
        390,
        263,
        264,
        261,
        262,
        295,
        136,
        5,
        6,
        7,
        8,
        5,
        6,
        7,
        8,
        5,
        6,
        7,
        8,
        5,
        6,
        7,
        8,
        5,
        6,
        7,
        8,
        5,
        6,
        7,
        8,
        5,
        6,
        7,
        8,
        5,
        6,
        7,
        8,
        5,
        6,
        7,
        8,
        5,
        6,
        7,
        40,
        453,
        262,
        263,
        264,
        261,
        294,
        199,
        8,
        5,
        6,
        7,
        8,
        5,
        6,
        7,
        8,
        37,
        902,
        775,
        808,
        905,
        778,
        811,
        140,
        9,
        10,
        11,
        12,
        9,
        10,
        11,
        12,
        9,
        42,
        411,
        268,
        265,
        266,
        267,
        300,
        153,
        10,
        11,
        12,
        9,
        10,
        11,
        12,
        9,
        10,
        11,
        12,
        9,
        10,
        11,
        12,
        9,
        10,
        11,
        12,
        9,
        10,
        11,
        12,
        9,
        10,
        11,
        12,
        9,
        10,
        11,
        12,
        9,
        10,
        11,
        12,
        9,
        10,
        11,
        12,
        41,
        394,
        267,
        268,
        265,
        266,
        299,
        140,
        9,
        10,
        11,
        12,
        9,
        10,
        11,
        12,
        9,
        10,
        11,
        12,
        9,
        10,
        11,
        12,
        9,
        10,
        11,
        12,
        9,
        10,
        11,
        12,
        9,
        10,
        11,
        12,
        9,
        10,
        11,
        12,
        9,
        10,
        11,
        12,
        9,
        10,
        11,
        12,
        57,
        394,
        267,
        268,
        265,
        266,
        315,
        140,
        9,
        10,
        11,
        12,
        9,
        10,
        11,
        12,
        41,
        906,
        779,
        812,
        909,
        782,
        815,
        144,
        13,
        14,
        15,
        16,
        13,
        14,
        15,
        16,
        13,
        46,
        399,
        272,
        269,
        270,
        271,
        304,
        141,
        14,
        15,
        16,
        13,
        14,
        15,
        16,
        13,
        14,
        15,
        16,
        13,
        14,
        15,
        16,
        13,
        14,
        15,
        16,
        13,
        14,
        15,
        16,
        13,
        14,
        15,
        16,
        13,
        14,
        15,
        16,
        13,
        14,
        15,
        16,
        13,
        14,
        15,
        16,
        45,
        398,
        271,
        272,
        269,
        270,
        303,
        144,
        13,
        14,
        15,
        16,
        13,
        14,
        15,
        16,
        13,
        14,
        15,
        16,
        13,
        14,
        15,
        16,
        13,
        14,
        15,
        16,
        13,
        14,
        15,
        16,
        13,
        14,
        15,
        16,
        13,
        14,
        15,
        16,
        13,
        14,
        15,
        16,
        13,
        14,
        15,
        16,
        45,
        398,
        271,
        272,
        269,
        270,
        303,
        144,
        13,
        14,
        15,
        16,
        13,
        14,
        15,
        16,
        45,
        910,
        783,
        816,
        897,
        770,
        803,
        132,
        1,
        2,
        3,
        4,
        1,
        2,
        3,
        4,
        1,
        34,
        387,
        260,
        257,
        258,
        259,
        292,
        193,
        66,
        67,
        68,
        65,
        66,
        67,
        68,
        65,
        66,
        67,
        68,
        65,
        66,
        67,
        68,
        65,
        66,
        67,
        68,
        65,
        66,
        67,
        68,
        65,
        66,
        67,
        68,
        65,
        66,
        67,
        68,
        65,
        66,
        67,
        68,
        65,
        66,
        67,
        68,
        97,
        386,
        259,
        260,
        257,
        258,
        291,
        196,
        65,
        66,
        67,
        68,
        65,
        66,
        67,
        68,
        65,
        66,
        67,
        68,
        65,
        66,
        67,
        68,
        65,
        66,
        67,
        68,
        65,
        66,
        67,
        68,
        65,
        66,
        67,
        68,
        65,
        66,
        67,
        68,
        65,
        66,
        67,
        68,
        65,
        66,
        67,
        68,
        97,
        386,
        259,
        260,
        257,
        258,
        291,
        132,
        1,
        2,
        3,
        4,
        1,
        2,
        3,
        4,
        33,
        898,
        771,
        804,
        901,
        774,
        807,
        136,
        5,
        6,
        7,
        8,
        5,
        6,
        7,
        8,
        5,
        38,
        391,
        264,
        261,
        262,
        263,
        264,
        277,
        278,
        279,
        280,
        277,
        278,
        279,
        280,
        277,
        278,
        279,
        280,
        277,
        278,
        279,
        280,
        277,
        278,
        279,
        280,
        277,
        278,
        279,
        280,
        277,
        278,
        279,
        280,
        277,
        278,
        279,
        280,
        277,
        278,
        279,
        280,
        277,
        278,
        279,
        280,
        277,
        262,
        263,
        264,
        261,
        262,
        263,
        280,
        277,
        278,
        279,
        280,
        277,
        278,
        279,
        280,
        277,
        278,
        279,
        280,
        277,
        278,
        279,
        280,
        277,
        278,
        279,
        280,
        277,
        278,
        279,
        280,
        277,
        278,
        279,
        280,
        277,
        278,
        279,
        280,
        277,
        278,
        279,
        280,
        277,
        278,
        279,
        280,
        277,
        262,
        263,
        264,
        261,
        262,
        295,
        136,
        5,
        6,
        7,
        8,
        5,
        6,
        7,
        8,
        37,
        902,
        775,
        808,
        905,
        778,
        811,
        140,
        9,
        10,
        11,
        12,
        9,
        10,
        11,
        12,
        9,
        42,
        395,
        268,
        265,
        266,
        267,
        268,
        265,
        266,
        267,
        268,
        265,
        266,
        267,
        268,
        265,
        266,
        267,
        268,
        265,
        266,
        267,
        268,
        265,
        266,
        267,
        268,
        265,
        266,
        267,
        268,
        265,
        266,
        267,
        268,
        265,
        266,
        267,
        268,
        265,
        266,
        267,
        268,
        265,
        266,
        267,
        268,
        265,
        266,
        267,
        268,
        265,
        266,
        267,
        268,
        265,
        266,
        267,
        268,
        265,
        266,
        267,
        268,
        265,
        266,
        267,
        268,
        265,
        266,
        267,
        268,
        265,
        266,
        267,
        268,
        265,
        266,
        267,
        268,
        265,
        266,
        267,
        268,
        265,
        266,
        267,
        268,
        265,
        266,
        267,
        268,
        265,
        266,
        267,
        268,
        265,
        266,
        267,
        268,
        265,
        266,
        299,
        140,
        9,
        10,
        11,
        12,
        9,
        10,
        11,
        12,
        41,
        906,
        779,
        812,
        909,
        782,
        815,
        144,
        13,
        14,
        15,
        16,
        13,
        14,
        15,
        16,
        13,
        46,
        399,
        272,
        269,
        270,
        271,
        272,
        269,
        270,
        271,
        272,
        269,
        270,
        271,
        272,
        269,
        270,
        271,
        272,
        269,
        270,
        271,
        272,
        269,
        270,
        271,
        272,
        269,
        270,
        271,
        272,
        269,
        270,
        271,
        272,
        269,
        270,
        271,
        272,
        269,
        270,
        271,
        272,
        269,
        270,
        271,
        272,
        269,
        270,
        271,
        272,
        269,
        270,
        271,
        272,
        269,
        270,
        271,
        272,
        269,
        270,
        271,
        272,
        269,
        270,
        271,
        272,
        269,
        270,
        271,
        272,
        269,
        270,
        271,
        272,
        269,
        270,
        271,
        272,
        269,
        270,
        271,
        272,
        269,
        270,
        271,
        272,
        269,
        270,
        271,
        272,
        269,
        270,
        271,
        272,
        269,
        270,
        271,
        272,
        269,
        270,
        303,
        144,
        13,
        14,
        15,
        16,
        13,
        14,
        15,
        16,
        45,
        910,
        783,
        816,
        897,
        770,
        803,
        132,
        1,
        2,
        3,
        4,
        1,
        2,
        3,
        4,
        1,
        34,
        387,
        260,
        257,
        258,
        259,
        260,
        257,
        258,
        259,
        260,
        257,
        258,
        259,
        260,
        257,
        258,
        259,
        260,
        257,
        258,
        259,
        260,
        257,
        258,
        259,
        260,
        257,
        258,
        259,
        260,
        257,
        258,
        259,
        260,
        257,
        258,
        259,
        260,
        257,
        258,
        259,
        260,
        257,
        258,
        259,
        260,
        257,
        258,
        259,
        260,
        257,
        258,
        259,
        260,
        257,
        258,
        259,
        260,
        257,
        258,
        259,
        260,
        257,
        258,
        259,
        260,
        257,
        258,
        259,
        260,
        257,
        258,
        259,
        260,
        257,
        258,
        259,
        260,
        257,
        258,
        259,
        260,
        257,
        258,
        259,
        260,
        257,
        258,
        259,
        260,
        257,
        258,
        259,
        260,
        257,
        258,
        259,
        260,
        257,
        258,
        291,
        132,
        1,
        2,
        3,
        4,
        1,
        2,
        3,
        4,
        33,
        898,
        771,
        804,
        901,
        774,
        807,
        136,
        5,
        6,
        7,
        8,
        5,
        6,
        7,
        8,
        5,
        38,
        391,
        264,
        261,
        262,
        263,
        264,
        261,
        262,
        263,
        264,
        261,
        262,
        263,
        264,
        261,
        262,
        263,
        264,
        261,
        262,
        263,
        264,
        261,
        262,
        263,
        264,
        261,
        262,
        263,
        264,
        261,
        262,
        263,
        264,
        261,
        262,
        263,
        264,
        261,
        262,
        263,
        264,
        261,
        262,
        263,
        264,
        261,
        262,
        263,
        264,
        261,
        262,
        263,
        264,
        261,
        262,
        263,
        264,
        261,
        262,
        263,
        264,
        261,
        262,
        263,
        264,
        261,
        262,
        263,
        264,
        261,
        262,
        263,
        264,
        261,
        262,
        263,
        264,
        261,
        262,
        263,
        264,
        261,
        262,
        263,
        264,
        261,
        262,
        263,
        264,
        261,
        262,
        263,
        264,
        261,
        262,
        263,
        264,
        261,
        262,
        295,
        136,
        5,
        6,
        7,
        8,
        5,
        6,
        7,
        8,
        37,
        902,
        775,
        808,
        905,
        778,
        811,
        140,
        9,
        10,
        11,
        12,
        9,
        10,
        11,
        12,
        9,
        42,
        395,
        268,
        265,
        266,
        267,
        268,
        329,
        330,
        331,
        332,
        329,
        330,
        331,
        332,
        329,
        330,
        331,
        332,
        329,
        330,
        331,
        332,
        329,
        330,
        331,
        332,
        329,
        330,
        331,
        332,
        329,
        330,
        331,
        332,
        329,
        330,
        331,
        332,
        329,
        330,
        331,
        332,
        329,
        330,
        331,
        332,
        329,
        266,
        267,
        268,
        265,
        266,
        267,
        332,
        329,
        330,
        331,
        332,
        329,
        330,
        331,
        332,
        329,
        330,
        331,
        332,
        329,
        330,
        331,
        332,
        329,
        330,
        331,
        332,
        329,
        330,
        331,
        332,
        329,
        330,
        331,
        332,
        329,
        330,
        331,
        332,
        329,
        330,
        331,
        332,
        329,
        330,
        331,
        332,
        329,
        266,
        267,
        268,
        265,
        266,
        299,
        140,
        9,
        10,
        11,
        12,
        9,
        10,
        11,
        12,
        41,
        906,
        779,
        812,
        909,
        782,
        815,
        144,
        13,
        14,
        15,
        16,
        13,
        14,
        15,
        16,
        13,
        46,
        399,
        272,
        269,
        270,
        271,
        304,
        157,
        30,
        31,
        32,
        29,
        30,
        31,
        32,
        29,
        30,
        31,
        32,
        29,
        30,
        31,
        32,
        29,
        30,
        31,
        32,
        29,
        30,
        31,
        32,
        29,
        30,
        31,
        32,
        29,
        30,
        31,
        32,
        29,
        30,
        31,
        32,
        29,
        30,
        31,
        32,
        61,
        398,
        271,
        272,
        269,
        270,
        303,
        160,
        29,
        30,
        31,
        32,
        29,
        30,
        31,
        32,
        29,
        30,
        31,
        32,
        29,
        30,
        31,
        32,
        29,
        30,
        31,
        32,
        29,
        30,
        31,
        32,
        29,
        30,
        31,
        32,
        29,
        30,
        31,
        32,
        29,
        30,
        31,
        32,
        29,
        30,
        31,
        32,
        61,
        398,
        271,
        272,
        269,
        270,
        303,
        144,
        13,
        14,
        15,
        16,
        13,
        14,
        15,
        16,
        45,
        910,
        783,
        816,
        897,
        770,
        803,
        132,
        1,
        2,
        3,
        4,
        1,
        2,
        3,
        4,
        1,
        34,
        387,
        260,
        257,
        258,
        259,
        292,
        129,
        2,
        3,
        4,
        1,
        2,
        3,
        4,
        1,
        2,
        3,
        4,
        1,
        2,
        3,
        4,
        1,
        2,
        3,
        4,
        1,
        2,
        3,
        4,
        1,
        2,
        3,
        4,
        1,
        2,
        3,
        4,
        1,
        2,
        3,
        4,
        1,
        2,
        3,
        4,
        33,
        386,
        259,
        260,
        257,
        258,
        291,
        132,
        1,
        2,
        3,
        4,
        1,
        2,
        3,
        4,
        1,
        2,
        3,
        4,
        1,
        2,
        3,
        4,
        1,
        2,
        3,
        4,
        1,
        2,
        3,
        4,
        1,
        2,
        3,
        4,
        1,
        2,
        3,
        4,
        1,
        2,
        3,
        4,
        1,
        2,
        3,
        4,
        33,
        386,
        259,
        260,
        257,
        258,
        291,
        132,
        1,
        2,
        3,
        4,
        1,
        2,
        3,
        4,
        33,
        898,
        771,
        804,
        901,
        774,
        807,
        136,
        5,
        6,
        7,
        8,
        5,
        6,
        7,
        8,
        5,
        38,
        391,
        264,
        261,
        262,
        263,
        296,
        133,
        6,
        7,
        8,
        5,
        6,
        7,
        8,
        5,
        6,
        7,
        8,
        5,
        6,
        7,
        8,
        5,
        6,
        7,
        8,
        5,
        6,
        7,
        8,
        5,
        6,
        7,
        8,
        5,
        6,
        7,
        8,
        5,
        6,
        7,
        8,
        5,
        6,
        7,
        8,
        37,
        390,
        263,
        264,
        261,
        262,
        295,
        136,
        5,
        6,
        7,
        8,
        5,
        6,
        7,
        8,
        5,
        6,
        7,
        8,
        5,
        6,
        7,
        8,
        5,
        6,
        7,
        8,
        5,
        6,
        7,
        8,
        5,
        6,
        7,
        8,
        5,
        6,
        7,
        8,
        5,
        6,
        7,
        8,
        5,
        6,
        7,
        8,
        37,
        390,
        263,
        264,
        261,
        262,
        295,
        136,
        5,
        6,
        7,
        8,
        5,
        6,
        7,
        8,
        37,
        902,
        775,
        808,
        905,
        778,
        811,
        140,
        9,
        10,
        11,
        12,
        9,
        10,
        11,
        12,
        9,
        42,
        395,
        268,
        265,
        266,
        267,
        300,
        137,
        10,
        11,
        12,
        9,
        10,
        11,
        12,
        9,
        10,
        11,
        12,
        9,
        10,
        11,
        12,
        9,
        10,
        11,
        12,
        9,
        10,
        11,
        12,
        9,
        10,
        11,
        12,
        9,
        10,
        11,
        12,
        9,
        10,
        11,
        12,
        9,
        10,
        11,
        12,
        41,
        394,
        267,
        268,
        265,
        266,
        299,
        140,
        9,
        10,
        11,
        12,
        9,
        10,
        11,
        12,
        9,
        10,
        11,
        12,
        9,
        10,
        11,
        12,
        9,
        10,
        11,
        12,
        9,
        10,
        11,
        12,
        9,
        10,
        11,
        12,
        9,
        10,
        11,
        12,
        9,
        10,
        11,
        12,
        9,
        10,
        11,
        12,
        41,
        394,
        267,
        268,
        265,
        266,
        299,
        140,
        9,
        10,
        11,
        12,
        9,
        10,
        11,
        12,
        41,
        906,
        779,
        812,
        909,
        782,
        815,
        144,
        13,
        14,
        15,
        16,
        13,
        14,
        15,
        16,
        13,
        46,
        399,
        272,
        269,
        270,
        271,
        304,
        141,
        14,
        15,
        16,
        13,
        14,
        15,
        16,
        13,
        14,
        15,
        16,
        13,
        14,
        15,
        16,
        13,
        14,
        15,
        16,
        13,
        14,
        15,
        16,
        13,
        14,
        15,
        16,
        13,
        14,
        15,
        16,
        13,
        14,
        15,
        16,
        13,
        14,
        15,
        16,
        45,
        398,
        271,
        272,
        269,
        270,
        303,
        144,
        13,
        14,
        15,
        16,
        13,
        14,
        15,
        16,
        13,
        14,
        15,
        16,
        13,
        14,
        15,
        16,
        13,
        14,
        15,
        16,
        13,
        14,
        15,
        16,
        13,
        14,
        15,
        16,
        13,
        14,
        15,
        16,
        13,
        14,
        15,
        16,
        13,
        14,
        15,
        16,
        45,
        398,
        271,
        272,
        269,
        270,
        303,
        144,
        13,
        14,
        15,
        16,
        13,
        14,
        15,
        16,
        45,
        910,
        783,
        816,
        897,
        770,
        803,
        132,
        1,
        2,
        3,
        4,
        1,
        2,
        3,
        4,
        1,
        34,
        387,
        260,
        257,
        258,
        259,
        292,
        129,
        2,
        3,
        4,
        1,
        2,
        3,
        4,
        1,
        2,
        3,
        4,
        1,
        2,
        3,
        4,
        1,
        2,
        3,
        4,
        1,
        2,
        3,
        4,
        1,
        2,
        3,
        4,
        1,
        2,
        3,
        4,
        1,
        2,
        3,
        4,
        1,
        2,
        3,
        4,
        33,
        386,
        259,
        260,
        257,
        258,
        291,
        132,
        1,
        2,
        3,
        4,
        1,
        2,
        3,
        4,
        1,
        2,
        3,
        4,
        1,
        2,
        3,
        4,
        1,
        2,
        3,
        4,
        1,
        2,
        3,
        4,
        1,
        2,
        3,
        4,
        1,
        2,
        3,
        4,
        1,
        2,
        3,
        4,
        1,
        2,
        3,
        4,
        33,
        386,
        259,
        260,
        257,
        258,
        291,
        132,
        1,
        2,
        3,
        4,
        1,
        2,
        3,
        4,
        33,
        898,
        771,
        804,
        901,
        774,
        807,
        136,
        5,
        6,
        7,
        8,
        5,
        6,
        7,
        8,
        5,
        38,
        391,
        264,
        261,
        262,
        263,
        296,
        133,
        6,
        7,
        8,
        5,
        6,
        7,
        8,
        5,
        6,
        7,
        8,
        5,
        6,
        7,
        8,
        5,
        6,
        7,
        8,
        5,
        6,
        7,
        8,
        5,
        6,
        7,
        8,
        5,
        6,
        7,
        8,
        5,
        6,
        7,
        8,
        5,
        6,
        7,
        8,
        37,
        390,
        263,
        264,
        261,
        262,
        295,
        136,
        5,
        6,
        7,
        8,
        5,
        6,
        7,
        8,
        5,
        6,
        7,
        8,
        5,
        6,
        7,
        8,
        5,
        6,
        7,
        8,
        5,
        6,
        7,
        8,
        5,
        6,
        7,
        8,
        5,
        6,
        7,
        8,
        5,
        6,
        7,
        8,
        5,
        6,
        7,
        8,
        37,
        390,
        263,
        264,
        261,
        262,
        295,
        136,
        5,
        6,
        7,
        8,
        5,
        6,
        7,
        8,
        37,
        902,
        775,
        808,
        905,
        778,
        811,
        140,
        9,
        10,
        11,
        12,
        9,
        10,
        11,
        12,
        9,
        42,
        395,
        268,
        265,
        266,
        267,
        300,
        137,
        10,
        11,
        12,
        9,
        10,
        11,
        12,
        9,
        10,
        11,
        12,
        9,
        10,
        11,
        12,
        9,
        10,
        11,
        12,
        9,
        10,
        11,
        12,
        9,
        10,
        11,
        12,
        9,
        10,
        11,
        12,
        9,
        10,
        11,
        12,
        9,
        10,
        11,
        12,
        41,
        394,
        267,
        268,
        265,
        266,
        299,
        140,
        9,
        10,
        11,
        12,
        9,
        10,
        11,
        12,
        9,
        10,
        11,
        12,
        9,
        10,
        11,
        12,
        9,
        10,
        11,
        12,
        9,
        10,
        11,
        12,
        9,
        10,
        11,
        12,
        9,
        10,
        11,
        12,
        9,
        10,
        11,
        12,
        9,
        10,
        11,
        12,
        41,
        394,
        267,
        268,
        265,
        266,
        299,
        140,
        9,
        10,
        11,
        12,
        9,
        10,
        11,
        12,
        41,
        906,
        779,
        812,
        909,
        782,
        815,
        144,
        13,
        14,
        15,
        16,
        13,
        14,
        15,
        16,
        13,
        46,
        399,
        272,
        269,
        270,
        271,
        304,
        141,
        14,
        15,
        16,
        13,
        14,
        15,
        16,
        13,
        14,
        15,
        16,
        13,
        14,
        15,
        16,
        13,
        14,
        15,
        16,
        13,
        14,
        15,
        16,
        13,
        14,
        15,
        16,
        13,
        14,
        15,
        16,
        13,
        14,
        15,
        16,
        13,
        14,
        15,
        16,
        45,
        398,
        271,
        272,
        269,
        270,
        303,
        144,
        13,
        14,
        15,
        16,
        13,
        14,
        15,
        16,
        13,
        14,
        15,
        16,
        13,
        14,
        15,
        16,
        13,
        14,
        79,
        80,
        77,
        78,
        79,
        80,
        77,
        78,
        79,
        80,
        77,
        78,
        79,
        80,
        77,
        14,
        15,
        16,
        13,
        14,
        15,
        16,
        45,
        398,
        271,
        272,
        269,
        270,
        303,
        144,
        13,
        14,
        15,
        16,
        13,
        14,
        15,
        16,
        45,
        910,
        783,
        816,
        897,
        770,
        803,
        132,
        1,
        2,
        3,
        4,
        1,
        2,
        3,
        4,
        1,
        34,
        387,
        260,
        257,
        258,
        259,
        292,
        129,
        2,
        3,
        4,
        1,
        2,
        3,
        4,
        1,
        2,
        3,
        4,
        1,
        2,
        3,
        4,
        1,
        2,
        3,
        4,
        1,
        2,
        3,
        4,
        1,
        2,
        3,
        4,
        1,
        2,
        3,
        4,
        1,
        2,
        3,
        4,
        1,
        2,
        3,
        4,
        33,
        386,
        259,
        260,
        257,
        258,
        291,
        132,
        1,
        2,
        3,
        4,
        1,
        2,
        3,
        4,
        1,
        2,
        3,
        4,
        1,
        2,
        3,
        4,
        65,
        98,
        915,
        788,
        785,
        786,
        787,
        788,
        785,
        786,
        787,
        788,
        785,
        786,
        787,
        788,
        817,
        194,
        67,
        4,
        1,
        2,
        3,
        4,
        33,
        386,
        259,
        260,
        257,
        258,
        291,
        132,
        1,
        2,
        3,
        4,
        1,
        2,
        3,
        4,
        33,
        898,
        771,
        804,
        901,
        774,
        807,
        136,
        5,
        6,
        7,
        8,
        5,
        6,
        7,
        8,
        5,
        38,
        391,
        264,
        261,
        262,
        263,
        296,
        133,
        6,
        7,
        8,
        5,
        6,
        7,
        8,
        5,
        6,
        7,
        8,
        5,
        6,
        7,
        8,
        5,
        6,
        7,
        8,
        5,
        6,
        7,
        8,
        5,
        6,
        7,
        8,
        5,
        6,
        7,
        8,
        5,
        6,
        7,
        8,
        5,
        6,
        7,
        8,
        37,
        390,
        263,
        264,
        261,
        262,
        295,
        136,
        5,
        6,
        7,
        8,
        5,
        6,
        7,
        8,
        5,
        6,
        7,
        8,
        5,
        6,
        7,
        104,
        917,
        790,
        775,
        776,
        773,
        774,
        775,
        776,
        773,
        774,
        775,
        776,
        773,
        774,
        775,
        776,
        773,
        790,
        823,
        200,
        5,
        6,
        7,
        8,
        37,
        390,
        263,
        264,
        261,
        262,
        295,
        136,
        5,
        6,
        7,
        8,
        5,
        6,
        7,
        8,
        37,
        902,
        775,
        808,
        905,
        778,
        811,
        140,
        9,
        10,
        11,
        12,
        9,
        10,
        11,
        12,
        9,
        42,
        395,
        268,
        265,
        266,
        267,
        300,
        137,
        10,
        11,
        12,
        9,
        10,
        11,
        12,
        9,
        10,
        11,
        12,
        9,
        10,
        11,
        12,
        9,
        10,
        11,
        12,
        9,
        10,
        11,
        12,
        9,
        10,
        11,
        12,
        9,
        10,
        11,
        12,
        9,
        10,
        11,
        12,
        9,
        10,
        11,
        12,
        41,
        394,
        267,
        268,
        265,
        266,
        299,
        140,
        9,
        10,
        11,
        12,
        9,
        10,
        11,
        12,
        9,
        10,
        11,
        12,
        9,
        10,
        107,
        924,
        777,
        778,
        779,
        780,
        777,
        778,
        779,
        780,
        777,
        778,
        779,
        780,
        777,
        778,
        779,
        780,
        777,
        778,
        779,
        828,
        201,
        10,
        11,
        12,
        41,
        394,
        267,
        268,
        265,
        266,
        299,
        140,
        9,
        10,
        11,
        12,
        9,
        10,
        11,
        12,
        41,
        906,
        779,
        812,
        909,
        782,
        815,
        144,
        13,
        14,
        15,
        16,
        13,
        14,
        15,
        16,
        13,
        46,
        399,
        272,
        269,
        270,
        271,
        304,
        141,
        14,
        15,
        16,
        13,
        14,
        15,
        16,
        13,
        14,
        15,
        16,
        13,
        14,
        15,
        16,
        13,
        14,
        15,
        16,
        13,
        14,
        15,
        16,
        13,
        14,
        15,
        16,
        13,
        14,
        15,
        16,
        13,
        14,
        15,
        16,
        13,
        14,
        15,
        16,
        45,
        398,
        271,
        272,
        269,
        270,
        303,
        144,
        13,
        14,
        15,
        16,
        13,
        14,
        15,
        16,
        13,
        14,
        15,
        16,
        13,
        110,
        927,
        784,
        781,
        782,
        783,
        784,
        781,
        782,
        783,
        784,
        781,
        782,
        783,
        784,
        781,
        782,
        783,
        784,
        781,
        782,
        783,
        784,
        829,
        206,
        15,
        16,
        45,
        398,
        271,
        272,
        269,
        270,
        303,
        144,
        13,
        14,
        15,
        16,
        13,
        14,
        15,
        16,
        45,
        910,
        783,
        816,
        897,
        770,
        803,
        132,
        1,
        2,
        3,
        4,
        1,
        2,
        3,
        4,
        1,
        34,
        387,
        260,
        257,
        258,
        259,
        292,
        129,
        2,
        3,
        4,
        1,
        2,
        3,
        4,
        1,
        2,
        3,
        4,
        1,
        2,
        3,
        4,
        1,
        2,
        3,
        4,
        1,
        2,
        3,
        4,
        1,
        2,
        3,
        4,
        1,
        2,
        3,
        4,
        1,
        2,
        3,
        4,
        1,
        2,
        3,
        4,
        33,
        386,
        259,
        260,
        257,
        258,
        291,
        132,
        1,
        2,
        3,
        4,
        1,
        2,
        3,
        4,
        1,
        2,
        3,
        4,
        33,
        914,
        771,
        772,
        769,
        770,
        771,
        772,
        769,
        770,
        771,
        772,
        769,
        770,
        771,
        772,
        769,
        770,
        771,
        772,
        769,
        770,
        771,
        772,
        769,
        818,
        131,
        4,
        33,
        386,
        259,
        260,
        257,
        258,
        291,
        132,
        1,
        2,
        3,
        4,
        1,
        2,
        3,
        4,
        33,
        898,
        771,
        804,
        901,
        774,
        807,
        136,
        5,
        6,
        7,
        8,
        5,
        6,
        7,
        8,
        5,
        38,
        391,
        264,
        261,
        262,
        263,
        296,
        133,
        6,
        7,
        8,
        5,
        6,
        7,
        8,
        5,
        6,
        7,
        8,
        5,
        6,
        7,
        8,
        5,
        6,
        7,
        8,
        5,
        6,
        7,
        8,
        5,
        6,
        7,
        8,
        5,
        6,
        7,
        8,
        5,
        6,
        7,
        8,
        5,
        6,
        7,
        8,
        37,
        390,
        263,
        264,
        261,
        262,
        295,
        136,
        5,
        6,
        7,
        8,
        5,
        6,
        7,
        8,
        5,
        6,
        7,
        8,
        101,
        902,
        775,
        776,
        773,
        774,
        775,
        776,
        773,
        774,
        775,
        776,
        773,
        774,
        775,
        776,
        773,
        774,
        775,
        776,
        773,
        774,
        775,
        776,
        773,
        806,
        199,
        8,
        37,
        390,
        263,
        264,
        261,
        262,
        295,
        136,
        5,
        6,
        7,
        8,
        5,
        6,
        7,
        8,
        37,
        902,
        775,
        808,
        905,
        778,
        811,
        140,
        9,
        10,
        11,
        12,
        9,
        10,
        11,
        12,
        9,
        42,
        395,
        268,
        265,
        266,
        267,
        300,
        137,
        10,
        11,
        12,
        9,
        10,
        11,
        12,
        9,
        10,
        11,
        12,
        9,
        10,
        11,
        12,
        9,
        10,
        11,
        12,
        9,
        10,
        11,
        12,
        9,
        10,
        11,
        12,
        9,
        10,
        11,
        12,
        9,
        10,
        11,
        12,
        9,
        10,
        11,
        12,
        41,
        394,
        267,
        268,
        265,
        266,
        299,
        140,
        9,
        10,
        11,
        12,
        9,
        10,
        11,
        12,
        9,
        10,
        11,
        44,
        921,
        778,
        779,
        780,
        777,
        778,
        779,
        780,
        777,
        778,
        779,
        780,
        777,
        778,
        779,
        780,
        777,
        778,
        779,
        780,
        777,
        778,
        779,
        780,
        777,
        778,
        827,
        140,
        41,
        394,
        267,
        268,
        265,
        266,
        299,
        140,
        9,
        10,
        11,
        12,
        9,
        10,
        11,
        12,
        41,
        906,
        779,
        812,
        909,
        782,
        815,
        144,
        13,
        14,
        15,
        16,
        13,
        14,
        15,
        16,
        13,
        46,
        399,
        272,
        269,
        270,
        271,
        304,
        141,
        14,
        15,
        16,
        13,
        14,
        15,
        16,
        13,
        14,
        15,
        16,
        13,
        14,
        15,
        16,
        13,
        14,
        15,
        16,
        13,
        14,
        15,
        16,
        13,
        14,
        15,
        16,
        13,
        14,
        15,
        16,
        13,
        14,
        15,
        16,
        13,
        14,
        15,
        16,
        45,
        398,
        271,
        272,
        269,
        270,
        303,
        144,
        13,
        14,
        15,
        16,
        13,
        14,
        15,
        16,
        13,
        14,
        15,
        48,
        909,
        782,
        783,
        784,
        781,
        782,
        783,
        784,
        781,
        782,
        783,
        784,
        781,
        782,
        783,
        784,
        781,
        782,
        783,
        784,
        781,
        782,
        783,
        784,
        781,
        782,
        815,
        144,
        45,
        398,
        271,
        272,
        269,
        270,
        303,
        144,
        13,
        14,
        15,
        16,
        13,
        14,
        15,
        16,
        45,
        910,
        783,
        816,
        897,
        770,
        803,
        132,
        1,
        2,
        3,
        4,
        1,
        2,
        3,
        4,
        1,
        34,
        387,
        260,
        257,
        258,
        259,
        292,
        129,
        2,
        3,
        4,
        1,
        2,
        3,
        4,
        1,
        2,
        3,
        4,
        1,
        2,
        3,
        4,
        1,
        2,
        3,
        4,
        1,
        2,
        3,
        4,
        1,
        2,
        3,
        4,
        1,
        2,
        3,
        4,
        1,
        2,
        3,
        4,
        1,
        2,
        3,
        4,
        33,
        386,
        259,
        260,
        257,
        258,
        291,
        132,
        1,
        2,
        3,
        4,
        1,
        2,
        3,
        4,
        1,
        2,
        3,
        36,
        897,
        770,
        771,
        772,
        769,
        770,
        771,
        772,
        769,
        770,
        771,
        772,
        769,
        770,
        771,
        772,
        769,
        770,
        771,
        772,
        769,
        770,
        771,
        772,
        769,
        770,
        803,
        132,
        33,
        386,
        259,
        260,
        257,
        258,
        291,
        132,
        1,
        2,
        3,
        4,
        1,
        2,
        3,
        4,
        33,
        898,
        771,
        804,
        901,
        774,
        807,
        136,
        5,
        6,
        7,
        8,
        5,
        6,
        7,
        8,
        5,
        38,
        391,
        264,
        261,
        262,
        263,
        296,
        133,
        6,
        7,
        8,
        5,
        6,
        7,
        8,
        5,
        6,
        7,
        8,
        5,
        6,
        7,
        8,
        5,
        6,
        7,
        8,
        5,
        6,
        7,
        8,
        5,
        6,
        7,
        8,
        5,
        6,
        7,
        8,
        5,
        6,
        7,
        8,
        5,
        6,
        7,
        8,
        37,
        390,
        263,
        264,
        261,
        262,
        295,
        136,
        5,
        6,
        7,
        8,
        5,
        6,
        7,
        8,
        5,
        6,
        7,
        40,
        901,
        774,
        775,
        776,
        773,
        774,
        775,
        776,
        773,
        774,
        775,
        776,
        773,
        774,
        775,
        776,
        773,
        774,
        775,
        776,
        773,
        774,
        775,
        776,
        773,
        774,
        807,
        136,
        37,
        390,
        263,
        264,
        261,
        262,
        295,
        136,
        5,
        6,
        7,
        8,
        5,
        6,
        7,
        8,
        37,
        902,
        775,
        808,
        905,
        778,
        811,
        140,
        9,
        10,
        11,
        12,
        9,
        10,
        11,
        12,
        9,
        42,
        395,
        268,
        265,
        266,
        267,
        300,
        137,
        10,
        11,
        12,
        9,
        10,
        11,
        12,
        9,
        10,
        11,
        12,
        9,
        10,
        11,
        12,
        9,
        10,
        11,
        12,
        9,
        10,
        11,
        12,
        9,
        10,
        11,
        12,
        9,
        10,
        11,
        12,
        9,
        10,
        11,
        12,
        9,
        10,
        11,
        12,
        41,
        394,
        267,
        268,
        265,
        266,
        299,
        140,
        9,
        10,
        11,
        12,
        9,
        10,
        11,
        12,
        9,
        10,
        11,
        44,
        905,
        778,
        779,
        780,
        777,
        778,
        779,
        780,
        777,
        778,
        779,
        780,
        777,
        778,
        779,
        780,
        777,
        778,
        779,
        780,
        777,
        778,
        779,
        780,
        777,
        778,
        811,
        140,
        41,
        394,
        267,
        268,
        265,
        266,
        299,
        140,
        9,
        10,
        11,
        12,
        9,
        10,
        11,
        12,
        41,
        906,
        779,
        812,
        909,
        782,
        815,
        144,
        13,
        14,
        15,
        16,
        13,
        14,
        15,
        16,
        13,
        46,
        399,
        272,
        269,
        270,
        271,
        304,
        141,
        14,
        15,
        16,
        13,
        14,
        15,
        16,
        13,
        14,
        15,
        16,
        13,
        14,
        15,
        16,
        13,
        14,
        15,
        16,
        13,
        14,
        15,
        16,
        13,
        14,
        15,
        16,
        13,
        14,
        15,
        16,
        13,
        14,
        15,
        16,
        13,
        14,
        15,
        16,
        45,
        398,
        271,
        272,
        269,
        270,
        303,
        144,
        13,
        14,
        15,
        16,
        13,
        14,
        15,
        16,
        13,
        14,
        15,
        48,
        909,
        782,
        783,
        784,
        781,
        782,
        783,
        784,
        781,
        782,
        783,
        784,
        781,
        782,
        783,
        784,
        781,
        782,
        783,
        784,
        781,
        782,
        783,
        784,
        781,
        782,
        815,
        144,
        45,
        398,
        271,
        272,
        269,
        270,
        303,
        144,
        13,
        14,
        15,
        16,
        13,
        14,
        15,
        16,
        45,
        910,
        783,
        816,
        897,
        770,
        803,
        132,
        1,
        2,
        3,
        4,
        1,
        2,
        3,
        4,
        1,
        34,
        387,
        260,
        257,
        258,
        259,
        292,
        129,
        2,
        3,
        4,
        1,
        2,
        3,
        4,
        1,
        2,
        3,
        4,
        1,
        2,
        3,
        4,
        1,
        2,
        3,
        4,
        1,
        2,
        3,
        4,
        1,
        2,
        3,
        4,
        1,
        2,
        3,
        4,
        1,
        2,
        3,
        4,
        1,
        2,
        3,
        4,
        33,
        386,
        259,
        260,
        257,
        258,
        291,
        132,
        1,
        2,
        3,
        4,
        1,
        2,
        3,
        4,
        1,
        2,
        3,
        36,
        897,
        770,
        771,
        772,
        769,
        770,
        771,
        772,
        769,
        770,
        771,
        772,
        769,
        770,
        771,
        772,
        769,
        770,
        771,
        772,
        769,
        770,
        771,
        772,
        769,
        770,
        803,
        132,
        33,
        386,
        259,
        260,
        257,
        258,
        291,
        132,
        1,
        2,
        3,
        4,
        1,
        2,
        3,
        4,
        33,
        898,
        771,
        804,
        901,
        774,
        807,
        136,
        5,
        6,
        7,
        8,
        5,
        6,
        7,
        8,
        5,
        38,
        391,
        264,
        261,
        262,
        263,
        296,
        133,
        6,
        7,
        8,
        5,
        6,
        7,
        8,
        5,
        6,
        7,
        8,
        5,
        6,
        7,
        8,
        5,
        6,
        7,
        8,
        5,
        6,
        7,
        8,
        5,
        6,
        7,
        8,
        5,
        6,
        7,
        8,
        5,
        6,
        7,
        8,
        5,
        6,
        7,
        8,
        37,
        390,
        263,
        264,
        261,
        262,
        295,
        136,
        5,
        6,
        7,
        8,
        5,
        6,
        7,
        8,
        5,
        6,
        7,
        40,
        901,
        774,
        775,
        776,
        773,
        774,
        775,
        776,
        773,
        774,
        775,
        776,
        773,
        774,
        775,
        776,
        773,
        774,
        775,
        776,
        773,
        774,
        775,
        776,
        773,
        774,
        807,
        136,
        37,
        390,
        263,
        264,
        261,
        262,
        295,
        136,
        5,
        6,
        7,
        8,
        5,
        6,
        7,
        8,
        37,
        902,
        775,
        808,
        905,
        778,
        811,
        140,
        9,
        10,
        11,
        12,
        9,
        10,
        11,
        12,
        9,
        42,
        395,
        268,
        265,
        266,
        267,
        300,
        137,
        10,
        11,
        12,
        9,
        10,
        11,
        12,
        9,
        10,
        11,
        12,
        9,
        10,
        11,
        12,
        9,
        10,
        11,
        12,
        9,
        10,
        11,
        12,
        9,
        10,
        11,
        12,
        9,
        10,
        11,
        12,
        9,
        10,
        11,
        12,
        9,
        10,
        11,
        12,
        41,
        394,
        267,
        268,
        265,
        266,
        299,
        140,
        9,
        10,
        11,
        12,
        9,
        10,
        11,
        12,
        9,
        10,
        11,
        44,
        905,
        778,
        779,
        780,
        777,
        778,
        779,
        780,
        777,
        778,
        779,
        780,
        777,
        778,
        779,
        780,
        777,
        778,
        779,
        780,
        777,
        778,
        779,
        780,
        777,
        778,
        811,
        140,
        41,
        394,
        267,
        268,
        265,
        266,
        299,
        140,
        9,
        10,
        11,
        12,
        9,
        10,
        11,
        12,
        41,
        906,
        779,
        812,
        909,
        782,
        815,
        144,
        13,
        14,
        15,
        16,
        13,
        14,
        15,
        16,
        13,
        46,
        399,
        272,
        269,
        270,
        271,
        304,
        141,
        14,
        15,
        16,
        13,
        14,
        15,
        16,
        13,
        14,
        15,
        16,
        13,
        14,
        15,
        16,
        13,
        14,
        15,
        16,
        13,
        14,
        15,
        16,
        13,
        14,
        15,
        16,
        13,
        14,
        15,
        16,
        13,
        14,
        15,
        16,
        13,
        14,
        15,
        16,
        45,
        398,
        271,
        272,
        269,
        270,
        303,
        144,
        13,
        14,
        15,
        16,
        13,
        14,
        15,
        16,
        13,
        14,
        15,
        48,
        909,
        782,
        783,
        784,
        781,
        782,
        783,
        784,
        781,
        782,
        783,
        784,
        781,
        782,
        783,
        784,
        781,
        782,
        783,
        784,
        781,
        782,
        783,
        784,
        781,
        782,
        815,
        144,
        45,
        398,
        271,
        272,
        269,
        270,
        303,
        144,
        13,
        14,
        15,
        16,
        13,
        14,
        15,
        16,
        45,
        910,
        783,
        816,
        897,
        770,
        803,
        132,
        1,
        2,
        3,
        4,
        1,
        2,
        3,
        4,
        1,
        34,
        387,
        260,
        257,
        258,
        259,
        292,
        129,
        2,
        3,
        4,
        1,
        2,
        3,
        4,
        1,
        2,
        3,
        4,
        1,
        2,
        3,
        4,
        1,
        2,
        3,
        4,
        1,
        2,
        3,
        4,
        1,
        2,
        3,
        4,
        1,
        2,
        3,
        4,
        1,
        2,
        3,
        4,
        1,
        2,
        3,
        4,
        33,
        386,
        259,
        260,
        257,
        258,
        291,
        132,
        1,
        2,
        3,
        4,
        1,
        2,
        3,
        4,
        1,
        2,
        3,
        36,
        897,
        770,
        771,
        772,
        769,
        770,
        771,
        772,
        769,
        770,
        771,
        772,
        769,
        770,
        771,
        772,
        769,
        770,
        771,
        772,
        769,
        770,
        771,
        772,
        769,
        770,
        803,
        132,
        33,
        386,
        259,
        260,
        257,
        258,
        291,
        132,
        1,
        2,
        3,
        4,
        1,
        2,
        3,
        4,
        33,
        898,
        771,
        804,
        901,
        774,
        807,
        136,
        5,
        6,
        7,
        8,
        5,
        6,
        7,
        8,
        5,
        38,
        391,
        264,
        261,
        262,
        263,
        296,
        133,
        6,
        7,
        8,
        5,
        6,
        7,
        8,
        5,
        6,
        7,
        8,
        5,
        6,
        7,
        8,
        5,
        6,
        7,
        8,
        5,
        6,
        7,
        8,
        5,
        6,
        7,
        8,
        5,
        6,
        7,
        8,
        5,
        6,
        7,
        8,
        5,
        6,
        7,
        8,
        37,
        390,
        263,
        264,
        261,
        262,
        295,
        136,
        5,
        6,
        7,
        8,
        5,
        6,
        7,
        8,
        5,
        6,
        7,
        40,
        901,
        774,
        775,
        776,
        773,
        774,
        775,
        776,
        773,
        774,
        775,
        776,
        773,
        774,
        775,
        776,
        773,
        774,
        775,
        776,
        773,
        774,
        775,
        776,
        773,
        774,
        807,
        136,
        37,
        390,
        263,
        264,
        261,
        262,
        295,
        136,
        5,
        6,
        7,
        8,
        5,
        6,
        7,
        8,
        37,
        902,
        775,
        808,
        905,
        778,
        811,
        140,
        9,
        10,
        11,
        12,
        9,
        10,
        11,
        12,
        9,
        42,
        395,
        268,
        265,
        266,
        267,
        300,
        137,
        10,
        11,
        12,
        9,
        10,
        11,
        12,
        9,
        10,
        11,
        12,
        9,
        10,
        11,
        12,
        9,
        10,
        11,
        12,
        9,
        10,
        11,
        12,
        9,
        10,
        11,
        12,
        9,
        10,
        11,
        12,
        9,
        10,
        11,
        12,
        9,
        10,
        11,
        12,
        41,
        394,
        267,
        268,
        265,
        266,
        299,
        140,
        9,
        10,
        11,
        12,
        9,
        10,
        11,
        12,
        9,
        10,
        11,
        44,
        905,
        778,
        779,
        780,
        777,
        778,
        779,
        780,
        777,
        778,
        779,
        780,
        777,
        778,
        779,
        780,
        777,
        778,
        779,
        780,
        777,
        778,
        779,
        780,
        777,
        778,
        811,
        140,
        41,
        394,
        267,
        268,
        265,
        266,
        299,
        140,
        9,
        10,
        11,
        12,
        9,
        10,
        11,
        12,
        41,
        906,
        779,
        812,
        909,
        782,
        815,
        144,
        13,
        14,
        15,
        16,
        13,
        14,
        15,
        16,
        13,
        46,
        399,
        272,
        269,
        270,
        271,
        304,
        141,
        14,
        15,
        16,
        13,
        14,
        15,
        16,
        13,
        14,
        15,
        16,
        13,
        14,
        15,
        16,
        13,
        14,
        15,
        16,
        13,
        14,
        15,
        16,
        13,
        14,
        15,
        16,
        13,
        14,
        15,
        16,
        13,
        14,
        15,
        16,
        13,
        14,
        15,
        16,
        45,
        398,
        271,
        272,
        269,
        270,
        303,
        144,
        13,
        14,
        15,
        16,
        13,
        14,
        15,
        16,
        13,
        14,
        15,
        48,
        909,
        782,
        783,
        784,
        781,
        782,
        783,
        784,
        781,
        782,
        783,
        784,
        781,
        782,
        783,
        784,
        781,
        782,
        783,
        784,
        781,
        782,
        783,
        784,
        781,
        782,
        815,
        144,
        45,
        398,
        271,
        272,
        269,
        270,
        303,
        144,
        13,
        14,
        15,
        16,
        13,
        14,
        15,
        16,
        45,
        910,
        783,
        816,
        897,
        770,
        803,
        132,
        1,
        2,
        3,
        4,
        1,
        2,
        3,
        4,
        1,
        34,
        387,
        260,
        257,
        258,
        259,
        292,
        129,
        2,
        3,
        4,
        1,
        2,
        3,
        4,
        1,
        2,
        3,
        4,
        1,
        2,
        3,
        4,
        1,
        2,
        3,
        4,
        1,
        2,
        3,
        4,
        1,
        2,
        3,
        4,
        1,
        2,
        3,
        4,
        1,
        2,
        3,
        4,
        1,
        2,
        3,
        4,
        33,
        386,
        259,
        260,
        257,
        258,
        291,
        132,
        1,
        2,
        3,
        4,
        1,
        2,
        3,
        4,
        1,
        2,
        3,
        36,
        961,
        770,
        771,
        772,
        769,
        770,
        771,
        772,
        769,
        770,
        771,
        772,
        769,
        770,
        771,
        772,
        769,
        770,
        771,
        772,
        769,
        770,
        771,
        772,
        769,
        770,
        867,
        132,
        33,
        386,
        259,
        260,
        257,
        258,
        291,
        132,
        1,
        2,
        3,
        4,
        1,
        2,
        3,
        4,
        33,
        898,
        771,
        804,
        901,
        774,
        807,
        136,
        5,
        6,
        7,
        8,
        5,
        6,
        7,
        8,
        5,
        38,
        391,
        264,
        261,
        262,
        263,
        296,
        133,
        6,
        7,
        8,
        5,
        6,
        7,
        8,
        5,
        6,
        7,
        8,
        5,
        6,
        7,
        8,
        5,
        6,
        7,
        8,
        5,
        6,
        7,
        8,
        5,
        6,
        7,
        8,
        5,
        6,
        7,
        8,
        5,
        6,
        7,
        8,
        5,
        6,
        7,
        8,
        37,
        390,
        263,
        264,
        261,
        262,
        295,
        136,
        5,
        6,
        7,
        8,
        5,
        6,
        7,
        8,
        5,
        6,
        7,
        8,
        53,
        902,
        775,
        776,
        773,
        774,
        775,
        776,
        773,
        774,
        775,
        776,
        773,
        774,
        775,
        776,
        773,
        774,
        775,
        776,
        773,
        774,
        775,
        776,
        773,
        806,
        151,
        8,
        37,
        390,
        263,
        264,
        261,
        262,
        295,
        136,
        5,
        6,
        7,
        8,
        5,
        6,
        7,
        8,
        37,
        902,
        775,
        808,
        905,
        778,
        811,
        140,
        9,
        10,
        11,
        12,
        9,
        10,
        11,
        12,
        9,
        42,
        395,
        268,
        265,
        266,
        267,
        300,
        137,
        10,
        11,
        12,
        9,
        10,
        11,
        12,
        9,
        10,
        11,
        12,
        9,
        10,
        11,
        12,
        9,
        10,
        11,
        12,
        9,
        10,
        11,
        12,
        9,
        10,
        11,
        12,
        9,
        10,
        11,
        12,
        9,
        10,
        11,
        12,
        9,
        10,
        11,
        12,
        41,
        394,
        267,
        268,
        265,
        266,
        299,
        140,
        9,
        10,
        11,
        12,
        9,
        10,
        11,
        12,
        9,
        10,
        11,
        12,
        41,
        970,
        779,
        780,
        777,
        778,
        779,
        780,
        777,
        778,
        779,
        780,
        777,
        778,
        779,
        780,
        777,
        778,
        779,
        780,
        777,
        778,
        779,
        780,
        777,
        874,
        139,
        12,
        41,
        394,
        267,
        268,
        265,
        266,
        299,
        140,
        9,
        10,
        11,
        12,
        9,
        10,
        11,
        12,
        41,
        906,
        779,
        812,
        909,
        782,
        815,
        144,
        13,
        14,
        15,
        16,
        13,
        14,
        15,
        16,
        13,
        46,
        399,
        272,
        269,
        270,
        271,
        304,
        141,
        14,
        15,
        16,
        13,
        14,
        15,
        16,
        13,
        14,
        15,
        16,
        13,
        14,
        15,
        16,
        13,
        14,
        15,
        16,
        13,
        14,
        15,
        16,
        13,
        14,
        15,
        16,
        13,
        14,
        15,
        16,
        13,
        14,
        15,
        16,
        13,
        14,
        15,
        16,
        45,
        398,
        271,
        272,
        269,
        270,
        303,
        144,
        13,
        14,
        15,
        16,
        13,
        14,
        15,
        16,
        13,
        14,
        15,
        16,
        13,
        62,
        975,
        784,
        781,
        782,
        783,
        784,
        781,
        782,
        783,
        784,
        781,
        782,
        783,
        784,
        781,
        782,
        783,
        784,
        781,
        782,
        783,
        784,
        877,
        158,
        15,
        16,
        45,
        398,
        271,
        272,
        269,
        270,
        303,
        144,
        13,
        14,
        15,
        16,
        13,
        14,
        15,
        16,
        45,
        910,
        783,
        816,
        897,
        770,
        803,
        132,
        1,
        2,
        3,
        4,
        1,
        2,
        3,
        4,
        1,
        34,
        387,
        260,
        257,
        258,
        259,
        292,
        129,
        2,
        3,
        4,
        1,
        2,
        3,
        4,
        1,
        2,
        3,
        4,
        1,
        2,
        3,
        4,
        1,
        2,
        3,
        4,
        1,
        2,
        3,
        4,
        1,
        2,
        3,
        4,
        1,
        2,
        3,
        4,
        1,
        2,
        3,
        4,
        1,
        2,
        3,
        4,
        33,
        386,
        259,
        260,
        257,
        258,
        291,
        132,
        1,
        2,
        3,
        4,
        1,
        2,
        3,
        4,
        1,
        2,
        3,
        4,
        1,
        2,
        51,
        964,
        769,
        770,
        771,
        772,
        769,
        770,
        771,
        772,
        769,
        770,
        771,
        772,
        769,
        770,
        771,
        772,
        769,
        770,
        771,
        868,
        145,
        2,
        3,
        4,
        33,
        386,
        259,
        260,
        257,
        258,
        291,
        132,
        1,
        2,
        3,
        4,
        1,
        2,
        3,
        4,
        33,
        898,
        771,
        804,
        901,
        774,
        807,
        136,
        5,
        6,
        7,
        8,
        5,
        6,
        7,
        8,
        5,
        38,
        391,
        264,
        261,
        262,
        263,
        296,
        133,
        6,
        7,
        8,
        5,
        6,
        7,
        8,
        5,
        6,
        7,
        8,
        5,
        6,
        7,
        8,
        5,
        6,
        7,
        8,
        5,
        6,
        7,
        8,
        5,
        6,
        7,
        8,
        5,
        6,
        7,
        8,
        5,
        6,
        7,
        8,
        5,
        6,
        7,
        8,
        37,
        390,
        263,
        264,
        261,
        262,
        295,
        136,
        5,
        6,
        7,
        8,
        5,
        6,
        7,
        8,
        5,
        6,
        7,
        8,
        5,
        6,
        7,
        56,
        965,
        838,
        775,
        776,
        773,
        774,
        775,
        776,
        773,
        774,
        775,
        776,
        773,
        774,
        775,
        776,
        773,
        838,
        871,
        152,
        5,
        6,
        7,
        8,
        37,
        390,
        263,
        264,
        261,
        262,
        295,
        136,
        5,
        6,
        7,
        8,
        5,
        6,
        7,
        8,
        37,
        902,
        775,
        808,
        905,
        778,
        811,
        140,
        9,
        10,
        11,
        12,
        9,
        10,
        11,
        12,
        9,
        42,
        395,
        268,
        265,
        266,
        267,
        300,
        137,
        10,
        11,
        12,
        9,
        10,
        11,
        12,
        9,
        10,
        11,
        12,
        9,
        10,
        11,
        12,
        9,
        10,
        11,
        12,
        9,
        10,
        11,
        12,
        9,
        10,
        11,
        12,
        73,
        74,
        75,
        76,
        73,
        74,
        75,
        76,
        73,
        74,
        75,
        76,
        105,
        458,
        331,
        332,
        265,
        330,
        299,
        140,
        9,
        10,
        11,
        12,
        9,
        10,
        11,
        12,
        9,
        10,
        11,
        12,
        9,
        10,
        11,
        12,
        25,
        58,
        971,
        844,
        841,
        842,
        843,
        844,
        841,
        842,
        843,
        844,
        841,
        842,
        843,
        844,
        873,
        154,
        27,
        12,
        9,
        10,
        11,
        12,
        41,
        394,
        267,
        268,
        265,
        266,
        299,
        140,
        9,
        10,
        11,
        12,
        9,
        10,
        11,
        12,
        41,
        906,
        779,
        812,
        909,
        782,
        815,
        144,
        13,
        14,
        15,
        16,
        13,
        14,
        15,
        16,
        13,
        46,
        399,
        272,
        269,
        270,
        271,
        304,
        141,
        14,
        15,
        16,
        13,
        14,
        15,
        16,
        13,
        14,
        15,
        16,
        13,
        14,
        15,
        16,
        13,
        14,
        15,
        16,
        13,
        14,
        15,
        16,
        13,
        14,
        15,
        112,
        669,
        542,
        543,
        544,
        541,
        542,
        543,
        544,
        541,
        542,
        543,
        544,
        541,
        542,
        543,
        576,
        429,
        702,
        495,
        208,
        13,
        14,
        15,
        16,
        13,
        14,
        15,
        16,
        13,
        14,
        15,
        16,
        13,
        14,
        15,
        16,
        13,
        14,
        31,
        32,
        29,
        30,
        31,
        32,
        29,
        30,
        31,
        32,
        29,
        30,
        31,
        32,
        29,
        14,
        15,
        16,
        13,
        14,
        15,
        16,
        45,
        398,
        271,
        272,
        269,
        270,
        303,
        144,
        13,
        14,
        15,
        16,
        13,
        14,
        15,
        16,
        45,
        910,
        783,
        816,
        897,
        770,
        803,
        132,
        1,
        2,
        3,
        4,
        1,
        2,
        3,
        4,
        1,
        34,
        387,
        260,
        257,
        258,
        259,
        292,
        129,
        2,
        3,
        4,
        1,
        2,
        3,
        4,
        1,
        2,
        3,
        4,
        1,
        2,
        3,
        4,
        1,
        2,
        3,
        4,
        1,
        2,
        3,
        4,
        1,
        66,
        99,
        660,
        513,
        514,
        515,
        516,
        513,
        514,
        515,
        516,
        513,
        514,
        515,
        516,
        513,
        514,
        515,
        548,
        481,
        642,
        531,
        564,
        193,
        66,
        3,
        4,
        1,
        2,
        3,
        4,
        1,
        2,
        3,
        4,
        1,
        2,
        3,
        4,
        1,
        2,
        3,
        4,
        1,
        2,
        3,
        4,
        1,
        2,
        3,
        4,
        1,
        2,
        3,
        4,
        1,
        2,
        3,
        4,
        1,
        2,
        3,
        4,
        33,
        386,
        259,
        260,
        257,
        258,
        291,
        132,
        1,
        2,
        3,
        4,
        1,
        2,
        3,
        4,
        33,
        898,
        771,
        804,
        901,
        774,
        807,
        136,
        5,
        6,
        7,
        8,
        5,
        6,
        7,
        8,
        5,
        38,
        391,
        264,
        261,
        262,
        263,
        296,
        133,
        6,
        7,
        8,
        5,
        6,
        7,
        8,
        5,
        6,
        7,
        8,
        5,
        6,
        7,
        8,
        5,
        6,
        7,
        8,
        5,
        6,
        7,
        8,
        101,
        662,
        535,
        520,
        517,
        518,
        519,
        520,
        517,
        518,
        519,
        520,
        517,
        518,
        519,
        520,
        517,
        518,
        519,
        520,
        533,
        518,
        519,
        520,
        533,
        566,
        199,
        72,
        5,
        6,
        7,
        8,
        5,
        6,
        7,
        8,
        5,
        6,
        7,
        8,
        5,
        6,
        7,
        8,
        5,
        6,
        7,
        8,
        5,
        6,
        7,
        8,
        5,
        6,
        7,
        8,
        5,
        6,
        7,
        8,
        5,
        6,
        7,
        8,
        37,
        390,
        263,
        264,
        261,
        262,
        295,
        136,
        5,
        6,
        7,
        8,
        5,
        6,
        7,
        8,
        37,
        902,
        775,
        808,
        905,
        778,
        811,
        140,
        9,
        10,
        11,
        12,
        9,
        10,
        11,
        12,
        9,
        42,
        395,
        268,
        265,
        266,
        267,
        300,
        137,
        10,
        11,
        12,
        9,
        10,
        11,
        12,
        9,
        10,
        11,
        12,
        9,
        10,
        11,
        12,
        9,
        10,
        11,
        12,
        9,
        10,
        75,
        108,
        665,
        522,
        523,
        524,
        521,
        522,
        587,
        588,
        585,
        586,
        587,
        588,
        585,
        586,
        587,
        588,
        585,
        586,
        587,
        588,
        585,
        586,
        523,
        524,
        521,
        522,
        539,
        572,
        201,
        74,
        11,
        12,
        9,
        10,
        11,
        12,
        9,
        10,
        11,
        12,
        9,
        10,
        11,
        12,
        9,
        10,
        11,
        12,
        9,
        10,
        11,
        12,
        9,
        10,
        11,
        12,
        9,
        10,
        11,
        12,
        9,
        10,
        11,
        12,
        41,
        394,
        267,
        268,
        265,
        266,
        299,
        140,
        9,
        10,
        11,
        12,
        9,
        10,
        11,
        12,
        41,
        906,
        779,
        812,
        909,
        782,
        815,
        144,
        13,
        14,
        15,
        16,
        13,
        14,
        15,
        16,
        13,
        46,
        399,
        272,
        269,
        270,
        271,
        304,
        141,
        14,
        15,
        16,
        13,
        14,
        15,
        16,
        13,
        14,
        15,
        16,
        13,
        14,
        15,
        16,
        13,
        14,
        15,
        16,
        13,
        110,
        671,
        544,
        525,
        526,
        527,
        528,
        589,
        622,
        159,
        32,
        29,
        30,
        31,
        32,
        29,
        30,
        31,
        32,
        61,
        414,
        287,
        288,
        285,
        318,
        719,
        592,
        525,
        526,
        527,
        528,
        541,
        574,
        207,
        80,
        13,
        14,
        15,
        16,
        13,
        14,
        15,
        16,
        13,
        14,
        15,
        16,
        13,
        14,
        15,
        16,
        13,
        14,
        15,
        16,
        13,
        14,
        15,
        16,
        13,
        14,
        15,
        16,
        13,
        14,
        15,
        16,
        45,
        398,
        271,
        272,
        269,
        270,
        303,
        144,
        13,
        14,
        15,
        16,
        13,
        14,
        15,
        16,
        45,
        910,
        783,
        816,
        897,
        770,
        803,
        132,
        1,
        2,
        3,
        4,
        1,
        2,
        3,
        4,
        1,
        34,
        387,
        260,
        257,
        258,
        259,
        292,
        129,
        2,
        3,
        4,
        1,
        2,
        3,
        4,
        1,
        2,
        3,
        4,
        1,
        2,
        3,
        4,
        1,
        2,
        3,
        68,
        97,
        658,
        515,
        516,
        513,
        514,
        515,
        612,
        145,
        18,
        3,
        4,
        1,
        2,
        3,
        4,
        1,
        2,
        3,
        4,
        33,
        386,
        259,
        260,
        257,
        258,
        307,
        180,
        705,
        578,
        515,
        516,
        513,
        514,
        531,
        564,
        193,
        66,
        67,
        68,
        65,
        66,
        67,
        68,
        65,
        66,
        67,
        68,
        65,
        66,
        67,
        68,
        65,
        66,
        67,
        68,
        65,
        66,
        67,
        68,
        65,
        66,
        67,
        68,
        65,
        2,
        3,
        4,
        33,
        386,
        259,
        260,
        257,
        258,
        291,
        132,
        1,
        2,
        3,
        4,
        1,
        2,
        3,
        4,
        33,
        898,
        771,
        804,
        901,
        774,
        807,
        136,
        5,
        6,
        7,
        8,
        5,
        6,
        7,
        8,
        5,
        38,
        391,
        264,
        261,
        262,
        263,
        296,
        133,
        6,
        7,
        8,
        5,
        6,
        7,
        8,
        5,
        6,
        7,
        8,
        5,
        6,
        7,
        8,
        5,
        70,
        103,
        664,
        533,
        518,
        519,
        520,
        517,
        582,
        615,
        152,
        5,
        6,
        7,
        8,
        5,
        6,
        7,
        8,
        5,
        6,
        7,
        8,
        37,
        390,
        263,
        264,
        261,
        262,
        295,
        136,
        21,
        54,
        711,
        584,
        517,
        518,
        519,
        520,
        533,
        534,
        535,
        536,
        533,
        534,
        535,
        536,
        533,
        534,
        535,
        536,
        533,
        534,
        535,
        536,
        533,
        534,
        535,
        536,
        533,
        534,
        535,
        536,
        533,
        534,
        535,
        536,
        565,
        198,
        7,
        8,
        37,
        390,
        263,
        264,
        261,
        262,
        295,
        136,
        5,
        6,
        7,
        8,
        5,
        6,
        7,
        8,
        37,
        902,
        775,
        808,
        905,
        778,
        811,
        140,
        9,
        10,
        11,
        12,
        9,
        10,
        11,
        12,
        9,
        42,
        395,
        268,
        265,
        266,
        267,
        300,
        137,
        10,
        11,
        12,
        9,
        10,
        11,
        12,
        9,
        10,
        11,
        12,
        9,
        10,
        11,
        12,
        105,
        666,
        539,
        524,
        521,
        522,
        523,
        524,
        617,
        154,
        27,
        12,
        9,
        10,
        11,
        12,
        9,
        10,
        11,
        12,
        9,
        10,
        11,
        12,
        41,
        394,
        267,
        268,
        265,
        266,
        299,
        140,
        9,
        10,
        27,
        60,
        713,
        586,
        523,
        524,
        521,
        522,
        523,
        524,
        521,
        522,
        523,
        524,
        521,
        522,
        523,
        524,
        521,
        522,
        523,
        524,
        521,
        522,
        523,
        524,
        521,
        522,
        523,
        524,
        521,
        522,
        523,
        524,
        521,
        570,
        203,
        76,
        41,
        394,
        267,
        268,
        265,
        266,
        299,
        140,
        9,
        10,
        11,
        12,
        9,
        10,
        11,
        12,
        41,
        906,
        779,
        812,
        909,
        782,
        815,
        144,
        13,
        14,
        15,
        16,
        13,
        14,
        15,
        16,
        13,
        46,
        399,
        272,
        269,
        270,
        271,
        304,
        141,
        14,
        15,
        16,
        13,
        14,
        15,
        16,
        13,
        14,
        15,
        16,
        13,
        14,
        15,
        48,
        669,
        526,
        527,
        528,
        525,
        526,
        591,
        624,
        157,
        14,
        15,
        16,
        13,
        14,
        15,
        16,
        13,
        14,
        15,
        16,
        13,
        14,
        15,
        16,
        45,
        398,
        271,
        272,
        269,
        270,
        303,
        144,
        13,
        14,
        15,
        16,
        29,
        62,
        719,
        592,
        525,
        526,
        527,
        528,
        525,
        526,
        527,
        528,
        525,
        526,
        527,
        528,
        525,
        526,
        527,
        528,
        525,
        526,
        527,
        528,
        525,
        526,
        527,
        528,
        525,
        526,
        527,
        528,
        525,
        526,
        543,
        576,
        237,
        398,
        271,
        272,
        269,
        270,
        303,
        144,
        13,
        14,
        15,
        16,
        13,
        14,
        15,
        16,
        45,
        910,
        783,
        816,
        897,
        770,
        803,
        132,
        1,
        2,
        3,
        4,
        1,
        2,
        3,
        4,
        1,
        34,
        387,
        260,
        257,
        258,
        259,
        292,
        129,
        2,
        3,
        4,
        1,
        2,
        3,
        4,
        1,
        2,
        3,
        4,
        1,
        2,
        3,
        100,
        641,
        514,
        515,
        516,
        513,
        610,
        147,
        20,
        1,
        2,
        3,
        4,
        1,
        2,
        3,
        4,
        1,
        2,
        3,
        4,
        1,
        2,
        3,
        4,
        33,
        386,
        259,
        260,
        257,
        258,
        291,
        132,
        1,
        2,
        3,
        4,
        1,
        2,
        19,
        52,
        705,
        578,
        579,
        580,
        577,
        578,
        579,
        580,
        577,
        578,
        579,
        580,
        577,
        578,
        579,
        580,
        577,
        578,
        579,
        580,
        577,
        578,
        579,
        580,
        577,
        578,
        579,
        516,
        513,
        514,
        515,
        516,
        561,
        450,
        259,
        260,
        257,
        258,
        291,
        132,
        1,
        2,
        3,
        4,
        1,
        2,
        3,
        4,
        33,
        898,
        771,
        804,
        901,
        774,
        807,
        136,
        5,
        6,
        7,
        8,
        5,
        6,
        7,
        8,
        5,
        38,
        391,
        264,
        261,
        262,
        263,
        296,
        133,
        6,
        7,
        8,
        5,
        6,
        7,
        8,
        5,
        6,
        7,
        8,
        5,
        6,
        103,
        664,
        517,
        518,
        519,
        520,
        613,
        150,
        7,
        8,
        5,
        6,
        7,
        8,
        5,
        6,
        7,
        8,
        5,
        6,
        7,
        8,
        5,
        6,
        7,
        8,
        37,
        390,
        263,
        264,
        261,
        262,
        295,
        136,
        5,
        6,
        7,
        8,
        5,
        6,
        7,
        8,
        21,
        22,
        23,
        24,
        21,
        22,
        23,
        24,
        21,
        22,
        23,
        24,
        21,
        22,
        23,
        24,
        21,
        22,
        23,
        24,
        21,
        22,
        23,
        24,
        21,
        22,
        55,
        712,
        581,
        518,
        519,
        520,
        517,
        566,
        455,
        328,
        261,
        262,
        295,
        136,
        5,
        6,
        7,
        8,
        5,
        6,
        7,
        8,
        37,
        902,
        775,
        808,
        905,
        778,
        811,
        140,
        9,
        10,
        11,
        12,
        9,
        10,
        11,
        12,
        9,
        42,
        395,
        268,
        265,
        266,
        267,
        300,
        137,
        10,
        11,
        12,
        9,
        10,
        11,
        12,
        9,
        10,
        11,
        12,
        9,
        42,
        667,
        524,
        521,
        522,
        523,
        620,
        153,
        10,
        11,
        12,
        9,
        10,
        11,
        12,
        9,
        10,
        11,
        12,
        9,
        10,
        11,
        12,
        9,
        10,
        11,
        12,
        41,
        394,
        267,
        268,
        265,
        266,
        299,
        140,
        9,
        10,
        11,
        12,
        9,
        10,
        11,
        12,
        9,
        10,
        11,
        12,
        9,
        10,
        11,
        12,
        9,
        10,
        11,
        12,
        9,
        10,
        11,
        12,
        9,
        10,
        11,
        12,
        9,
        10,
        11,
        12,
        9,
        10,
        11,
        28,
        57,
        714,
        523,
        524,
        521,
        522,
        539,
        572,
        457,
        266,
        299,
        140,
        9,
        10,
        11,
        12,
        9,
        10,
        11,
        12,
        41,
        906,
        779,
        812,
        909,
        782,
        815,
        144,
        13,
        14,
        15,
        16,
        13,
        14,
        15,
        16,
        13,
        46,
        399,
        272,
        269,
        270,
        271,
        304,
        141,
        14,
        15,
        16,
        13,
        14,
        15,
        16,
        13,
        14,
        15,
        16,
        13,
        110,
        655,
        528,
        525,
        526,
        623,
        160,
        13,
        14,
        15,
        16,
        13,
        14,
        15,
        16,
        13,
        14,
        15,
        16,
        13,
        14,
        15,
        16,
        13,
        14,
        15,
        16,
        45,
        398,
        271,
        272,
        269,
        270,
        303,
        144,
        13,
        14,
        15,
        16,
        13,
        14,
        15,
        16,
        13,
        14,
        15,
        16,
        13,
        14,
        15,
        16,
        13,
        14,
        15,
        16,
        13,
        14,
        15,
        16,
        13,
        14,
        15,
        16,
        13,
        14,
        15,
        16,
        13,
        14,
        15,
        16,
        13,
        62,
        719,
        528,
        525,
        526,
        527,
        528,
        573,
        462,
        303,
        144,
        13,
        14,
        15,
        16,
        13,
        14,
        15,
        16,
        45,
        910,
        783,
        816,
        897,
        770,
        803,
        132,
        1,
        2,
        3,
        4,
        1,
        2,
        3,
        4,
        1,
        34,
        387,
        260,
        257,
        258,
        259,
        292,
        129,
        2,
        3,
        4,
        65,
        66,
        67,
        68,
        65,
        66,
        67,
        68,
        97,
        658,
        515,
        516,
        513,
        546,
        211,
        4,
        1,
        2,
        3,
        4,
        1,
        2,
        3,
        4,
        1,
        2,
        3,
        4,
        1,
        2,
        3,
        4,
        1,
        2,
        3,
        4,
        33,
        386,
        259,
        260,
        257,
        258,
        291,
        132,
        1,
        2,
        3,
        4,
        1,
        2,
        3,
        4,
        1,
        2,
        3,
        4,
        1,
        2,
        3,
        4,
        1,
        2,
        3,
        4,
        1,
        2,
        3,
        4,
        1,
        2,
        3,
        4,
        1,
        2,
        3,
        4,
        1,
        2,
        3,
        4,
        1,
        2,
        51,
        708,
        577,
        514,
        515,
        516,
        513,
        562,
        419,
        132,
        1,
        2,
        3,
        4,
        1,
        2,
        3,
        4,
        33,
        898,
        771,
        804,
        901,
        774,
        807,
        136,
        5,
        6,
        7,
        8,
        5,
        6,
        7,
        8,
        5,
        38,
        391,
        264,
        261,
        262,
        263,
        296,
        133,
        6,
        7,
        104,
        1173,
        1046,
        1047,
        1048,
        1045,
        1046,
        1047,
        1048,
        1141,
        646,
        519,
        520,
        517,
        614,
        1207,
        200,
        5,
        6,
        7,
        8,
        5,
        6,
        7,
        8,
        5,
        6,
        7,
        8,
        5,
        6,
        7,
        8,
        5,
        6,
        7,
        8,
        37,
        390,
        263,
        264,
        261,
        262,
        295,
        136,
        5,
        6,
        7,
        8,
        5,
        6,
        7,
        8,
        5,
        6,
        7,
        8,
        5,
        6,
        7,
        8,
        5,
        6,
        7,
        8,
        5,
        6,
        7,
        8,
        5,
        6,
        7,
        8,
        5,
        6,
        7,
        8,
        5,
        6,
        7,
        8,
        5,
        6,
        7,
        24,
        53,
        710,
        519,
        520,
        517,
        550,
        423,
        136,
        5,
        6,
        7,
        8,
        5,
        6,
        7,
        8,
        37,
        902,
        775,
        808,
        905,
        778,
        811,
        140,
        9,
        10,
        11,
        12,
        9,
        10,
        11,
        12,
        9,
        42,
        395,
        268,
        265,
        266,
        267,
        300,
        137,
        10,
        43,
        1180,
        1033,
        1034,
        1035,
        1036,
        1033,
        1034,
        1035,
        1132,
        665,
        522,
        523,
        524,
        617,
        1178,
        1035,
        1084,
        137,
        10,
        11,
        12,
        9,
        10,
        11,
        12,
        9,
        10,
        11,
        12,
        9,
        10,
        11,
        12,
        9,
        10,
        11,
        12,
        41,
        394,
        267,
        268,
        265,
        266,
        299,
        140,
        9,
        10,
        11,
        12,
        9,
        10,
        11,
        12,
        9,
        10,
        11,
        12,
        9,
        10,
        11,
        12,
        9,
        10,
        11,
        12,
        9,
        10,
        11,
        12,
        9,
        10,
        11,
        12,
        9,
        10,
        11,
        12,
        9,
        10,
        11,
        12,
        9,
        10,
        11,
        12,
        41,
        442,
        651,
        524,
        521,
        554,
        427,
        140,
        9,
        10,
        11,
        12,
        9,
        10,
        11,
        12,
        41,
        906,
        779,
        812,
        909,
        782,
        815,
        144,
        13,
        14,
        15,
        16,
        13,
        14,
        15,
        16,
        13,
        46,
        399,
        272,
        269,
        270,
        271,
        304,
        141,
        14,
        47,
        1168,
        1037,
        1038,
        1039,
        1040,
        1037,
        1038,
        1071,
        672,
        525,
        526,
        527,
        560,
        1181,
        1038,
        1039,
        1072,
        141,
        14,
        15,
        16,
        13,
        14,
        15,
        16,
        13,
        14,
        15,
        16,
        13,
        14,
        15,
        16,
        13,
        14,
        15,
        16,
        45,
        398,
        271,
        272,
        269,
        270,
        303,
        144,
        13,
        14,
        15,
        16,
        13,
        14,
        15,
        16,
        13,
        14,
        15,
        16,
        13,
        14,
        15,
        16,
        13,
        14,
        15,
        16,
        13,
        14,
        15,
        16,
        13,
        14,
        15,
        16,
        13,
        14,
        15,
        16,
        13,
        14,
        15,
        16,
        13,
        14,
        15,
        16,
        45,
        430,
        655,
        528,
        525,
        558,
        431,
        144,
        13,
        14,
        15,
        16,
        13,
        14,
        15,
        16,
        45,
        910,
        783,
        816,
        897,
        770,
        803,
        132,
        1,
        2,
        3,
        4,
        1,
        2,
        3,
        4,
        1,
        34,
        387,
        260,
        257,
        258,
        259,
        292,
        129,
        2,
        35,
        1156,
        1025,
        1026,
        1027,
        1028,
        1025,
        1026,
        1123,
        644,
        513,
        514,
        515,
        612,
        1153,
        1026,
        1027,
        1060,
        129,
        2,
        3,
        4,
        1,
        2,
        3,
        4,
        1,
        2,
        3,
        4,
        1,
        2,
        3,
        4,
        1,
        2,
        3,
        4,
        33,
        386,
        259,
        260,
        257,
        258,
        291,
        132,
        1,
        2,
        3,
        4,
        1,
        2,
        3,
        4,
        1,
        2,
        3,
        4,
        1,
        2,
        3,
        4,
        1,
        2,
        3,
        4,
        1,
        2,
        3,
        4,
        1,
        2,
        3,
        4,
        1,
        2,
        3,
        4,
        1,
        2,
        3,
        4,
        1,
        2,
        3,
        4,
        33,
        418,
        643,
        516,
        513,
        546,
        419,
        132,
        1,
        2,
        3,
        4,
        1,
        2,
        3,
        4,
        33,
        898,
        771,
        804,
        901,
        774,
        807,
        136,
        5,
        6,
        7,
        8,
        5,
        6,
        7,
        8,
        5,
        38,
        391,
        264,
        261,
        262,
        263,
        296,
        133,
        6,
        39,
        1160,
        1029,
        1030,
        1031,
        1032,
        1029,
        1126,
        663,
        520,
        517,
        518,
        551,
        1176,
        1029,
        1030,
        1031,
        1064,
        133,
        6,
        7,
        8,
        5,
        6,
        7,
        8,
        5,
        6,
        7,
        8,
        5,
        6,
        7,
        8,
        5,
        6,
        7,
        8,
        37,
        390,
        263,
        264,
        261,
        262,
        295,
        136,
        5,
        6,
        7,
        8,
        5,
        6,
        7,
        8,
        5,
        6,
        7,
        8,
        5,
        6,
        7,
        8,
        5,
        6,
        7,
        8,
        5,
        6,
        7,
        8,
        5,
        6,
        7,
        8,
        5,
        6,
        7,
        8,
        5,
        6,
        7,
        8,
        5,
        6,
        7,
        8,
        37,
        422,
        647,
        520,
        517,
        550,
        423,
        136,
        5,
        6,
        7,
        8,
        5,
        6,
        7,
        8,
        37,
        902,
        775,
        808,
        905,
        778,
        811,
        140,
        9,
        10,
        11,
        12,
        9,
        10,
        11,
        12,
        9,
        42,
        395,
        268,
        265,
        266,
        267,
        300,
        137,
        10,
        43,
        1164,
        1033,
        1034,
        1035,
        1036,
        1065,
        666,
        523,
        524,
        521,
        522,
        619,
        1164,
        1033,
        1034,
        1035,
        1068,
        137,
        10,
        11,
        12,
        9,
        10,
        11,
        12,
        9,
        10,
        11,
        12,
        9,
        10,
        11,
        12,
        9,
        10,
        11,
        12,
        41,
        394,
        267,
        268,
        265,
        266,
        299,
        140,
        9,
        10,
        11,
        12,
        9,
        10,
        11,
        12,
        9,
        10,
        11,
        12,
        9,
        10,
        11,
        12,
        9,
        10,
        11,
        12,
        9,
        10,
        11,
        12,
        9,
        10,
        11,
        12,
        9,
        10,
        11,
        12,
        9,
        10,
        11,
        12,
        9,
        10,
        11,
        12,
        41,
        426,
        651,
        524,
        521,
        554,
        427,
        140,
        9,
        10,
        11,
        12,
        9,
        10,
        11,
        12,
        41,
        906,
        779,
        812,
        909,
        782,
        815,
        144,
        13,
        14,
        15,
        16,
        13,
        14,
        15,
        16,
        13,
        46,
        399,
        272,
        269,
        270,
        271,
        304,
        141,
        14,
        47,
        1168,
        1037,
        1038,
        1039,
        1040,
        1133,
        654,
        527,
        528,
        525,
        622,
        1183,
        1040,
        1037,
        1038,
        1039,
        1072,
        141,
        14,
        15,
        16,
        13,
        14,
        15,
        16,
        13,
        14,
        15,
        16,
        13,
        14,
        15,
        16,
        13,
        14,
        15,
        16,
        45,
        398,
        271,
        272,
        269,
        270,
        303,
        144,
        13,
        14,
        15,
        16,
        13,
        14,
        15,
        16,
        13,
        14,
        15,
        16,
        13,
        14,
        15,
        16,
        13,
        14,
        15,
        16,
        13,
        14,
        15,
        16,
        13,
        14,
        15,
        16,
        13,
        14,
        15,
        16,
        13,
        14,
        15,
        16,
        13,
        14,
        15,
        16,
        45,
        430,
        655,
        528,
        525,
        558,
        431,
        144,
        13,
        14,
        15,
        16,
        13,
        14,
        15,
        16,
        45,
        910,
        783,
        816,
        897,
        770,
        803,
        132,
        1,
        2,
        3,
        4,
        1,
        2,
        3,
        4,
        1,
        34,
        387,
        260,
        257,
        258,
        259,
        292,
        193,
        66,
        99,
        1156,
        1025,
        1026,
        1027,
        1060,
        721,
        578,
        515,
        516,
        545,
        1170,
        1027,
        1028,
        1025,
        1026,
        1027,
        1060,
        193,
        66,
        67,
        68,
        65,
        66,
        67,
        68,
        65,
        66,
        67,
        68,
        65,
        66,
        67,
        68,
        65,
        66,
        67,
        68,
        97,
        386,
        259,
        260,
        257,
        258,
        291,
        196,
        65,
        66,
        67,
        68,
        65,
        66,
        67,
        68,
        65,
        66,
        67,
        68,
        65,
        66,
        67,
        68,
        65,
        66,
        67,
        68,
        65,
        66,
        67,
        68,
        65,
        66,
        67,
        68,
        65,
        66,
        67,
        68,
        65,
        66,
        67,
        68,
        65,
        66,
        67,
        68,
        97,
        418,
        643,
        516,
        513,
        546,
        419,
        132,
        1,
        2,
        3,
        4,
        1,
        2,
        3,
        4,
        33,
        898,
        771,
        804,
        901,
        774,
        807,
        136,
        5,
        6,
        7,
        8,
        5,
        6,
        7,
        8,
        5,
        38,
        391,
        264,
        261,
        262,
        263,
        264,
        277,
        278,
        311,
        1160,
        1029,
        1030,
        1031,
        1032,
        1045,
        1078,
        711,
        520,
        613,
        1158,
        1031,
        1032,
        1029,
        1030,
        1031,
        1064,
        405,
        278,
        279,
        280,
        277,
        278,
        279,
        280,
        277,
        278,
        279,
        280,
        277,
        278,
        279,
        280,
        277,
        278,
        279,
        280,
        277,
        262,
        263,
        264,
        261,
        262,
        263,
        280,
        277,
        278,
        279,
        280,
        277,
        278,
        279,
        280,
        277,
        278,
        279,
        280,
        277,
        278,
        279,
        280,
        277,
        278,
        279,
        280,
        277,
        278,
        279,
        280,
        277,
        278,
        279,
        280,
        277,
        278,
        279,
        280,
        277,
        278,
        279,
        280,
        277,
        278,
        279,
        280,
        277,
        294,
        647,
        520,
        517,
        550,
        423,
        136,
        5,
        6,
        7,
        8,
        5,
        6,
        7,
        8,
        37,
        902,
        775,
        808,
        905,
        778,
        811,
        140,
        9,
        10,
        11,
        12,
        9,
        10,
        11,
        12,
        9,
        42,
        395,
        268,
        265,
        266,
        267,
        268,
        265,
        266,
        299,
        1164,
        1033,
        1034,
        1035,
        1036,
        1033,
        1034,
        1083,
        748,
        1177,
        1034,
        1035,
        1036,
        1033,
        1034,
        1035,
        1068,
        393,
        266,
        267,
        268,
        265,
        266,
        267,
        268,
        265,
        266,
        267,
        268,
        265,
        266,
        267,
        268,
        265,
        266,
        267,
        268,
        265,
        266,
        267,
        268,
        265,
        266,
        267,
        268,
        265,
        266,
        267,
        268,
        265,
        266,
        267,
        268,
        265,
        266,
        267,
        268,
        265,
        266,
        267,
        268,
        265,
        266,
        267,
        268,
        265,
        266,
        267,
        268,
        265,
        266,
        267,
        268,
        265,
        266,
        267,
        268,
        265,
        266,
        267,
        268,
        265,
        266,
        267,
        268,
        265,
        298,
        715,
        588,
        585,
        618,
        427,
        140,
        9,
        10,
        11,
        12,
        9,
        10,
        11,
        12,
        41,
        906,
        779,
        812,
        909,
        782,
        815,
        144,
        13,
        14,
        15,
        16,
        13,
        14,
        15,
        16,
        13,
        46,
        399,
        272,
        269,
        270,
        271,
        272,
        269,
        270,
        303,
        1168,
        1037,
        1038,
        1039,
        1040,
        1037,
        1038,
        1039,
        1056,
        1037,
        1038,
        1039,
        1040,
        1037,
        1038,
        1039,
        1072,
        397,
        270,
        271,
        272,
        269,
        270,
        271,
        272,
        269,
        270,
        271,
        272,
        269,
        270,
        271,
        272,
        269,
        270,
        271,
        272,
        269,
        270,
        271,
        272,
        269,
        270,
        271,
        272,
        269,
        270,
        271,
        272,
        269,
        270,
        271,
        272,
        269,
        270,
        271,
        272,
        269,
        270,
        271,
        272,
        269,
        270,
        271,
        272,
        269,
        270,
        271,
        272,
        269,
        270,
        271,
        272,
        269,
        270,
        271,
        272,
        269,
        270,
        271,
        272,
        269,
        270,
        271,
        272,
        269,
        270,
        287,
        288,
        285,
        286,
        303,
        144,
        13,
        14,
        15,
        16,
        13,
        14,
        15,
        16,
        45,
        910,
        783,
        816,
        897,
        770,
        803,
        132,
        1,
        2,
        3,
        4,
        1,
        2,
        3,
        4,
        1,
        34,
        387,
        260,
        257,
        258,
        259,
        260,
        257,
        258,
        291,
        1156,
        1025,
        1026,
        1027,
        1028,
        1025,
        1026,
        1027,
        1028,
        1025,
        1026,
        1027,
        1028,
        1025,
        1026,
        1027,
        1060,
        385,
        258,
        259,
        260,
        257,
        258,
        259,
        260,
        257,
        258,
        259,
        260,
        257,
        258,
        259,
        260,
        257,
        258,
        259,
        260,
        257,
        258,
        259,
        260,
        257,
        258,
        259,
        260,
        257,
        258,
        259,
        260,
        257,
        258,
        259,
        260,
        257,
        258,
        259,
        260,
        257,
        258,
        259,
        260,
        257,
        258,
        259,
        260,
        257,
        258,
        259,
        260,
        257,
        258,
        259,
        260,
        257,
        258,
        259,
        260,
        257,
        258,
        259,
        260,
        257,
        258,
        259,
        260,
        257,
        258,
        259,
        260,
        257,
        258,
        291,
        132,
        1,
        2,
        3,
        4,
        1,
        2,
        3,
        4,
        33,
        898,
        771,
        804,
        901,
        774,
        807,
        136,
        5,
        6,
        7,
        8,
        5,
        6,
        7,
        8,
        5,
        38,
        391,
        264,
        261,
        262,
        263,
        264,
        261,
        262,
        295,
        1160,
        1029,
        1030,
        1031,
        1032,
        1029,
        1030,
        1031,
        1032,
        1029,
        1030,
        1031,
        1032,
        1029,
        1030,
        1031,
        1064,
        389,
        262,
        263,
        264,
        261,
        262,
        263,
        264,
        261,
        262,
        263,
        264,
        261,
        262,
        263,
        264,
        261,
        262,
        263,
        264,
        261,
        262,
        263,
        264,
        261,
        262,
        263,
        264,
        261,
        262,
        263,
        264,
        261,
        262,
        263,
        264,
        261,
        262,
        263,
        264,
        261,
        262,
        263,
        264,
        261,
        262,
        263,
        264,
        261,
        262,
        263,
        264,
        261,
        262,
        263,
        264,
        261,
        262,
        263,
        264,
        261,
        262,
        263,
        264,
        261,
        262,
        263,
        264,
        261,
        262,
        263,
        264,
        261,
        262,
        295,
        136,
        5,
        6,
        7,
        8,
        5,
        6,
        7,
        8,
        37,
        902,
        775,
        808,
        905,
        778,
        811,
        140,
        9,
        10,
        11,
        12,
        9,
        10,
        11,
        12,
        9,
        42,
        395,
        268,
        265,
        266,
        267,
        268,
        329,
        330,
        363,
        1228,
        1033,
        1034,
        1035,
        1036,
        1033,
        1034,
        1035,
        1036,
        1033,
        1034,
        1035,
        1036,
        1033,
        1034,
        1035,
        1132,
        457,
        330,
        331,
        332,
        329,
        330,
        331,
        332,
        329,
        330,
        331,
        332,
        329,
        330,
        331,
        332,
        329,
        330,
        331,
        332,
        329,
        266,
        267,
        268,
        265,
        266,
        267,
        332,
        329,
        330,
        331,
        332,
        329,
        330,
        331,
        332,
        329,
        330,
        331,
        332,
        329,
        330,
        331,
        332,
        329,
        330,
        331,
        332,
        329,
        330,
        331,
        332,
        329,
        330,
        331,
        332,
        329,
        330,
        331,
        332,
        329,
        330,
        331,
        332,
        329,
        330,
        331,
        332,
        329,
        266,
        267,
        268,
        265,
        266,
        299,
        140,
        9,
        10,
        11,
        12,
        9,
        10,
        11,
        12,
        41,
        906,
        779,
        812,
        909,
        782,
        815,
        144,
        13,
        14,
        15,
        16,
        13,
        14,
        15,
        16,
        13,
        46,
        399,
        272,
        269,
        270,
        271,
        304,
        157,
        30,
        31,
        64,
        1229,
        1102,
        1103,
        1104,
        1101,
        1102,
        1103,
        1104,
        1101,
        1102,
        1103,
        1104,
        1101,
        1102,
        1135,
        160,
        29,
        30,
        31,
        32,
        29,
        30,
        31,
        32,
        29,
        30,
        31,
        32,
        29,
        30,
        31,
        32,
        29,
        30,
        31,
        32,
        61,
        398,
        271,
        272,
        269,
        270,
        303,
        160,
        29,
        30,
        31,
        32,
        29,
        30,
        31,
        32,
        29,
        30,
        31,
        32,
        29,
        30,
        31,
        32,
        29,
        30,
        31,
        32,
        29,
        30,
        31,
        32,
        29,
        30,
        31,
        32,
        29,
        30,
        31,
        32,
        29,
        30,
        31,
        32,
        29,
        30,
        31,
        32,
        61,
        398,
        271,
        272,
        269,
        270,
        303,
        144,
        13,
        14,
        15,
        16,
        13,
        14,
        15,
        16,
        45,
        910,
        783,
        816,
        897,
        770,
        803,
        132,
        1,
        2,
        3,
        4,
        1,
        2,
        3,
        4,
        1,
        34,
        387,
        260,
        257,
        258,
        259,
        292,
        129,
        2,
        3,
        4,
        17,
        18,
        19,
        20,
        17,
        18,
        19,
        20,
        17,
        18,
        19,
        20,
        17,
        18,
        19,
        4,
        1,
        2,
        3,
        4,
        1,
        2,
        3,
        4,
        1,
        2,
        3,
        4,
        1,
        2,
        3,
        4,
        1,
        2,
        3,
        4,
        33,
        386,
        259,
        260,
        257,
        258,
        291,
        132,
        1,
        2,
        3,
        4,
        1,
        2,
        3,
        4,
        1,
        2,
        3,
        4,
        1,
        2,
        3,
        4,
        1,
        2,
        3,
        4,
        1,
        2,
        3,
        4,
        1,
        2,
        3,
        4,
        1,
        2,
        3,
        4,
        1,
        2,
        3,
        4,
        1,
        2,
        3,
        4,
        33,
        386,
        259,
        260,
        257,
        258,
        291,
        132,
        1,
        2,
        3,
        4,
        1,
        2,
        3,
        4,
        33,
        898,
        771,
        804,
        901,
        774,
        807,
        136,
        5,
        6,
        7,
        8,
        5,
        6,
        7,
        8,
        5,
        38,
        391,
        264,
        261,
        262,
        263,
        296,
        133,
        6,
        7,
        8,
        5,
        6,
        7,
        8,
        5,
        6,
        7,
        8,
        5,
        6,
        7,
        8,
        5,
        6,
        7,
        8,
        5,
        6,
        7,
        8,
        5,
        6,
        7,
        8,
        5,
        6,
        7,
        8,
        5,
        6,
        7,
        8,
        5,
        6,
        7,
        8,
        37,
        390,
        263,
        264,
        261,
        262,
        295,
        136,
        5,
        6,
        7,
        8,
        5,
        6,
        7,
        8,
        5,
        6,
        7,
        8,
        5,
        6,
        7,
        8,
        5,
        6,
        7,
        8,
        5,
        6,
        7,
        8,
        5,
        6,
        7,
        8,
        5,
        6,
        7,
        8,
        5,
        6,
        7,
        8,
        5,
        6,
        7,
        8,
        37,
        390,
        263,
        264,
        261,
        262,
        295,
        136,
        5,
        6,
        7,
        8,
        5,
        6,
        7,
        8,
        37,
        902,
        775,
        808,
        905,
        778,
        811,
        140,
        9,
        10,
        11,
        12,
        9,
        10,
        11,
        12,
        9,
        42,
        459,
        268,
        265,
        266,
        267,
        300,
        201,
        10,
        11,
        12,
        9,
        10,
        11,
        12,
        9,
        10,
        11,
        12,
        9,
        10,
        11,
        12,
        9,
        10,
        11,
        12,
        9,
        10,
        11,
        12,
        9,
        10,
        11,
        12,
        9,
        10,
        11,
        12,
        9,
        10,
        11,
        12,
        9,
        10,
        11,
        12,
        41,
        394,
        267,
        268,
        265,
        266,
        299,
        140,
        9,
        10,
        11,
        12,
        9,
        10,
        11,
        12,
        9,
        10,
        11,
        12,
        9,
        10,
        11,
        12,
        9,
        10,
        11,
        12,
        9,
        10,
        11,
        12,
        9,
        10,
        11,
        12,
        9,
        10,
        11,
        12,
        9,
        10,
        11,
        12,
        9,
        10,
        11,
        12,
        105,
        394,
        267,
        268,
        265,
        266,
        363,
        140,
        9,
        10,
        11,
        12,
        9,
        10,
        11,
        12,
        41,
        906,
        779,
        812,
        909,
        782,
        815,
        144,
        13,
        14,
        15,
        16,
        13,
        14,
        15,
        16,
        13,
        14,
        63,
        400,
        269,
        270,
        271,
        272,
        317,
        142,
        15,
        16,
        13,
        14,
        15,
        16,
        13,
        14,
        15,
        16,
        13,
        14,
        15,
        16,
        13,
        14,
        15,
        16,
        13,
        14,
        15,
        16,
        13,
        14,
        15,
        16,
        13,
        14,
        15,
        16,
        13,
        14,
        15,
        16,
        13,
        14,
        15,
        16,
        45,
        398,
        271,
        272,
        269,
        270,
        303,
        144,
        13,
        14,
        15,
        16,
        13,
        14,
        15,
        16,
        13,
        14,
        15,
        16,
        13,
        14,
        15,
        16,
        13,
        14,
        15,
        16,
        13,
        14,
        15,
        16,
        13,
        14,
        15,
        16,
        13,
        14,
        15,
        16,
        13,
        14,
        15,
        16,
        13,
        14,
        15,
        48,
        413,
        270,
        271,
        272,
        269,
        302,
        159,
        16,
        13,
        14,
        15,
        16,
        13,
        14,
        15,
        16,
        45,
        910,
        783,
        816,
        897,
        770,
        803,
        132,
        1,
        2,
        3,
        4,
        1,
        2,
        3,
        4,
        1,
        2,
        35,
        388,
        257,
        258,
        259,
        260,
        289,
        194,
        3,
        4,
        1,
        2,
        3,
        4,
        1,
        2,
        3,
        4,
        1,
        2,
        3,
        4,
        1,
        2,
        3,
        4,
        1,
        2,
        3,
        4,
        1,
        2,
        3,
        4,
        1,
        2,
        3,
        4,
        1,
        2,
        3,
        4,
        1,
        2,
        3,
        4,
        33,
        386,
        259,
        260,
        257,
        258,
        291,
        132,
        1,
        2,
        3,
        4,
        1,
        2,
        3,
        4,
        1,
        2,
        3,
        4,
        1,
        2,
        3,
        4,
        1,
        2,
        3,
        4,
        1,
        2,
        3,
        4,
        1,
        2,
        3,
        4,
        1,
        2,
        3,
        4,
        1,
        2,
        3,
        4,
        1,
        2,
        3,
        100,
        385,
        258,
        259,
        260,
        257,
        290,
        131,
        4,
        1,
        2,
        3,
        4,
        1,
        2,
        3,
        4,
        33,
        898,
        771,
        804,
        901,
        774,
        807,
        136,
        5,
        6,
        7,
        8,
        5,
        6,
        7,
        8,
        5,
        6,
        39,
        456,
        261,
        262,
        263,
        264,
        261,
        310,
        199,
        8,
        5,
        6,
        7,
        8,
        5,
        6,
        7,
        8,
        5,
        6,
        7,
        8,
        5,
        6,
        7,
        8,
        5,
        6,
        7,
        8,
        5,
        6,
        7,
        8,
        5,
        6,
        7,
        8,
        5,
        6,
        7,
        8,
        5,
        6,
        7,
        8,
        37,
        390,
        263,
        264,
        261,
        262,
        295,
        136,
        5,
        6,
        7,
        8,
        5,
        6,
        7,
        8,
        5,
        6,
        7,
        8,
        5,
        6,
        7,
        8,
        5,
        6,
        7,
        8,
        5,
        6,
        7,
        8,
        5,
        6,
        7,
        8,
        5,
        6,
        7,
        8,
        5,
        6,
        7,
        8,
        5,
        6,
        103,
        408,
        261,
        262,
        263,
        264,
        261,
        358,
        135,
        8,
        5,
        6,
        7,
        8,
        5,
        6,
        7,
        8,
        37,
        902,
        775,
        808,
        905,
        778,
        811,
        140,
        9,
        10,
        11,
        12,
        9,
        10,
        11,
        12,
        9,
        10,
        11,
        60,
        393,
        266,
        267,
        268,
        265,
        266,
        315,
        204,
        9,
        10,
        11,
        12,
        9,
        10,
        11,
        12,
        9,
        10,
        11,
        12,
        9,
        10,
        11,
        12,
        9,
        10,
        11,
        12,
        9,
        10,
        11,
        12,
        9,
        10,
        11,
        12,
        9,
        10,
        11,
        12,
        9,
        10,
        11,
        12,
        41,
        394,
        267,
        268,
        265,
        266,
        299,
        140,
        9,
        10,
        11,
        12,
        9,
        10,
        11,
        12,
        9,
        10,
        11,
        12,
        9,
        10,
        11,
        12,
        9,
        10,
        11,
        12,
        9,
        10,
        11,
        12,
        9,
        10,
        11,
        12,
        9,
        10,
        11,
        12,
        9,
        10,
        11,
        12,
        9,
        106,
        411,
        268,
        265,
        266,
        267,
        268,
        297,
        154,
        11,
        12,
        9,
        10,
        11,
        12,
        9,
        10,
        11,
        12,
        41,
        906,
        779,
        812,
        909,
        782,
        815,
        144,
        13,
        14,
        15,
        16,
        13,
        14,
        15,
        16,
        13,
        14,
        15,
        48,
        461,
        270,
        271,
        272,
        269,
        270,
        271,
        320,
        205,
        78,
        15,
        16,
        13,
        14,
        15,
        16,
        13,
        14,
        15,
        16,
        13,
        14,
        15,
        16,
        13,
        14,
        15,
        16,
        13,
        14,
        15,
        16,
        13,
        14,
        15,
        16,
        13,
        14,
        15,
        16,
        13,
        14,
        15,
        16,
        45,
        398,
        271,
        272,
        269,
        270,
        303,
        144,
        13,
        14,
        15,
        16,
        13,
        14,
        15,
        16,
        13,
        14,
        15,
        16,
        13,
        14,
        15,
        16,
        13,
        14,
        15,
        16,
        13,
        14,
        15,
        16,
        13,
        14,
        15,
        16,
        13,
        14,
        15,
        16,
        13,
        14,
        15,
        80,
        109,
        414,
        271,
        272,
        269,
        270,
        271,
        272,
        365,
        142,
        15,
        16,
        13,
        14,
        15,
        16,
        13,
        14,
        15,
        16,
        45,
        910,
        783,
        816,
        897,
        770,
        803,
        132,
        1,
        2,
        3,
        4,
        1,
        2,
        3,
        4,
        1,
        2,
        3,
        4,
        49,
        450,
        259,
        260,
        257,
        258,
        259,
        260,
        273,
        306,
        195,
        68,
        65,
        66,
        67,
        68,
        65,
        66,
        67,
        68,
        65,
        66,
        67,
        68,
        65,
        66,
        67,
        68,
        65,
        66,
        67,
        68,
        65,
        66,
        67,
        68,
        65,
        66,
        67,
        68,
        65,
        66,
        67,
        68,
        97,
        386,
        259,
        260,
        257,
        258,
        291,
        196,
        65,
        66,
        67,
        68,
        65,
        66,
        67,
        68,
        65,
        66,
        67,
        68,
        65,
        66,
        67,
        68,
        65,
        66,
        67,
        68,
        65,
        66,
        67,
        68,
        65,
        66,
        67,
        68,
        65,
        66,
        67,
        68,
        65,
        66,
        99,
        404,
        273,
        258,
        259,
        260,
        257,
        258,
        259,
        356,
        145,
        2,
        3,
        4,
        1,
        2,
        3,
        4,
        1,
        2,
        3,
        4,
        33,
        898,
        771,
        804,
        901,
        774,
        807,
        136,
        5,
        6,
        7,
        8,
        5,
        6,
        7,
        8,
        5,
        6,
        7,
        8,
        5,
        54,
        455,
        264,
        261,
        262,
        263,
        264,
        261,
        262,
        279,
        280,
        277,
        278,
        279,
        280,
        277,
        278,
        279,
        280,
        277,
        278,
        279,
        280,
        277,
        278,
        279,
        280,
        277,
        278,
        279,
        280,
        277,
        278,
        279,
        280,
        277,
        278,
        279,
        280,
        277,
        278,
        279,
        280,
        277,
        262,
        263,
        264,
        261,
        262,
        263,
        280,
        277,
        278,
        279,
        280,
        277,
        278,
        279,
        280,
        277,
        278,
        279,
        280,
        277,
        278,
        279,
        280,
        277,
        278,
        279,
        280,
        277,
        278,
        279,
        280,
        277,
        278,
        279,
        280,
        277,
        278,
        279,
        280,
        277,
        278,
        279,
        264,
        261,
        262,
        263,
        264,
        261,
        262,
        359,
        152,
        5,
        6,
        7,
        8,
        5,
        6,
        7,
        8,
        5,
        6,
        7,
        8,
        37,
        902,
        775,
        808,
        905,
        778,
        811,
        140,
        9,
        10,
        11,
        12,
        9,
        10,
        11,
        12,
        9,
        10,
        11,
        12,
        9,
        10,
        59,
        460,
        265,
        266,
        267,
        268,
        265,
        266,
        267,
        268,
        265,
        266,
        267,
        268,
        265,
        266,
        267,
        268,
        265,
        266,
        267,
        268,
        265,
        266,
        267,
        268,
        265,
        266,
        267,
        268,
        265,
        266,
        267,
        268,
        265,
        266,
        267,
        268,
        265,
        266,
        267,
        268,
        265,
        266,
        267,
        268,
        265,
        266,
        267,
        268,
        265,
        266,
        267,
        268,
        265,
        266,
        267,
        268,
        265,
        266,
        267,
        268,
        265,
        266,
        267,
        268,
        265,
        266,
        267,
        268,
        265,
        266,
        267,
        268,
        265,
        266,
        267,
        268,
        265,
        266,
        267,
        268,
        265,
        266,
        267,
        268,
        265,
        266,
        267,
        268,
        265,
        362,
        155,
        12,
        9,
        10,
        11,
        12,
        9,
        10,
        11,
        12,
        9,
        10,
        11,
        12,
        41,
        906,
        779,
        812,
        909,
        782,
        815,
        144,
        13,
        14,
        15,
        16,
        13,
        14,
        15,
        16,
        13,
        14,
        15,
        16,
        13,
        14,
        15,
        64,
        461,
        270,
        271,
        272,
        269,
        270,
        271,
        272,
        269,
        270,
        271,
        272,
        269,
        270,
        271,
        272,
        269,
        270,
        271,
        272,
        269,
        270,
        271,
        272,
        269,
        270,
        271,
        272,
        269,
        270,
        271,
        272,
        269,
        270,
        271,
        272,
        269,
        270,
        271,
        272,
        269,
        270,
        271,
        272,
        269,
        270,
        271,
        272,
        269,
        270,
        271,
        272,
        269,
        270,
        271,
        272,
        269,
        270,
        271,
        272,
        269,
        270,
        271,
        272,
        269,
        270,
        271,
        272,
        269,
        270,
        271,
        272,
        269,
        270,
        271,
        272,
        269,
        270,
        271,
        272,
        269,
        270,
        271,
        272,
        269,
        270,
        271,
        272,
        365,
        158,
        15,
        16,
        13,
        14,
        15,
        16,
        13,
        14,
        15,
        16,
        13,
        14,
        15,
        16,
        45,
        910,
        783,
        816,
        897,
        770,
        803,
        132,
        1,
        2,
        3,
        4,
        1,
        2,
        3,
        4,
        1,
        2,
        3,
        4,
        1,
        2,
        3,
        4,
        49,
        450,
        323,
        260,
        257,
        258,
        259,
        260,
        257,
        258,
        259,
        260,
        257,
        258,
        259,
        260,
        257,
        258,
        259,
        260,
        257,
        258,
        259,
        260,
        257,
        258,
        259,
        260,
        257,
        258,
        259,
        260,
        257,
        258,
        259,
        260,
        257,
        258,
        259,
        260,
        257,
        258,
        259,
        260,
        257,
        258,
        259,
        260,
        257,
        258,
        259,
        260,
        257,
        258,
        259,
        260,
        257,
        258,
        259,
        260,
        257,
        258,
        259,
        260,
        257,
        258,
        259,
        260,
        257,
        258,
        259,
        260,
        257,
        258,
        259,
        260,
        257,
        258,
        259,
        260,
        257,
        258,
        259,
        260,
        257,
        258,
        323,
        356,
        145,
        2,
        3,
        4,
        1,
        2,
        3,
        4,
        1,
        2,
        3,
        4,
        1,
        2,
        3,
        4,
        33,
        898,
        771,
        804,
        901,
        774,
        807,
        136,
        5,
        6,
        7,
        8,
        5,
        6,
        7,
        8,
        5,
        6,
        7,
        8,
        5,
        6,
        7,
        8,
        5,
        22,
        55,
        456,
        325,
        326,
        263,
        264,
        261,
        262,
        263,
        264,
        261,
        262,
        263,
        264,
        261,
        262,
        263,
        264,
        261,
        262,
        263,
        264,
        261,
        262,
        263,
        264,
        261,
        262,
        263,
        264,
        261,
        262,
        263,
        264,
        261,
        262,
        263,
        264,
        261,
        262,
        263,
        264,
        261,
        262,
        263,
        264,
        261,
        262,
        263,
        264,
        261,
        262,
        263,
        264,
        261,
        262,
        263,
        264,
        261,
        262,
        263,
        264,
        261,
        262,
        263,
        264,
        261,
        262,
        263,
        264,
        261,
        262,
        263,
        264,
        261,
        262,
        263,
        264,
        261,
        262,
        263,
        328,
        325,
        358,
        151,
        24,
        5,
        6,
        7,
        8,
        5,
        6,
        7,
        8,
        5,
        6,
        7,
        8,
        5,
        6,
        7,
        8,
        37,
        902,
        775,
        808,
        905,
        778,
        811,
        140,
        9,
        10,
        11,
        12,
        9,
        10,
        11,
        12,
        9,
        10,
        11,
        12,
        9,
        10,
        11,
        12,
        9,
        10,
        11,
        28,
        25,
        58,
        459,
        332,
        329,
        330,
        331,
        332,
        329,
        330,
        331,
        332,
        329,
        330,
        331,
        332,
        329,
        330,
        331,
        332,
        329,
        330,
        331,
        332,
        329,
        330,
        331,
        332,
        329,
        330,
        331,
        332,
        329,
        330,
        331,
        332,
        329,
        330,
        331,
        332,
        329,
        330,
        331,
        332,
        329,
        330,
        331,
        332,
        329,
        330,
        331,
        332,
        329,
        330,
        331,
        332,
        329,
        330,
        331,
        332,
        329,
        330,
        331,
        332,
        329,
        330,
        331,
        332,
        329,
        330,
        331,
        332,
        329,
        330,
        331,
        332,
        329,
        330,
        363,
        156,
        25,
        26,
        11,
        12,
        9,
        10,
        11,
        12,
        9,
        10,
        11,
        12,
        9,
        10,
        11,
        12,
        9,
        10,
        11,
        12,
        41,
        906,
        779,
        812,
        909,
        782,
        815,
        144,
        13,
        14,
        15,
        16,
        13,
        14,
        15,
        16,
        13,
        14,
        15,
        16,
        13,
        14,
        15,
        16,
        13,
        14,
        15,
        16,
        13,
        14,
        31,
        32,
        29,
        30,
        31,
        32,
        29,
        30,
        31,
        32,
        29,
        30,
        31,
        32,
        29,
        30,
        31,
        32,
        29,
        30,
        31,
        32,
        29,
        30,
        31,
        32,
        29,
        30,
        31,
        32,
        29,
        30,
        31,
        32,
        29,
        30,
        31,
        32,
        29,
        30,
        31,
        32,
        29,
        30,
        31,
        32,
        29,
        30,
        31,
        32,
        29,
        30,
        31,
        32,
        29,
        30,
        31,
        32,
        29,
        30,
        31,
        32,
        29,
        30,
        31,
        32,
        29,
        30,
        31,
        32,
        29,
        30,
        31,
        32,
        29,
        30,
        31,
        16,
        13,
        14,
        15,
        16,
        13,
        14,
        15,
        16,
        13,
        14,
        15,
        16,
        13,
        14,
        15,
        16,
        13,
        14,
        15,
        16,
        45,
        910,
        783,
        816,
        897,
        770,
        803,
        132,
        1,
        2,
        3,
        4,
        1,
        2,
        3,
        4,
        1,
        2,
        3,
        4,
        1,
        2,
        3,
        4,
        1,
        2,
        3,
        4,
        1,
        2,
        3,
        4,
        1,
        2,
        3,
        4,
        1,
        2,
        3,
        4,
        1,
        2,
        3,
        4,
        1,
        2,
        3,
        4,
        1,
        2,
        3,
        4,
        1,
        2,
        3,
        4,
        1,
        2,
        3,
        4,
        1,
        2,
        3,
        4,
        1,
        2,
        3,
        4,
        1,
        2,
        3,
        4,
        1,
        2,
        3,
        4,
        1,
        2,
        3,
        4,
        1,
        2,
        3,
        4,
        1,
        2,
        3,
        4,
        1,
        2,
        3,
        4,
        1,
        2,
        3,
        4,
        1,
        2,
        3,
        4,
        1,
        2,
        3,
        4,
        1,
        2,
        3,
        4,
        1,
        2,
        3,
        4,
        1,
        2,
        3,
        4,
        1,
        2,
        3,
        4,
        1,
        2,
        3,
        4,
        1,
        2,
        3,
        4,
        33,
        898,
        771,
        804,
        901,
        774,
        807,
        136,
        5,
        6,
        7,
        8,
        5,
        6,
        7,
        8,
        5,
        6,
        7,
        8,
        5,
        6,
        7,
        8,
        5,
        6,
        7,
        8,
        5,
        6,
        7,
        8,
        5,
        6,
        7,
        8,
        5,
        6,
        7,
        8,
        5,
        6,
        7,
        8,
        5,
        6,
        7,
        8,
        5,
        6,
        7,
        8,
        5,
        6,
        7,
        8,
        5,
        6,
        7,
        8,
        5,
        6,
        7,
        8,
        5,
        6,
        7,
        8,
        5,
        6,
        7,
        8,
        5,
        6,
        7,
        8,
        5,
        6,
        7,
        8,
        5,
        6,
        7,
        8,
        5,
        6,
        7,
        8,
        5,
        6,
        7,
        8,
        5,
        6,
        7,
        8,
        5,
        6,
        7,
        8,
        5,
        6,
        7,
        8,
        5,
        6,
        7,
        8,
        5,
        6,
        7,
        8,
        5,
        6,
        7,
        8,
        5,
        6,
        7,
        8,
        5,
        6,
        7,
        8,
        5,
        6,
        7,
        8,
        37,
        902,
        775,
        808,
        905,
        778,
        811,
        140,
        9,
        10,
        11,
        12,
        9,
        10,
        11,
        12,
        9,
        10,
        11,
        12,
        9,
        10,
        11,
        12,
        9,
        10,
        11,
        12,
        9,
        10,
        11,
        12,
        9,
        10,
        11,
        12,
        9,
        10,
        11,
        12,
        9,
        10,
        11,
        12,
        9,
        10,
        11,
        12,
        9,
        10,
        11,
        12,
        9,
        10,
        11,
        12,
        9,
        10,
        11,
        12,
        9,
        10,
        11,
        12,
        9,
        10,
        11,
        12,
        9,
        10,
        11,
        12,
        9,
        10,
        11,
        12,
        9,
        10,
        11,
        12,
        9,
        10,
        11,
        12,
        9,
        10,
        11,
        12,
        9,
        10,
        11,
        12,
        9,
        10,
        11,
        12,
        9,
        10,
        11,
        12,
        9,
        10,
        11,
        12,
        9,
        10,
        11,
        12,
        9,
        10,
        11,
        12,
        9,
        10,
        11,
        12,
        9,
        10,
        11,
        12,
        9,
        10,
        11,
        12,
        9,
        10,
        11,
        12,
        41,
        906,
        779,
        812,
        909,
        782,
        815,
        144,
        13,
        14,
        15,
        16,
        13,
        14,
        15,
        16,
        13,
        14,
        15,
        16,
        13,
        14,
        15,
        16,
        13,
        14,
        15,
        16,
        13,
        14,
        15,
        16,
        13,
        14,
        15,
        16,
        13,
        14,
        15,
        16,
        13,
        14,
        15,
        16,
        13,
        14,
        15,
        16,
        13,
        14,
        15,
        16,
        13,
        14,
        15,
        16,
        13,
        14,
        15,
        16,
        13,
        14,
        15,
        16,
        13,
        14,
        15,
        16,
        13,
        14,
        15,
        16,
        13,
        14,
        15,
        16,
        13,
        14,
        15,
        16,
        13,
        14,
        15,
        16,
        13,
        14,
        15,
        16,
        13,
        14,
        15,
        16,
        13,
        14,
        15,
        16,
        13,
        14,
        15,
        16,
        13,
        14,
        15,
        16,
        13,
        14,
        15,
        16,
        13,
        14,
        15,
        16,
        13,
        14,
        15,
        16,
        13,
        14,
        15,
        16,
        13,
        14,
        15,
        16,
        13,
        14,
        15,
        16,
        45,
        910,
        783,
        816,
        897,
        770,
        803,
        132,
        1,
        2,
        3,
        4,
        1,
        2,
        3,
        4,
        1,
        2,
        3,
        4,
        1,
        2,
        3,
        4,
        1,
        2,
        3,
        4,
        1,
        2,
        3,
        4,
        1,
        2,
        3,
        4,
        1,
        2,
        3,
        4,
        1,
        2,
        3,
        4,
        1,
        2,
        3,
        4,
        1,
        2,
        3,
        4,
        1,
        2,
        3,
        4,
        1,
        2,
        3,
        4,
        1,
        2,
        3,
        4,
        1,
        2,
        3,
        4,
        1,
        2,
        3,
        4,
        1,
        2,
        3,
        4,
        1,
        2,
        3,
        4,
        1,
        2,
        3,
        4,
        1,
        2,
        3,
        4,
        1,
        2,
        3,
        4,
        1,
        2,
        3,
        4,
        1,
        2,
        3,
        4,
        1,
        2,
        3,
        4,
        1,
        2,
        3,
        4,
        1,
        2,
        3,
        4,
        1,
        2,
        3,
        4,
        1,
        2,
        3,
        4,
        1,
        2,
        3,
        4,
        1,
        2,
        3,
        4,
        33,
        898,
        771,
        804,
        901,
        774,
        807,
        136,
        5,
        6,
        7,
        8,
        5,
        6,
        7,
        8,
        5,
        6,
        7,
        8,
        5,
        6,
        7,
        8,
        5,
        6,
        7,
        8,
        5,
        6,
        7,
        8,
        5,
        6,
        7,
        8,
        5,
        6,
        7,
        8,
        5,
        6,
        7,
        8,
        5,
        6,
        7,
        8,
        5,
        6,
        7,
        8,
        5,
        6,
        7,
        8,
        5,
        6,
        7,
        8,
        5,
        6,
        7,
        8,
        5,
        6,
        7,
        8,
        5,
        6,
        7,
        8,
        5,
        6,
        7,
        8,
        5,
        6,
        7,
        8,
        5,
        6,
        7,
        8,
        5,
        6,
        7,
        8,
        5,
        6,
        7,
        8,
        5,
        6,
        7,
        8,
        5,
        6,
        7,
        8,
        5,
        6,
        7,
        8,
        5,
        6,
        7,
        8,
        5,
        6,
        7,
        8,
        5,
        6,
        7,
        8,
        5,
        6,
        7,
        8,
        5,
        6,
        7,
        8,
        5,
        6,
        7,
        8,
        37,
        902,
        775,
        808,
        905,
        778,
        811,
        140,
        9,
        10,
        11,
        12,
        9,
        10,
        11,
        12,
        9,
        10,
        11,
        12,
        9,
        10,
        11,
        12,
        9,
        10,
        11,
        12,
        9,
        10,
        11,
        12,
        9,
        10,
        11,
        12,
        9,
        10,
        11,
        12,
        9,
        10,
        11,
        12,
        9,
        10,
        11,
        12,
        9,
        10,
        11,
        12,
        9,
        10,
        11,
        12,
        9,
        10,
        11,
        12,
        9,
        10,
        11,
        12,
        9,
        10,
        11,
        12,
        9,
        10,
        11,
        12,
        9,
        10,
        11,
        12,
        9,
        10,
        11,
        12,
        9,
        10,
        11,
        12,
        9,
        10,
        11,
        12,
        9,
        10,
        11,
        12,
        9,
        10,
        11,
        12,
        9,
        10,
        11,
        12,
        9,
        10,
        11,
        12,
        9,
        10,
        11,
        12,
        9,
        10,
        11,
        12,
        9,
        10,
        11,
        12,
        9,
        10,
        11,
        12,
        9,
        10,
        11,
        12,
        9,
        10,
        11,
        12,
        41,
        906,
        779,
        812,
        909,
        782,
        815,
        144,
        13,
        14,
        15,
        16,
        13,
        14,
        15,
        16,
        13,
        14,
        15,
        16,
        13,
        14,
        15,
        16,
        13,
        14,
        15,
        16,
        13,
        14,
        15,
        16,
        13,
        14,
        15,
        16,
        13,
        14,
        15,
        16,
        13,
        14,
        15,
        16,
        13,
        14,
        15,
        16,
        13,
        14,
        15,
        16,
        13,
        14,
        15,
        16,
        13,
        14,
        15,
        16,
        13,
        14,
        15,
        16,
        13,
        14,
        15,
        16,
        13,
        14,
        15,
        16,
        13,
        14,
        15,
        16,
        13,
        14,
        15,
        16,
        13,
        14,
        15,
        16,
        13,
        14,
        15,
        16,
        13,
        14,
        15,
        16,
        13,
        14,
        15,
        16,
        13,
        14,
        15,
        16,
        13,
        14,
        15,
        16,
        13,
        14,
        15,
        16,
        13,
        14,
        15,
        16,
        13,
        14,
        15,
        16,
        13,
        14,
        15,
        16,
        13,
        14,
        15,
        16,
        13,
        14,
        15,
        16,
        45,
        910,
        783,
        816,
        897,
        770,
        803,
        196,
        65,
        66,
        67,
        68,
        65,
        66,
        67,
        68,
        65,
        66,
        67,
        68,
        65,
        66,
        67,
        68,
        65,
        66,
        67,
        68,
        65,
        66,
        67,
        68,
        65,
        66,
        67,
        68,
        65,
        66,
        67,
        68,
        65,
        66,
        67,
        68,
        65,
        66,
        67,
        68,
        65,
        66,
        67,
        68,
        65,
        66,
        67,
        68,
        65,
        66,
        67,
        68,
        65,
        66,
        67,
        68,
        65,
        66,
        67,
        68,
        65,
        66,
        67,
        68,
        65,
        66,
        67,
        68,
        65,
        66,
        67,
        68,
        65,
        66,
        67,
        68,
        65,
        66,
        67,
        68,
        65,
        66,
        67,
        68,
        65,
        66,
        67,
        68,
        65,
        66,
        67,
        68,
        65,
        66,
        67,
        68,
        65,
        66,
        67,
        68,
        65,
        66,
        67,
        68,
        65,
        66,
        67,
        68,
        65,
        66,
        67,
        68,
        65,
        66,
        67,
        68,
        65,
        66,
        67,
        68,
        97,
        898,
        771,
        804,
        901,
        774,
        775,
        792,
        789,
        790,
        791,
        792,
        789,
        790,
        791,
        792,
        789,
        790,
        791,
        792,
        789,
        790,
        791,
        792,
        789,
        790,
        791,
        792,
        789,
        790,
        791,
        792,
        789,
        790,
        791,
        792,
        789,
        790,
        791,
        792,
        789,
        790,
        791,
        792,
        789,
        790,
        791,
        792,
        789,
        790,
        791,
        792,
        789,
        790,
        791,
        792,
        789,
        790,
        791,
        792,
        789,
        790,
        791,
        792,
        789,
        790,
        791,
        792,
        789,
        790,
        791,
        792,
        789,
        790,
        791,
        792,
        789,
        790,
        791,
        792,
        789,
        790,
        791,
        792,
        789,
        790,
        791,
        792,
        789,
        790,
        791,
        792,
        789,
        790,
        791,
        792,
        789,
        790,
        791,
        792,
        789,
        790,
        791,
        792,
        789,
        790,
        791,
        792,
        789,
        790,
        791,
        792,
        789,
        790,
        791,
        792,
        789,
        790,
        791,
        792,
        789,
        790,
        791,
        792,
        789,
        790,
        791,
        792,
        789,
        774,
        775,
        808,
        905,
        778,
        779,
        780,
        777,
        778,
        779,
        780,
        777,
        778,
        779,
        780,
        777,
        778,
        779,
        780,
        777,
        778,
        779,
        780,
        777,
        778,
        779,
        780,
        777,
        778,
        779,
        780,
        777,
        778,
        779,
        780,
        777,
        778,
        779,
        780,
        777,
        778,
        779,
        780,
        777,
        778,
        779,
        780,
        777,
        778,
        779,
        780,
        777,
        778,
        779,
        780,
        777,
        778,
        779,
        780,
        777,
        778,
        779,
        780,
        777,
        778,
        779,
        780,
        777,
        778,
        779,
        780,
        777,
        778,
        779,
        780,
        777,
        778,
        779,
        780,
        777,
        778,
        779,
        780,
        777,
        778,
        779,
        780,
        777,
        778,
        779,
        780,
        777,
        778,
        779,
        780,
        777,
        778,
        779,
        780,
        777,
        778,
        779,
        780,
        777,
        778,
        779,
        780,
        777,
        778,
        779,
        780,
        777,
        778,
        779,
        780,
        777,
        778,
        779,
        780,
        777,
        778,
        779,
        780,
        777,
        778,
        779,
        780,
        777,
        778,
        779,
        812,
        973,
        846,
        847,
        848,
        845,
        846,
        847,
        848,
        845,
        846,
        847,
        848,
        845,
        846,
        847,
        848,
        845,
        846,
        847,
        848,
        845,
        846,
        847,
        848,
        845,
        846,
        847,
        848,
        845,
        846,
        847,
        848,
        845,
        846,
        847,
        848,
        845,
        846,
        847,
        848,
        845,
        846,
        847,
        848,
        845,
        846,
        847,
        848,
        845,
        846,
        847,
        848,
        845,
        846,
        847,
        848,
        845,
        846,
        847,
        848,
        845,
        846,
        847,
        848,
        845,
        846,
        847,
        848,
        845,
        846,
        847,
        848,
        845,
        846,
        847,
        848,
        845,
        846,
        847,
        848,
        845,
        846,
        847,
        848,
        845,
        846,
        847,
        848,
        845,
        846,
        847,
        848,
        845,
        846,
        847,
        848,
        845,
        846,
        847,
        848,
        845,
        846,
        847,
        848,
        845,
        846,
        847,
        848,
        845,
        846,
        847,
        848,
        845,
        846,
        847,
        848,
        845,
        846,
        847,
        848,
        845,
        846,
        847,
        848,
        845,
        846,
        847,
        880
      ]
    },
    {
      "id": 2,
      "name": "Objects",
      "type": "objectgroup",
      "x": 0,
      "y": 0,
      "opacity": 1,
      "visible": true,
      "draworder": "topdown",
      "objects": [
        {
          "id": 1,
          "name": "garage",
          "type": "scenery",
          "gid": 1285,
          "x": 416,
          "y": 1440,
          "width": 128,
          "height": 96,
          "rotation": 0,
          "visible": true
        },
        {
          "id": 2,
          "name": "cottage",
          "type": "scenery",
          "gid": 1286,
          "x": 352,
          "y": 688,
          "width": 96,
          "height": 80,
          "rotation": 0,
          "visible": true
        },
        {
          "id": 3,
          "name": "cottage",
          "type": "scenery",
          "gid": 1286,
          "x": 480,
          "y": 720,
          "width": 96,
          "height": 80,
          "rotation": 0,
          "visible": true
        },
        {
          "id": 4,
          "name": "fence_h",
          "type": "scenery",
          "gid": 1287,
          "x": 400,
          "y": 1344,
          "width": 64,
          "height": 32,
          "rotation": 0,
          "visible": true
        },
        {
          "id": 5,
          "name": "fence_h",
          "type": "scenery",
          "gid": 1287,
          "x": 464,
          "y": 1344,
          "width": 64,
          "height": 32,
          "rotation": 0,
          "visible": true
        },
        {
          "id": 6,
          "name": "fence_h",
          "type": "scenery",
          "gid": 1287,
          "x": 528,
          "y": 1344,
          "width": 64,
          "height": 32,
          "rotation": 0,
          "visible": true
        },
        {
          "id": 7,
          "name": "rocks",
          "type": "scenery",
          "gid": 1283,
          "x": 1376,
          "y": 1168,
          "width": 48,
          "height": 32,
          "rotation": 0,
          "visible": true
        },
        {
          "id": 8,
          "name": "rocks",
          "type": "scenery",
          "gid": 1283,
          "x": 1488,
          "y": 1168,
          "width": 48,
          "height": 32,
          "rotation": 0,
          "visible": true
        },
        {
          "id": 9,
          "name": "rocks",
          "type": "scenery",
          "gid": 1283,
          "x": 1584,
          "y": 1168,
          "width": 48,
          "height": 32,
          "rotation": 0,
          "visible": true
        },
        {
          "id": 10,
          "name": "tree",
          "type": "scenery",
          "gid": 1282,
          "x": 160,
          "y": 160,
          "width": 64,
          "height": 64,
          "rotation": 0,
          "visible": true
        },
        {
          "id": 11,
          "name": "pine",
          "type": "scenery",
          "gid": 1281,
          "x": 224,
          "y": 160,
          "width": 48,
          "height": 64,
          "rotation": 0,
          "visible": true
        },
        {
          "id": 12,
          "name": "tree",
          "type": "scenery",
          "gid": 1282,
          "x": 288,
          "y": 160,
          "width": 64,
          "height": 64,
          "rotation": 0,
          "visible": true
        },
        {
          "id": 13,
          "name": "rocks",
          "type": "scenery",
          "gid": 1283,
          "x": 416,
          "y": 128,
          "width": 48,
          "height": 32,
          "rotation": 0,
          "visible": true
        },
        {
          "id": 14,
          "name": "pine",
          "type": "scenery",
          "gid": 1281,
          "x": 480,
          "y": 160,
          "width": 48,
          "height": 64,
          "rotation": 0,
          "visible": true
        },
        {
          "id": 15,
          "name": "pine",
          "type": "scenery",
          "gid": 1281,
          "x": 544,
          "y": 160,
          "width": 48,
          "height": 64,
          "rotation": 0,
          "visible": true
        },
        {
          "id": 16,
          "name": "pine",
          "type": "scenery",
          "gid": 1281,
          "x": 672,
          "y": 160,
          "width": 48,
          "height": 64,
          "rotation": 0,
          "visible": true
        },
        {
          "id": 17,
          "name": "rocks",
          "type": "scenery",
          "gid": 1283,
          "x": 736,
          "y": 128,
          "width": 48,
          "height": 32,
          "rotation": 0,
          "visible": true
        },
        {
          "id": 18,
          "name": "pine",
          "type": "scenery",
          "gid": 1281,
          "x": 864,
          "y": 160,
          "width": 48,
          "height": 64,
          "rotation": 0,
          "visible": true
        },
        {
          "id": 19,
          "name": "pine",
          "type": "scenery",
          "gid": 1281,
          "x": 928,
          "y": 160,
          "width": 48,
          "height": 64,
          "rotation": 0,
          "visible": true
        },
        {
          "id": 20,
          "name": "tree",
          "type": "scenery",
          "gid": 1282,
          "x": 992,
          "y": 160,
          "width": 64,
          "height": 64,
          "rotation": 0,
          "visible": true
        },
        {
          "id": 21,
          "name": "pine",
          "type": "scenery",
          "gid": 1281,
          "x": 1056,
          "y": 160,
          "width": 48,
          "height": 64,
          "rotation": 0,
          "visible": true
        },
        {
          "id": 22,
          "name": "rocks",
          "type": "scenery",
          "gid": 1283,
          "x": 1120,
          "y": 128,
          "width": 48,
          "height": 32,
          "rotation": 0,
          "visible": true
        },
        {
          "id": 23,
          "name": "pine",
          "type": "scenery",
          "gid": 1281,
          "x": 1248,
          "y": 160,
          "width": 48,
          "height": 64,
          "rotation": 0,
          "visible": true
        },
        {
          "id": 24,
          "name": "pine",
          "type": "scenery",
          "gid": 1281,
          "x": 1312,
          "y": 160,
          "width": 48,
          "height": 64,
          "rotation": 0,
          "visible": true
        },
        {
          "id": 25,
          "name": "bush",
          "type": "scenery",
          "gid": 1284,
          "x": 1504,
          "y": 128,
          "width": 32,
          "height": 32,
          "rotation": 0,
          "visible": true
        },
        {
          "id": 26,
          "name": "pine",
          "type": "scenery",
          "gid": 1281,
          "x": 1568,
          "y": 160,
          "width": 48,
          "height": 64,
          "rotation": 0,
          "visible": true
        },
        {
          "id": 27,
          "name": "rocks",
          "type": "scenery",
          "gid": 1283,
          "x": 1696,
          "y": 128,
          "width": 48,
          "height": 32,
          "rotation": 0,
          "visible": true
        },
        {
          "id": 28,
          "name": "pine",
          "type": "scenery",
          "gid": 1281,
          "x": 1760,
          "y": 160,
          "width": 48,
          "height": 64,
          "rotation": 0,
          "visible": true
        },
        {
          "id": 29,
          "name": "rocks",
          "type": "scenery",
          "gid": 1283,
          "x": 1824,
          "y": 128,
          "width": 48,
          "height": 32,
          "rotation": 0,
          "visible": true
        },
        {
          "id": 30,
          "name": "bush",
          "type": "scenery",
          "gid": 1284,
          "x": 1888,
          "y": 128,
          "width": 32,
          "height": 32,
          "rotation": 0,
          "visible": true
        },
        {
          "id": 31,
          "name": "bush",
          "type": "scenery",
          "gid": 1284,
          "x": 96,
          "y": 192,
          "width": 32,
          "height": 32,
          "rotation": 0,
          "visible": true
        },
        {
          "id": 32,
          "name": "pine",
          "type": "scenery",
          "gid": 1281,
          "x": 160,
          "y": 224,
          "width": 48,
          "height": 64,
          "rotation": 0,
          "visible": true
        },
        {
          "id": 33,
          "name": "pine",
          "type": "scenery",
          "gid": 1281,
          "x": 224,
          "y": 224,
          "width": 48,
          "height": 64,
          "rotation": 0,
          "visible": true
        },
        {
          "id": 34,
          "name": "tree",
          "type": "scenery",
          "gid": 1282,
          "x": 1696,
          "y": 224,
          "width": 64,
          "height": 64,
          "rotation": 0,
          "visible": true
        },
        {
          "id": 35,
          "name": "bush",
          "type": "scenery",
          "gid": 1284,
          "x": 1888,
          "y": 192,
          "width": 32,
          "height": 32,
          "rotation": 0,
          "visible": true
        },
        {
          "id": 36,
          "name": "rocks",
          "type": "scenery",
          "gid": 1283,
          "x": 96,
          "y": 256,
          "width": 48,
          "height": 32,
          "rotation": 0,
          "visible": true
        },
        {
          "id": 37,
          "name": "pine",
          "type": "scenery",
          "gid": 1281,
          "x": 1824,
          "y": 288,
          "width": 48,
          "height": 64,
          "rotation": 0,
          "visible": true
        },
        {
          "id": 38,
          "name": "bush",
          "type": "scenery",
          "gid": 1284,
          "x": 1888,
          "y": 256,
          "width": 32,
          "height": 32,
          "rotation": 0,
          "visible": true
        },
        {
          "id": 39,
          "name": "bush",
          "type": "scenery",
          "gid": 1284,
          "x": 160,
          "y": 320,
          "width": 32,
          "height": 32,
          "rotation": 0,
          "visible": true
        },
        {
          "id": 40,
          "name": "pine",
          "type": "scenery",
          "gid": 1281,
          "x": 96,
          "y": 416,
          "width": 48,
          "height": 64,
          "rotation": 0,
          "visible": true
        },
        {
          "id": 41,
          "name": "tree",
          "type": "scenery",
          "gid": 1282,
          "x": 416,
          "y": 416,
          "width": 64,
          "height": 64,
          "rotation": 0,
          "visible": true
        },
        {
          "id": 42,
          "name": "bush",
          "type": "scenery",
          "gid": 1284,
          "x": 480,
          "y": 384,
          "width": 32,
          "height": 32,
          "rotation": 0,
          "visible": true
        },
        {
          "id": 43,
          "name": "pine",
          "type": "scenery",
          "gid": 1281,
          "x": 544,
          "y": 416,
          "width": 48,
          "height": 64,
          "rotation": 0,
          "visible": true
        },
        {
          "id": 44,
          "name": "pine",
          "type": "scenery",
          "gid": 1281,
          "x": 608,
          "y": 416,
          "width": 48,
          "height": 64,
          "rotation": 0,
          "visible": true
        },
        {
          "id": 45,
          "name": "tree",
          "type": "scenery",
          "gid": 1282,
          "x": 736,
          "y": 416,
          "width": 64,
          "height": 64,
          "rotation": 0,
          "visible": true
        },
        {
          "id": 46,
          "name": "tree",
          "type": "scenery",
          "gid": 1282,
          "x": 800,
          "y": 416,
          "width": 64,
          "height": 64,
          "rotation": 0,
          "visible": true
        },
        {
          "id": 47,
          "name": "tree",
          "type": "scenery",
          "gid": 1282,
          "x": 864,
          "y": 416,
          "width": 64,
          "height": 64,
          "rotation": 0,
          "visible": true
        },
        {
          "id": 48,
          "name": "pine",
          "type": "scenery",
          "gid": 1281,
          "x": 1120,
          "y": 416,
          "width": 48,
          "height": 64,
          "rotation": 0,
          "visible": true
        },
        {
          "id": 49,
          "name": "bush",
          "type": "scenery",
          "gid": 1284,
          "x": 1248,
          "y": 384,
          "width": 32,
          "height": 32,
          "rotation": 0,
          "visible": true
        },
        {
          "id": 50,
          "name": "pine",
          "type": "scenery",
          "gid": 1281,
          "x": 1312,
          "y": 416,
          "width": 48,
          "height": 64,
          "rotation": 0,
          "visible": true
        },
        {
          "id": 51,
          "name": "bush",
          "type": "scenery",
          "gid": 1284,
          "x": 1376,
          "y": 384,
          "width": 32,
          "height": 32,
          "rotation": 0,
          "visible": true
        },
        {
          "id": 52,
          "name": "tree",
          "type": "scenery",
          "gid": 1282,
          "x": 1440,
          "y": 416,
          "width": 64,
          "height": 64,
          "rotation": 0,
          "visible": true
        },
        {
          "id": 53,
          "name": "pine",
          "type": "scenery",
          "gid": 1281,
          "x": 1504,
          "y": 416,
          "width": 48,
          "height": 64,
          "rotation": 0,
          "visible": true
        },
        {
          "id": 54,
          "name": "pine",
          "type": "scenery",
          "gid": 1281,
          "x": 1568,
          "y": 416,
          "width": 48,
          "height": 64,
          "rotation": 0,
          "visible": true
        },
        {
          "id": 55,
          "name": "pine",
          "type": "scenery",
          "gid": 1281,
          "x": 1888,
          "y": 416,
          "width": 48,
          "height": 64,
          "rotation": 0,
          "visible": true
        },
        {
          "id": 56,
          "name": "pine",
          "type": "scenery",
          "gid": 1281,
          "x": 96,
          "y": 480,
          "width": 48,
          "height": 64,
          "rotation": 0,
          "visible": true
        },
        {
          "id": 57,
          "name": "bush",
          "type": "scenery",
          "gid": 1284,
          "x": 96,
          "y": 512,
          "width": 32,
          "height": 32,
          "rotation": 0,
          "visible": true
        },
        {
          "id": 58,
          "name": "pine",
          "type": "scenery",
          "gid": 1281,
          "x": 1888,
          "y": 544,
          "width": 48,
          "height": 64,
          "rotation": 0,
          "visible": true
        },
        {
          "id": 59,
          "name": "bush",
          "type": "scenery",
          "gid": 1284,
          "x": 96,
          "y": 576,
          "width": 32,
          "height": 32,
          "rotation": 0,
          "visible": true
        },
        {
          "id": 60,
          "name": "bush",
          "type": "scenery",
          "gid": 1284,
          "x": 672,
          "y": 640,
          "width": 32,
          "height": 32,
          "rotation": 0,
          "visible": true
        },
        {
          "id": 61,
          "name": "pine",
          "type": "scenery",
          "gid": 1281,
          "x": 736,
          "y": 672,
          "width": 48,
          "height": 64,
          "rotation": 0,
          "visible": true
        },
        {
          "id": 62,
          "name": "pine",
          "type": "scenery",
          "gid": 1281,
          "x": 1184,
          "y": 672,
          "width": 48,
          "height": 64,
          "rotation": 0,
          "visible": true
        },
        {
          "id": 63,
          "name": "pine",
          "type": "scenery",
          "gid": 1281,
          "x": 1248,
          "y": 672,
          "width": 48,
          "height": 64,
          "rotation": 0,
          "visible": true
        },
        {
          "id": 64,
          "name": "pine",
          "type": "scenery",
          "gid": 1281,
          "x": 1888,
          "y": 672,
          "width": 48,
          "height": 64,
          "rotation": 0,
          "visible": true
        },
        {
          "id": 65,
          "name": "pine",
          "type": "scenery",
          "gid": 1281,
          "x": 96,
          "y": 736,
          "width": 48,
          "height": 64,
          "rotation": 0,
          "visible": true
        },
        {
          "id": 66,
          "name": "tree",
          "type": "scenery",
          "gid": 1282,
          "x": 736,
          "y": 736,
          "width": 64,
          "height": 64,
          "rotation": 0,
          "visible": true
        },
        {
          "id": 67,
          "name": "bush",
          "type": "scenery",
          "gid": 1284,
          "x": 864,
          "y": 704,
          "width": 32,
          "height": 32,
          "rotation": 0,
          "visible": true
        },
        {
          "id": 68,
          "name": "rocks",
          "type": "scenery",
          "gid": 1283,
          "x": 864,
          "y": 768,
          "width": 48,
          "height": 32,
          "rotation": 0,
          "visible": true
        },
        {
          "id": 69,
          "name": "pine",
          "type": "scenery",
          "gid": 1281,
          "x": 1184,
          "y": 800,
          "width": 48,
          "height": 64,
          "rotation": 0,
          "visible": true
        },
        {
          "id": 70,
          "name": "pine",
          "type": "scenery",
          "gid": 1281,
          "x": 1888,
          "y": 800,
          "width": 48,
          "height": 64,
          "rotation": 0,
          "visible": true
        },
        {
          "id": 71,
          "name": "pine",
          "type": "scenery",
          "gid": 1281,
          "x": 352,
          "y": 864,
          "width": 48,
          "height": 64,
          "rotation": 0,
          "visible": true
        },
        {
          "id": 72,
          "name": "pine",
          "type": "scenery",
          "gid": 1281,
          "x": 544,
          "y": 864,
          "width": 48,
          "height": 64,
          "rotation": 0,
          "visible": true
        },
        {
          "id": 73,
          "name": "pine",
          "type": "scenery",
          "gid": 1281,
          "x": 608,
          "y": 864,
          "width": 48,
          "height": 64,
          "rotation": 0,
          "visible": true
        },
        {
          "id": 74,
          "name": "pine",
          "type": "scenery",
          "gid": 1281,
          "x": 864,
          "y": 864,
          "width": 48,
          "height": 64,
          "rotation": 0,
          "visible": true
        },
        {
          "id": 75,
          "name": "pine",
          "type": "scenery",
          "gid": 1281,
          "x": 1888,
          "y": 864,
          "width": 48,
          "height": 64,
          "rotation": 0,
          "visible": true
        },
        {
          "id": 76,
          "name": "pine",
          "type": "scenery",
          "gid": 1281,
          "x": 96,
          "y": 928,
          "width": 48,
          "height": 64,
          "rotation": 0,
          "visible": true
        },
        {
          "id": 77,
          "name": "pine",
          "type": "scenery",
          "gid": 1281,
          "x": 352,
          "y": 928,
          "width": 48,
          "height": 64,
          "rotation": 0,
          "visible": true
        },
        {
          "id": 78,
          "name": "pine",
          "type": "scenery",
          "gid": 1281,
          "x": 480,
          "y": 928,
          "width": 48,
          "height": 64,
          "rotation": 0,
          "visible": true
        },
        {
          "id": 79,
          "name": "tree",
          "type": "scenery",
          "gid": 1282,
          "x": 1888,
          "y": 928,
          "width": 64,
          "height": 64,
          "rotation": 0,
          "visible": true
        },
        {
          "id": 80,
          "name": "tree",
          "type": "scenery",
          "gid": 1282,
          "x": 96,
          "y": 992,
          "width": 64,
          "height": 64,
          "rotation": 0,
          "visible": true
        },
        {
          "id": 81,
          "name": "pine",
          "type": "scenery",
          "gid": 1281,
          "x": 352,
          "y": 992,
          "width": 48,
          "height": 64,
          "rotation": 0,
          "visible": true
        },
        {
          "id": 82,
          "name": "pine",
          "type": "scenery",
          "gid": 1281,
          "x": 736,
          "y": 992,
          "width": 48,
          "height": 64,
          "rotation": 0,
          "visible": true
        },
        {
          "id": 83,
          "name": "pine",
          "type": "scenery",
          "gid": 1281,
          "x": 96,
          "y": 1056,
          "width": 48,
          "height": 64,
          "rotation": 0,
          "visible": true
        },
        {
          "id": 84,
          "name": "pine",
          "type": "scenery",
          "gid": 1281,
          "x": 352,
          "y": 1056,
          "width": 48,
          "height": 64,
          "rotation": 0,
          "visible": true
        },
        {
          "id": 85,
          "name": "pine",
          "type": "scenery",
          "gid": 1281,
          "x": 864,
          "y": 1056,
          "width": 48,
          "height": 64,
          "rotation": 0,
          "visible": true
        },
        {
          "id": 86,
          "name": "bush",
          "type": "scenery",
          "gid": 1284,
          "x": 1888,
          "y": 1024,
          "width": 32,
          "height": 32,
          "rotation": 0,
          "visible": true
        },
        {
          "id": 87,
          "name": "bush",
          "type": "scenery",
          "gid": 1284,
          "x": 96,
          "y": 1088,
          "width": 32,
          "height": 32,
          "rotation": 0,
          "visible": true
        },
        {
          "id": 88,
          "name": "bush",
          "type": "scenery",
          "gid": 1284,
          "x": 352,
          "y": 1088,
          "width": 32,
          "height": 32,
          "rotation": 0,
          "visible": true
        },
        {
          "id": 89,
          "name": "rocks",
          "type": "scenery",
          "gid": 1283,
          "x": 416,
          "y": 1088,
          "width": 48,
          "height": 32,
          "rotation": 0,
          "visible": true
        },
        {
          "id": 90,
          "name": "pine",
          "type": "scenery",
          "gid": 1281,
          "x": 544,
          "y": 1120,
          "width": 48,
          "height": 64,
          "rotation": 0,
          "visible": true
        },
        {
          "id": 91,
          "name": "bush",
          "type": "scenery",
          "gid": 1284,
          "x": 1120,
          "y": 1088,
          "width": 32,
          "height": 32,
          "rotation": 0,
          "visible": true
        },
        {
          "id": 92,
          "name": "rocks",
          "type": "scenery",
          "gid": 1283,
          "x": 1888,
          "y": 1088,
          "width": 48,
          "height": 32,
          "rotation": 0,
          "visible": true
        },
        {
          "id": 93,
          "name": "pine",
          "type": "scenery",
          "gid": 1281,
          "x": 96,
          "y": 1184,
          "width": 48,
          "height": 64,
          "rotation": 0,
          "visible": true
        },
        {
          "id": 94,
          "name": "pine",
          "type": "scenery",
          "gid": 1281,
          "x": 352,
          "y": 1184,
          "width": 48,
          "height": 64,
          "rotation": 0,
          "visible": true
        },
        {
          "id": 95,
          "name": "pine",
          "type": "scenery",
          "gid": 1281,
          "x": 480,
          "y": 1184,
          "width": 48,
          "height": 64,
          "rotation": 0,
          "visible": true
        },
        {
          "id": 96,
          "name": "pine",
          "type": "scenery",
          "gid": 1281,
          "x": 608,
          "y": 1184,
          "width": 48,
          "height": 64,
          "rotation": 0,
          "visible": true
        },
        {
          "id": 97,
          "name": "rocks",
          "type": "scenery",
          "gid": 1283,
          "x": 1888,
          "y": 1152,
          "width": 48,
          "height": 32,
          "rotation": 0,
          "visible": true
        },
        {
          "id": 98,
          "name": "tree",
          "type": "scenery",
          "gid": 1282,
          "x": 96,
          "y": 1248,
          "width": 64,
          "height": 64,
          "rotation": 0,
          "visible": true
        },
        {
          "id": 99,
          "name": "pine",
          "type": "scenery",
          "gid": 1281,
          "x": 1888,
          "y": 1248,
          "width": 48,
          "height": 64,
          "rotation": 0,
          "visible": true
        },
        {
          "id": 100,
          "name": "bush",
          "type": "scenery",
          "gid": 1284,
          "x": 96,
          "y": 1280,
          "width": 32,
          "height": 32,
          "rotation": 0,
          "visible": true
        },
        {
          "id": 101,
          "name": "pine",
          "type": "scenery",
          "gid": 1281,
          "x": 1888,
          "y": 1312,
          "width": 48,
          "height": 64,
          "rotation": 0,
          "visible": true
        },
        {
          "id": 102,
          "name": "pine",
          "type": "scenery",
          "gid": 1281,
          "x": 96,
          "y": 1376,
          "width": 48,
          "height": 64,
          "rotation": 0,
          "visible": true
        },
        {
          "id": 103,
          "name": "tree",
          "type": "scenery",
          "gid": 1282,
          "x": 736,
          "y": 1376,
          "width": 64,
          "height": 64,
          "rotation": 0,
          "visible": true
        },
        {
          "id": 104,
          "name": "pine",
          "type": "scenery",
          "gid": 1281,
          "x": 1568,
          "y": 1376,
          "width": 48,
          "height": 64,
          "rotation": 0,
          "visible": true
        },
        {
          "id": 105,
          "name": "tree",
          "type": "scenery",
          "gid": 1282,
          "x": 1888,
          "y": 1376,
          "width": 64,
          "height": 64,
          "rotation": 0,
          "visible": true
        },
        {
          "id": 106,
          "name": "pine",
          "type": "scenery",
          "gid": 1281,
          "x": 1312,
          "y": 1440,
          "width": 48,
          "height": 64,
          "rotation": 0,
          "visible": true
        },
        {
          "id": 107,
          "name": "pine",
          "type": "scenery",
          "gid": 1281,
          "x": 1632,
          "y": 1440,
          "width": 48,
          "height": 64,
          "rotation": 0,
          "visible": true
        },
        {
          "id": 108,
          "name": "pine",
          "type": "scenery",
          "gid": 1281,
          "x": 1888,
          "y": 1440,
          "width": 48,
          "height": 64,
          "rotation": 0,
          "visible": true
        },
        {
          "id": 109,
          "name": "pine",
          "type": "scenery",
          "gid": 1281,
          "x": 96,
          "y": 1504,
          "width": 48,
          "height": 64,
          "rotation": 0,
          "visible": true
        },
        {
          "id": 110,
          "name": "pine",
          "type": "scenery",
          "gid": 1281,
          "x": 1888,
          "y": 1504,
          "width": 48,
          "height": 64,
          "rotation": 0,
          "visible": true
        },
        {
          "id": 111,
          "name": "pine",
          "type": "scenery",
          "gid": 1281,
          "x": 96,
          "y": 1568,
          "width": 48,
          "height": 64,
          "rotation": 0,
          "visible": true
        },
        {
          "id": 112,
          "name": "bush",
          "type": "scenery",
          "gid": 1284,
          "x": 96,
          "y": 1600,
          "width": 32,
          "height": 32,
          "rotation": 0,
          "visible": true
        },
        {
          "id": 113,
          "name": "pine",
          "type": "scenery",
          "gid": 1281,
          "x": 1888,
          "y": 1632,
          "width": 48,
          "height": 64,
          "rotation": 0,
          "visible": true
        },
        {
          "id": 114,
          "name": "pine",
          "type": "scenery",
          "gid": 1281,
          "x": 96,
          "y": 1696,
          "width": 48,
          "height": 64,
          "rotation": 0,
          "visible": true
        },
        {
          "id": 115,
          "name": "pine",
          "type": "scenery",
          "gid": 1281,
          "x": 416,
          "y": 1696,
          "width": 48,
          "height": 64,
          "rotation": 0,
          "visible": true
        },
        {
          "id": 116,
          "name": "pine",
          "type": "scenery",
          "gid": 1281,
          "x": 1184,
          "y": 1696,
          "width": 48,
          "height": 64,
          "rotation": 0,
          "visible": true
        },
        {
          "id": 117,
          "name": "tree",
          "type": "scenery",
          "gid": 1282,
          "x": 1248,
          "y": 1696,
          "width": 64,
          "height": 64,
          "rotation": 0,
          "visible": true
        },
        {
          "id": 118,
          "name": "pine",
          "type": "scenery",
          "gid": 1281,
          "x": 1888,
          "y": 1696,
          "width": 48,
          "height": 64,
          "rotation": 0,
          "visible": true
        },
        {
          "id": 119,
          "name": "pine",
          "type": "scenery",
          "gid": 1281,
          "x": 96,
          "y": 1760,
          "width": 48,
          "height": 64,
          "rotation": 0,
          "visible": true
        },
        {
          "id": 120,
          "name": "pine",
          "type": "scenery",
          "gid": 1281,
          "x": 1888,
          "y": 1760,
          "width": 48,
          "height": 64,
          "rotation": 0,
          "visible": true
        },
        {
          "id": 121,
          "name": "pine",
          "type": "scenery",
          "gid": 1281,
          "x": 96,
          "y": 1824,
          "width": 48,
          "height": 64,
          "rotation": 0,
          "visible": true
        },
        {
          "id": 122,
          "name": "tree",
          "type": "scenery",
          "gid": 1282,
          "x": 160,
          "y": 1824,
          "width": 64,
          "height": 64,
          "rotation": 0,
          "visible": true
        },
        {
          "id": 123,
          "name": "pine",
          "type": "scenery",
          "gid": 1281,
          "x": 1824,
          "y": 1824,
          "width": 48,
          "height": 64,
          "rotation": 0,
          "visible": true
        },
        {
          "id": 124,
          "name": "pine",
          "type": "scenery",
          "gid": 1281,
          "x": 1888,
          "y": 1824,
          "width": 48,
          "height": 64,
          "rotation": 0,
          "visible": true
        },
        {
          "id": 125,
          "name": "pine",
          "type": "scenery",
          "gid": 1281,
          "x": 96,
          "y": 1888,
          "width": 48,
          "height": 64,
          "rotation": 0,
          "visible": true
        },
        {
          "id": 126,
          "name": "bush",
          "type": "scenery",
          "gid": 1284,
          "x": 160,
          "y": 1856,
          "width": 32,
          "height": 32,
          "rotation": 0,
          "visible": true
        },
        {
          "id": 127,
          "name": "pine",
          "type": "scenery",
          "gid": 1281,
          "x": 288,
          "y": 1888,
          "width": 48,
          "height": 64,
          "rotation": 0,
          "visible": true
        },
        {
          "id": 128,
          "name": "pine",
          "type": "scenery",
          "gid": 1281,
          "x": 1760,
          "y": 1888,
          "width": 48,
          "height": 64,
          "rotation": 0,
          "visible": true
        },
        {
          "id": 129,
          "name": "tree",
          "type": "scenery",
          "gid": 1282,
          "x": 1824,
          "y": 1888,
          "width": 64,
          "height": 64,
          "rotation": 0,
          "visible": true
        },
        {
          "id": 130,
          "name": "pine",
          "type": "scenery",
          "gid": 1281,
          "x": 1888,
          "y": 1888,
          "width": 48,
          "height": 64,
          "rotation": 0,
          "visible": true
        },
        {
          "id": 131,
          "name": "tree",
          "type": "scenery",
          "gid": 1282,
          "x": 96,
          "y": 1952,
          "width": 64,
          "height": 64,
          "rotation": 0,
          "visible": true
        },
        {
          "id": 132,
          "name": "bush",
          "type": "scenery",
          "gid": 1284,
          "x": 160,
          "y": 1920,
          "width": 32,
          "height": 32,
          "rotation": 0,
          "visible": true
        },
        {
          "id": 133,
          "name": "rocks",
          "type": "scenery",
          "gid": 1283,
          "x": 224,
          "y": 1920,
          "width": 48,
          "height": 32,
          "rotation": 0,
          "visible": true
        },
        {
          "id": 134,
          "name": "bush",
          "type": "scenery",
          "gid": 1284,
          "x": 288,
          "y": 1920,
          "width": 32,
          "height": 32,
          "rotation": 0,
          "visible": true
        },
        {
          "id": 135,
          "name": "bush",
          "type": "scenery",
          "gid": 1284,
          "x": 416,
          "y": 1920,
          "width": 32,
          "height": 32,
          "rotation": 0,
          "visible": true
        },
        {
          "id": 136,
          "name": "pine",
          "type": "scenery",
          "gid": 1281,
          "x": 480,
          "y": 1952,
          "width": 48,
          "height": 64,
          "rotation": 0,
          "visible": true
        },
        {
          "id": 137,
          "name": "tree",
          "type": "scenery",
          "gid": 1282,
          "x": 544,
          "y": 1952,
          "width": 64,
          "height": 64,
          "rotation": 0,
          "visible": true
        },
        {
          "id": 138,
          "name": "tree",
          "type": "scenery",
          "gid": 1282,
          "x": 608,
          "y": 1952,
          "width": 64,
          "height": 64,
          "rotation": 0,
          "visible": true
        },
        {
          "id": 139,
          "name": "pine",
          "type": "scenery",
          "gid": 1281,
          "x": 672,
          "y": 1952,
          "width": 48,
          "height": 64,
          "rotation": 0,
          "visible": true
        },
        {
          "id": 140,
          "name": "pine",
          "type": "scenery",
          "gid": 1281,
          "x": 736,
          "y": 1952,
          "width": 48,
          "height": 64,
          "rotation": 0,
          "visible": true
        },
        {
          "id": 141,
          "name": "pine",
          "type": "scenery",
          "gid": 1281,
          "x": 800,
          "y": 1952,
          "width": 48,
          "height": 64,
          "rotation": 0,
          "visible": true
        },
        {
          "id": 142,
          "name": "bush",
          "type": "scenery",
          "gid": 1284,
          "x": 864,
          "y": 1920,
          "width": 32,
          "height": 32,
          "rotation": 0,
          "visible": true
        },
        {
          "id": 143,
          "name": "pine",
          "type": "scenery",
          "gid": 1281,
          "x": 928,
          "y": 1952,
          "width": 48,
          "height": 64,
          "rotation": 0,
          "visible": true
        },
        {
          "id": 144,
          "name": "pine",
          "type": "scenery",
          "gid": 1281,
          "x": 1056,
          "y": 1952,
          "width": 48,
          "height": 64,
          "rotation": 0,
          "visible": true
        },
        {
          "id": 145,
          "name": "pine",
          "type": "scenery",
          "gid": 1281,
          "x": 1120,
          "y": 1952,
          "width": 48,
          "height": 64,
          "rotation": 0,
          "visible": true
        },
        {
          "id": 146,
          "name": "pine",
          "type": "scenery",
          "gid": 1281,
          "x": 1184,
          "y": 1952,
          "width": 48,
          "height": 64,
          "rotation": 0,
          "visible": true
        },
        {
          "id": 147,
          "name": "pine",
          "type": "scenery",
          "gid": 1281,
          "x": 1248,
          "y": 1952,
          "width": 48,
          "height": 64,
          "rotation": 0,
          "visible": true
        },
        {
          "id": 148,
          "name": "bush",
          "type": "scenery",
          "gid": 1284,
          "x": 1312,
          "y": 1920,
          "width": 32,
          "height": 32,
          "rotation": 0,
          "visible": true
        },
        {
          "id": 149,
          "name": "rocks",
          "type": "scenery",
          "gid": 1283,
          "x": 1440,
          "y": 1920,
          "width": 48,
          "height": 32,
          "rotation": 0,
          "visible": true
        },
        {
          "id": 150,
          "name": "pine",
          "type": "scenery",
          "gid": 1281,
          "x": 1504,
          "y": 1952,
          "width": 48,
          "height": 64,
          "rotation": 0,
          "visible": true
        },
        {
          "id": 151,
          "name": "pine",
          "type": "scenery",
          "gid": 1281,
          "x": 1568,
          "y": 1952,
          "width": 48,
          "height": 64,
          "rotation": 0,
          "visible": true
        },
        {
          "id": 152,
          "name": "pine",
          "type": "scenery",
          "gid": 1281,
          "x": 1696,
          "y": 1952,
          "width": 48,
          "height": 64,
          "rotation": 0,
          "visible": true
        },
        {
          "id": 153,
          "name": "rocks",
          "type": "scenery",
          "gid": 1283,
          "x": 1760,
          "y": 1920,
          "width": 48,
          "height": 32,
          "rotation": 0,
          "visible": true
        },
        {
          "id": 154,
          "name": "bush",
          "type": "scenery",
          "gid": 1284,
          "x": 1888,
          "y": 1920,
          "width": 32,
          "height": 32,
          "rotation": 0,
          "visible": true
        },
        {
          "id": 155,
          "name": "start",
          "type": "spawn",
          "point": true,
          "x": 512,
          "y": 1536,
          "width": 0,
          "height": 0,
          "rotation": 0,
          "visible": true
        },
        {
          "id": 156,
          "name": "verification_route",
          "type": "test_route",
          "x": 0,
          "y": 0,
          "width": 0,
          "height": 0,
          "rotation": 0,
          "visible": true,
          "polyline": [
            {
              "x": 512,
              "y": 1536
            },
            {
              "x": 1024,
              "y": 1536
            },
            {
              "x": 1728,
              "y": 1536
            },
            {
              "x": 1776,
              "y": 1488
            },
            {
              "x": 1776,
              "y": 1344
            },
            {
              "x": 1664,
              "y": 1248
            },
            {
              "x": 1280,
              "y": 1248
            },
            {
              "x": 1136,
              "y": 1216
            },
            {
              "x": 1024,
              "y": 1152
            },
            {
              "x": 896,
              "y": 1152
            },
            {
              "x": 768,
              "y": 1152
            },
            {
              "x": 624,
              "y": 1264
            },
            {
              "x": 624,
              "y": 1424
            },
            {
              "x": 576,
              "y": 1488
            },
            {
              "x": 512,
              "y": 1536
            }
          ]
        }
      ]
    }
  ]
}
