{
  "type": "map",
  "version": "1.10",
  "orientation": "orthogonal",
  "renderorder": "right-down",
  "width": 256,
  "height": 256,
  "tilewidth": 16,
  "tileheight": 16,
  "infinite": false,
  "nextlayerid": 3,
  "nextobjectid": 599,
  "tilesets": [
    {
      "firstgid": 1,
      "source": "terrain.tsj"
    },
    {
      "firstgid": 1281,
      "source": "props.tsj"
    }
  ],
  "layers": [
    {
      "id": 1,
      "name": "Ground",
      "type": "tilelayer",
      "width": 256,
      "height": 256,
      "x": 0,
      "y": 0,
      "opacity": 1,
      "visible": true,
      "data": [
        913,
        786,
        787,
        788,
        785,
        786,
        787,
        788,
        785,
        786,
        787,
        788,
        785,
        786,
        787,
        788,
        785,
        786,
        787,
        788,
        785,
        786,
        787,
        788,
        785,
        786,
        787,
        788,
        785,
        786,
        787,
        788,
        785,
        786,
        787,
        788,
        785,
        786,
        787,
        788,
        785,
        786,
        787,
        788,
        785,
        786,
        787,
        788,
        785,
        786,
        787,
        788,
        785,
        786,
        787,
        788,
        785,
        786,
        787,
        788,
        785,
        786,
        787,
        788,
        785,
        786,
        787,
        788,
        785,
        786,
        787,
        788,
        785,
        786,
        787,
        788,
        785,
        786,
        787,
        788,
        785,
        786,
        787,
        788,
        785,
        786,
        787,
        788,
        785,
        786,
        787,
        788,
        785,
        786,
        787,
        788,
        785,
        786,
        787,
        788,
        785,
        786,
        787,
        788,
        785,
        786,
        787,
        788,
        785,
        786,
        787,
        788,
        785,
        786,
        787,
        788,
        785,
        786,
        787,
        788,
        785,
        786,
        787,
        788,
        785,
        786,
        787,
        820,
        913,
        786,
        787,
        788,
        785,
        786,
        787,
        788,
        785,
        786,
        787,
        788,
        785,
        786,
        787,
        788,
        785,
        786,
        787,
        788,
        785,
        786,
        787,
        788,
        785,
        786,
        787,
        788,
        785,
        786,
        787,
        788,
        785,
        786,
        787,
        788,
        785,
        786,
        787,
        788,
        785,
        786,
        787,
        788,
        785,
        786,
        787,
        788,
        785,
        786,
        787,
        788,
        785,
        786,
        787,
        788,
        785,
        786,
        787,
        788,
        785,
        786,
        787,
        788,
        785,
        786,
        787,
        788,
        785,
        786,
        787,
        788,
        785,
        786,
        787,
        788,
        785,
        786,
        787,
        788,
        785,
        786,
        787,
        788,
        785,
        786,
        787,
        788,
        785,
        786,
        787,
        788,
        785,
        786,
        787,
        788,
        785,
        786,
        787,
        788,
        785,
        786,
        787,
        788,
        785,
        786,
        787,
        788,
        785,
        786,
        787,
        788,
        785,
        786,
        787,
        788,
        785,
        786,
        787,
        788,
        785,
        786,
        787,
        788,
        785,
        786,
        787,
        820,
        901,
        774,
        775,
        776,
        773,
        774,
        775,
        776,
        773,
        774,
        775,
        776,
        773,
        774,
        775,
        776,
        773,
        774,
        775,
        776,
        773,
        774,
        775,
        776,
        773,
        774,
        775,
        776,
        773,
        774,
        775,
        776,
        773,
        774,
        775,
        776,
        773,
        774,
        775,
        776,
        773,
        774,
        775,
        776,
        773,
        774,
        775,
        776,
        773,
        774,
        775,
        776,
        773,
        774,
        775,
        776,
        773,
        774,
        775,
        776,
        773,
        774,
        775,
        776,
        773,
        774,
        775,
        776,
        773,
        774,
        775,
        776,
        773,
        774,
        775,
        776,
        773,
        774,
        775,
        776,
        773,
        774,
        775,
        776,
        773,
        774,
        775,
        776,
        773,
        774,
        775,
        776,
        773,
        774,
        775,
        776,
        773,
        774,
        775,
        776,
        773,
        774,
        775,
        776,
        773,
        774,
        775,
        776,
        773,
        774,
        775,
        776,
        773,
        774,
        775,
        776,
        773,
        774,
        775,
        776,
        773,
        774,
        775,
        776,
        773,
        774,
        775,
        808,
        901,
        774,
        775,
        776,
        773,
        774,
        775,
        776,
        773,
        774,
        775,
        776,
        773,
        774,
        775,
        776,
        773,
        774,
        775,
        776,
        773,
        774,
        775,
        776,
        773,
        774,
        775,
        776,
        773,
        774,
        775,
        776,
        773,
        774,
        775,
        776,
        773,
        774,
        775,
        776,
        773,
        774,
        775,
        776,
        773,
        774,
        775,
        776,
        773,
        774,
        775,
        776,
        773,
        774,
        775,
        776,
        773,
        774,
        775,
        776,
        773,
        774,
        775,
        776,
        773,
        774,
        775,
        776,
        773,
        774,
        775,
        776,
        773,
        774,
        775,
        776,
        773,
        774,
        775,
        776,
        773,
        774,
        775,
        776,
        773,
        774,
        775,
        776,
        773,
        774,
        775,
        776,
        773,
        774,
        775,
        776,
        773,
        774,
        775,
        776,
        773,
        774,
        775,
        776,
        773,
        774,
        775,
        776,
        773,
        774,
        775,
        776,
        773,
        774,
        775,
        776,
        773,
        774,
        775,
        776,
        773,
        774,
        775,
        776,
        773,
        774,
        775,
        808,
        905,
        778,
        779,
        844,
        841,
        842,
        843,
        844,
        841,
        842,
        843,
        844,
        841,
        842,
        843,
        844,
        841,
        842,
        843,
        844,
        841,
        842,
        843,
        844,
        841,
        842,
        843,
        844,
        841,
        842,
        843,
        844,
        841,
        842,
        843,
        844,
        841,
        842,
        843,
        844,
        841,
        842,
        843,
        844,
        841,
        842,
        843,
        844,
        841,
        842,
        843,
        844,
        841,
        842,
        843,
        844,
        841,
        842,
        843,
        844,
        841,
        842,
        843,
        844,
        841,
        842,
        843,
        844,
        841,
        842,
        843,
        844,
        841,
        842,
        843,
        844,
        841,
        842,
        843,
        844,
        841,
        842,
        843,
        844,
        841,
        842,
        843,
        844,
        841,
        842,
        843,
        844,
        841,
        842,
        843,
        844,
        841,
        842,
        843,
        844,
        841,
        842,
        843,
        844,
        841,
        842,
        843,
        844,
        841,
        842,
        843,
        844,
        841,
        842,
        843,
        844,
        841,
        842,
        843,
        844,
        841,
        842,
        843,
        844,
        841,
        842,
        843,
        844,
        841,
        842,
        843,
        844,
        841,
        842,
        843,
        844,
        841,
        842,
        843,
        844,
        841,
        842,
        843,
        844,
        841,
        842,
        843,
        844,
        841,
        842,
        843,
        844,
        841,
        842,
        843,
        844,
        841,
        842,
        843,
        844,
        841,
        842,
        843,
        844,
        841,
        842,
        843,
        844,
        841,
        842,
        843,
        844,
        841,
        842,
        843,
        844,
        841,
        842,
        843,
        844,
        841,
        842,
        843,
        844,
        841,
        842,
        843,
        844,
        841,
        842,
        843,
        844,
        841,
        842,
        843,
        844,
        841,
        842,
        843,
        844,
        841,
        842,
        843,
        844,
        841,
        842,
        843,
        844,
        841,
        842,
        843,
        844,
        841,
        842,
        843,
        844,
        841,
        842,
        843,
        844,
        841,
        842,
        843,
        844,
        841,
        842,
        843,
        844,
        841,
        842,
        843,
        844,
        841,
        842,
        843,
        844,
        841,
        842,
        843,
        844,
        841,
        842,
        843,
        844,
        841,
        842,
        843,
        844,
        841,
        842,
        843,
        844,
        841,
        778,
        779,
        812,
        909,
        782,
        815,
        160,
        29,
        30,
        31,
        32,
        29,
        30,
        31,
        32,
        29,
        30,
        31,
        32,
        29,
        30,
        31,
        32,
        29,
        30,
        31,
        32,
        29,
        30,
        31,
        32,
        29,
        30,
        31,
        32,
        29,
        30,
        31,
        32,
        29,
        30,
        31,
        32,
        29,
        30,
        31,
        32,
        29,
        30,
        31,
        32,
        29,
        30,
        31,
        32,
        29,
        30,
        31,
        32,
        29,
        30,
        31,
        32,
        29,
        30,
        31,
        32,
        29,
        30,
        31,
        32,
        29,
        30,
        31,
        32,
        29,
        30,
        31,
        32,
        29,
        30,
        31,
        32,
        29,
        30,
        31,
        32,
        29,
        30,
        31,
        32,
        29,
        30,
        31,
        32,
        29,
        30,
        31,
        32,
        29,
        30,
        31,
        32,
        29,
        30,
        31,
        32,
        29,
        30,
        31,
        32,
        29,
        30,
        31,
        32,
        29,
        30,
        31,
        32,
        29,
        30,
        31,
        32,
        29,
        30,
        31,
        32,
        29,
        30,
        31,
        32,
        29,
        30,
        31,
        32,
        29,
        30,
        31,
        32,
        29,
        30,
        31,
        32,
        29,
        30,
        31,
        32,
        29,
        30,
        31,
        32,
        29,
        30,
        31,
        32,
        29,
        30,
        31,
        32,
        29,
        30,
        31,
        32,
        29,
        30,
        31,
        32,
        29,
        30,
        31,
        32,
        29,
        30,
        31,
        32,
        29,
        30,
        31,
        32,
        29,
        30,
        31,
        32,
        29,
        30,
        31,
        32,
        29,
        30,
        31,
        32,
        29,
        30,
        31,
        32,
        29,
        30,
        31,
        32,
        29,
        30,
        31,
        32,
        29,
        30,
        31,
        32,
        29,
        30,
        31,
        32,
        29,
        30,
        31,
        32,
        29,
        30,
        31,
        32,
        29,
        30,
        31,
        32,
        29,
        30,
        31,
        32,
        29,
        30,
        31,
        32,
        29,
        30,
        31,
        32,
        29,
        30,
        31,
        32,
        29,
        30,
        31,
        32,
        29,
        30,
        31,
        32,
        29,
        30,
        31,
        32,
        29,
        30,
        31,
        32,
        61,
        910,
        783,
        816,
        897,
        770,
        803,
        132,
        1,
        2,
        3,
        4,
        1,
        2,
        3,
        4,
        1,
        2,
        3,
        4,
        1,
        2,
        3,
        4,
        1,
        2,
        3,
        4,
        1,
        2,
        3,
        4,
        1,
        2,
        3,
        4,
        1,
        2,
        3,
        4,
        1,
        2,
        3,
        4,
        1,
        2,
        3,
        4,
        1,
        2,
        3,
        4,
        1,
        2,
        3,
        4,
        1,
        2,
        3,
        4,
        1,
        2,
        3,
        4,
        1,
        2,
        3,
        4,
        1,
        2,
        3,
        4,
        1,
        2,
        3,
        4,
        1,
        2,
        3,
        4,
        1,
        2,
        3,
        4,
        1,
        2,
        3,
        4,
        1,
        2,
        3,
        4,
        1,
        2,
        3,
        4,
        1,
        2,
        3,
        4,
        1,
        2,
        3,
        4,
        1,
        2,
        3,
        4,
        1,
        2,
        3,
        4,
        1,
        2,
        3,
        4,
        1,
        2,
        3,
        4,
        1,
        2,
        3,
        4,
        1,
        2,
        3,
        4,
        1,
        2,
        3,
        4,
        1,
        2,
        3,
        4,
        1,
        2,
        3,
        4,
        1,
        2,
        3,
        4,
        1,
        2,
        3,
        4,
        1,
        2,
        3,
        4,
        1,
        2,
        3,
        4,
        1,
        2,
        3,
        4,
        1,
        2,
        3,
        4,
        1,
        2,
        3,
        4,
        1,
        2,
        3,
        4,
        1,
        2,
        3,
        4,
        1,
        2,
        3,
        4,
        1,
        2,
        3,
        4,
        1,
        2,
        3,
        4,
        1,
        2,
        3,
        4,
        1,
        2,
        3,
        4,
        1,
        2,
        3,
        4,
        1,
        2,
        3,
        4,
        1,
        2,
        3,
        4,
        1,
        2,
        3,
        4,
        1,
        2,
        3,
        4,
        1,
        2,
        3,
        4,
        1,
        2,
        3,
        4,
        1,
        2,
        3,
        4,
        1,
        2,
        3,
        4,
        1,
        2,
        3,
        4,
        1,
        2,
        3,
        4,
        1,
        2,
        3,
        4,
        1,
        2,
        3,
        4,
        1,
        2,
        3,
        4,
        1,
        2,
        3,
        4,
        33,
        898,
        771,
        804,
        901,
        774,
        807,
        136,
        5,
        6,
        7,
        8,
        5,
        6,
        7,
        8,
        5,
        6,
        7,
        8,
        5,
        6,
        7,
        8,
        5,
        6,
        7,
        8,
        5,
        6,
        7,
        8,
        5,
        6,
        7,
        8,
        5,
        6,
        7,
        8,
        5,
        6,
        7,
        8,
        5,
        6,
        7,
        8,
        5,
        6,
        7,
        8,
        5,
        6,
        7,
        8,
        5,
        6,
        7,
        8,
        5,
        6,
        7,
        8,
        5,
        6,
        7,
        8,
        5,
        6,
        7,
        8,
        5,
        6,
        7,
        8,
        5,
        6,
        7,
        8,
        5,
        6,
        7,
        8,
        5,
        6,
        7,
        8,
        5,
        6,
        7,
        8,
        5,
        6,
        7,
        8,
        5,
        6,
        7,
        8,
        5,
        6,
        7,
        8,
        5,
        6,
        7,
        8,
        5,
        6,
        7,
        8,
        5,
        6,
        7,
        8,
        5,
        6,
        7,
        8,
        5,
        6,
        7,
        8,
        5,
        6,
        7,
        8,
        5,
        6,
        7,
        8,
        5,
        6,
        7,
        8,
        5,
        6,
        7,
        8,
        5,
        6,
        7,
        8,
        5,
        6,
        7,
        8,
        5,
        6,
        7,
        8,
        5,
        6,
        7,
        8,
        5,
        6,
        7,
        8,
        5,
        6,
        7,
        8,
        5,
        6,
        7,
        8,
        5,
        6,
        7,
        8,
        5,
        6,
        7,
        8,
        5,
        6,
        7,
        8,
        5,
        6,
        7,
        8,
        5,
        6,
        7,
        8,
        5,
        6,
        7,
        8,
        5,
        6,
        7,
        8,
        5,
        6,
        7,
        8,
        5,
        6,
        7,
        8,
        5,
        6,
        7,
        8,
        5,
        6,
        7,
        8,
        5,
        6,
        7,
        8,
        5,
        6,
        7,
        8,
        5,
        6,
        7,
        8,
        5,
        6,
        7,
        8,
        5,
        6,
        7,
        8,
        5,
        6,
        7,
        8,
        5,
        6,
        7,
        8,
        5,
        6,
        7,
        8,
        5,
        6,
        7,
        8,
        5,
        6,
        7,
        8,
        5,
        6,
        7,
        8,
        37,
        902,
        775,
        808,
        905,
        778,
        811,
        140,
        9,
        10,
        11,
        12,
        9,
        10,
        11,
        12,
        9,
        10,
        11,
        12,
        9,
        10,
        11,
        12,
        9,
        10,
        11,
        12,
        9,
        10,
        11,
        12,
        9,
        10,
        11,
        12,
        9,
        10,
        11,
        12,
        9,
        10,
        11,
        12,
        9,
        10,
        11,
        12,
        9,
        10,
        11,
        12,
        9,
        10,
        11,
        12,
        9,
        10,
        11,
        12,
        9,
        10,
        11,
        12,
        9,
        10,
        11,
        12,
        9,
        10,
        11,
        12,
        9,
        10,
        11,
        12,
        9,
        10,
        11,
        12,
        9,
        10,
        11,
        12,
        9,
        10,
        11,
        12,
        9,
        10,
        11,
        12,
        9,
        10,
        11,
        12,
        9,
        10,
        11,
        12,
        9,
        10,
        11,
        12,
        9,
        10,
        11,
        12,
        9,
        10,
        11,
        12,
        9,
        10,
        11,
        12,
        9,
        10,
        11,
        12,
        9,
        10,
        11,
        12,
        9,
        10,
        11,
        12,
        9,
        10,
        11,
        12,
        9,
        10,
        11,
        12,
        9,
        10,
        11,
        12,
        9,
        10,
        11,
        12,
        9,
        10,
        11,
        12,
        9,
        10,
        11,
        12,
        9,
        10,
        11,
        12,
        9,
        10,
        11,
        12,
        9,
        10,
        11,
        12,
        9,
        10,
        11,
        12,
        9,
        10,
        11,
        12,
        9,
        10,
        11,
        12,
        9,
        10,
        11,
        12,
        9,
        10,
        11,
        12,
        9,
        10,
        11,
        12,
        9,
        10,
        11,
        12,
        9,
        10,
        11,
        12,
        9,
        10,
        11,
        12,
        9,
        10,
        11,
        12,
        9,
        10,
        11,
        12,
        9,
        10,
        11,
        12,
        9,
        10,
        11,
        12,
        9,
        10,
        11,
        12,
        9,
        10,
        11,
        12,
        9,
        10,
        11,
        12,
        9,
        10,
        11,
        12,
        9,
        10,
        11,
        12,
        9,
        10,
        11,
        12,
        9,
        10,
        11,
        12,
        9,
        10,
        11,
        12,
        9,
        10,
        11,
        12,
        9,
        10,
        11,
        12,
        41,
        906,
        779,
        812,
        909,
        782,
        815,
        144,
        13,
        14,
        15,
        16,
        13,
        14,
        15,
        16,
        13,
        14,
        15,
        16,
        13,
        14,
        15,
        16,
        13,
        14,
        15,
        16,
        13,
        14,
        15,
        16,
        13,
        14,
        15,
        16,
        13,
        14,
        15,
        16,
        13,
        14,
        15,
        16,
        13,
        14,
        15,
        16,
        13,
        14,
        15,
        16,
        13,
        14,
        15,
        16,
        13,
        14,
        15,
        16,
        13,
        14,
        15,
        16,
        13,
        14,
        15,
        16,
        13,
        14,
        15,
        16,
        13,
        14,
        15,
        16,
        13,
        14,
        15,
        16,
        13,
        14,
        15,
        16,
        13,
        14,
        15,
        16,
        13,
        14,
        15,
        16,
        13,
        14,
        15,
        16,
        13,
        14,
        15,
        16,
        13,
        14,
        15,
        16,
        13,
        14,
        15,
        16,
        13,
        14,
        15,
        16,
        13,
        14,
        15,
        16,
        13,
        14,
        15,
        16,
        13,
        14,
        15,
        16,
        13,
        14,
        15,
        16,
        13,
        14,
        15,
        16,
        13,
        14,
        15,
        16,
        13,
        14,
        15,
        16,
        13,
        14,
        15,
        16,
        13,
        14,
        15,
        16,
        13,
        14,
        15,
        16,
        13,
        14,
        15,
        16,
        13,
        14,
        15,
        16,
        13,
        14,
        15,
        16,
        13,
        14,
        15,
        16,
        13,
        14,
        15,
        16,
        13,
        14,
        15,
        16,
        13,
        14,
        15,
        16,
        13,
        14,
        15,
        16,
        13,
        14,
        15,
        16,
        13,
        14,
        15,
        16,
        13,
        14,
        15,
        16,
        13,
        14,
        15,
        16,
        13,
        14,
        15,
        16,
        13,
        14,
        15,
        16,
        13,
        14,
        15,
        16,
        13,
        14,
        15,
        16,
        13,
        14,
        15,
        16,
        13,
        14,
        15,
        16,
        13,
        14,
        15,
        16,
        13,
        14,
        15,
        16,
        13,
        14,
        15,
        16,
        13,
        14,
        15,
        16,
        13,
        14,
        15,
        16,
        13,
        14,
        15,
        16,
        13,
        14,
        15,
        16,
        13,
        14,
        15,
        16,
        45,
        910,
        783,
        816,
        897,
        770,
        803,
        132,
        1,
        2,
        3,
        4,
        1,
        2,
        3,
        4,
        1,
        2,
        3,
        4,
        1,
        2,
        3,
        4,
        1,
        2,
        3,
        4,
        1,
        2,
        3,
        4,
        1,
        2,
        3,
        4,
        1,
        2,
        3,
        4,
        1,
        2,
        3,
        4,
        1,
        2,
        3,
        4,
        1,
        2,
        3,
        4,
        1,
        2,
        3,
        4,
        1,
        2,
        3,
        4,
        1,
        2,
        3,
        4,
        1,
        2,
        3,
        4,
        1,
        2,
        3,
        4,
        1,
        2,
        3,
        4,
        1,
        2,
        3,
        4,
        1,
        2,
        3,
        4,
        1,
        2,
        3,
        4,
        1,
        2,
        3,
        4,
        1,
        2,
        3,
        4,
        1,
        2,
        3,
        4,
        1,
        2,
        3,
        4,
        1,
        2,
        3,
        4,
        1,
        2,
        3,
        4,
        1,
        2,
        3,
        4,
        1,
        2,
        3,
        4,
        1,
        2,
        3,
        4,
        1,
        2,
        3,
        4,
        1,
        2,
        3,
        4,
        1,
        2,
        3,
        4,
        1,
        2,
        3,
        4,
        1,
        2,
        3,
        4,
        1,
        2,
        3,
        4,
        1,
        2,
        3,
        4,
        1,
        2,
        3,
        4,
        1,
        2,
        3,
        4,
        1,
        2,
        3,
        4,
        1,
        2,
        3,
        4,
        1,
        2,
        3,
        4,
        1,
        2,
        3,
        4,
        1,
        2,
        3,
        4,
        1,
        2,
        3,
        4,
        1,
        2,
        3,
        4,
        1,
        2,
        3,
        4,
        1,
        2,
        3,
        4,
        1,
        2,
        3,
        4,
        1,
        2,
        3,
        4,
        1,
        2,
        3,
        4,
        1,
        2,
        3,
        4,
        1,
        2,
        3,
        4,
        1,
        2,
        3,
        4,
        1,
        2,
        3,
        4,
        1,
        2,
        3,
        4,
        1,
        2,
        3,
        4,
        1,
        2,
        3,
        4,
        1,
        2,
        3,
        4,
        1,
        2,
        3,
        4,
        1,
        2,
        3,
        4,
        1,
        2,
        3,
        4,
        1,
        2,
        3,
        4,
        33,
        898,
        771,
        804,
        901,
        774,
        807,
        136,
        5,
        6,
        7,
        8,
        5,
        6,
        7,
        8,
        5,
        6,
        7,
        8,
        5,
        6,
        7,
        8,
        5,
        6,
        7,
        8,
        5,
        6,
        7,
        8,
        5,
        6,
        7,
        8,
        5,
        6,
        7,
        8,
        5,
        6,
        7,
        8,
        5,
        6,
        7,
        8,
        5,
        6,
        7,
        8,
        5,
        6,
        7,
        8,
        5,
        6,
        7,
        8,
        5,
        6,
        7,
        8,
        5,
        6,
        7,
        8,
        5,
        6,
        7,
        8,
        5,
        6,
        7,
        8,
        5,
        6,
        7,
        8,
        5,
        6,
        7,
        8,
        5,
        6,
        7,
        8,
        5,
        6,
        7,
        8,
        5,
        6,
        7,
        8,
        5,
        6,
        7,
        8,
        5,
        6,
        7,
        8,
        5,
        6,
        7,
        8,
        5,
        6,
        7,
        8,
        5,
        6,
        7,
        8,
        5,
        6,
        7,
        8,
        5,
        6,
        7,
        8,
        5,
        6,
        7,
        8,
        5,
        6,
        7,
        8,
        5,
        6,
        7,
        8,
        5,
        6,
        7,
        8,
        5,
        6,
        7,
        8,
        5,
        6,
        7,
        8,
        5,
        6,
        7,
        8,
        5,
        6,
        7,
        8,
        5,
        6,
        7,
        8,
        5,
        6,
        7,
        8,
        5,
        6,
        7,
        8,
        5,
        6,
        7,
        8,
        5,
        6,
        7,
        8,
        5,
        6,
        7,
        8,
        5,
        6,
        7,
        8,
        5,
        6,
        7,
        8,
        5,
        6,
        7,
        8,
        5,
        6,
        7,
        8,
        5,
        6,
        7,
        8,
        5,
        6,
        7,
        8,
        5,
        6,
        7,
        8,
        5,
        6,
        7,
        8,
        5,
        6,
        7,
        8,
        5,
        6,
        7,
        8,
        5,
        6,
        7,
        8,
        5,
        6,
        7,
        8,
        5,
        6,
        7,
        8,
        5,
        6,
        7,
        8,
        5,
        6,
        7,
        8,
        5,
        6,
        7,
        8,
        5,
        6,
        7,
        8,
        5,
        6,
        7,
        8,
        5,
        6,
        7,
        8,
        37,
        902,
        775,
        808,
        905,
        778,
        811,
        140,
        9,
        10,
        11,
        12,
        9,
        10,
        11,
        12,
        9,
        10,
        11,
        12,
        9,
        10,
        11,
        12,
        9,
        10,
        11,
        12,
        9,
        10,
        11,
        12,
        9,
        10,
        11,
        12,
        9,
        10,
        11,
        12,
        9,
        10,
        11,
        12,
        9,
        10,
        11,
        12,
        9,
        10,
        11,
        12,
        9,
        10,
        11,
        12,
        9,
        10,
        11,
        12,
        9,
        10,
        11,
        12,
        9,
        10,
        11,
        12,
        9,
        10,
        11,
        12,
        9,
        10,
        11,
        12,
        9,
        10,
        11,
        12,
        9,
        10,
        11,
        12,
        9,
        10,
        11,
        12,
        9,
        10,
        11,
        12,
        9,
        10,
        11,
        12,
        9,
        10,
        11,
        12,
        9,
        10,
        11,
        12,
        9,
        10,
        11,
        12,
        9,
        10,
        11,
        12,
        9,
        10,
        11,
        12,
        9,
        10,
        11,
        12,
        9,
        10,
        11,
        12,
        9,
        10,
        11,
        12,
        9,
        10,
        11,
        12,
        9,
        10,
        11,
        12,
        9,
        10,
        11,
        12,
        9,
        10,
        11,
        12,
        9,
        10,
        11,
        12,
        9,
        10,
        11,
        12,
        9,
        10,
        11,
        12,
        9,
        10,
        11,
        12,
        9,
        10,
        11,
        12,
        9,
        10,
        11,
        12,
        9,
        10,
        11,
        12,
        9,
        10,
        11,
        12,
        9,
        10,
        11,
        12,
        9,
        10,
        11,
        12,
        9,
        10,
        11,
        12,
        9,
        10,
        11,
        12,
        9,
        10,
        11,
        12,
        9,
        10,
        11,
        12,
        9,
        10,
        11,
        12,
        9,
        10,
        11,
        12,
        9,
        10,
        11,
        12,
        9,
        10,
        11,
        12,
        9,
        10,
        11,
        12,
        9,
        10,
        11,
        12,
        9,
        10,
        11,
        12,
        9,
        10,
        11,
        12,
        9,
        10,
        11,
        12,
        9,
        10,
        11,
        12,
        9,
        10,
        11,
        12,
        9,
        10,
        11,
        12,
        9,
        10,
        11,
        12,
        9,
        10,
        11,
        12,
        41,
        906,
        779,
        812,
        909,
        782,
        815,
        144,
        13,
        14,
        15,
        16,
        13,
        14,
        15,
        16,
        13,
        14,
        15,
        16,
        13,
        14,
        15,
        16,
        13,
        14,
        15,
        16,
        13,
        14,
        15,
        16,
        13,
        14,
        15,
        16,
        13,
        14,
        15,
        16,
        13,
        14,
        15,
        16,
        13,
        14,
        15,
        16,
        13,
        14,
        15,
        16,
        13,
        14,
        15,
        16,
        13,
        14,
        15,
        16,
        13,
        14,
        15,
        16,
        13,
        14,
        15,
        16,
        13,
        14,
        15,
        16,
        13,
        14,
        15,
        16,
        13,
        14,
        15,
        16,
        13,
        14,
        15,
        16,
        13,
        14,
        15,
        16,
        13,
        14,
        15,
        16,
        13,
        14,
        15,
        16,
        13,
        14,
        15,
        16,
        13,
        14,
        15,
        16,
        13,
        14,
        15,
        16,
        13,
        14,
        15,
        16,
        13,
        14,
        15,
        16,
        13,
        14,
        15,
        16,
        13,
        14,
        15,
        16,
        13,
        14,
        15,
        16,
        13,
        14,
        15,
        16,
        13,
        14,
        15,
        16,
        13,
        14,
        15,
        16,
        13,
        14,
        15,
        16,
        13,
        14,
        15,
        16,
        13,
        14,
        15,
        16,
        13,
        14,
        15,
        16,
        13,
        14,
        15,
        16,
        13,
        14,
        15,
        16,
        13,
        14,
        15,
        16,
        13,
        14,
        15,
        16,
        13,
        14,
        15,
        16,
        13,
        14,
        15,
        16,
        13,
        14,
        15,
        16,
        13,
        14,
        15,
        16,
        13,
        14,
        15,
        16,
        13,
        14,
        15,
        16,
        13,
        14,
        15,
        16,
        13,
        14,
        15,
        16,
        13,
        14,
        15,
        16,
        13,
        14,
        15,
        16,
        13,
        14,
        15,
        16,
        13,
        14,
        15,
        16,
        13,
        14,
        15,
        16,
        13,
        14,
        15,
        16,
        13,
        14,
        15,
        16,
        13,
        14,
        15,
        16,
        13,
        14,
        15,
        16,
        13,
        14,
        15,
        16,
        13,
        14,
        15,
        16,
        13,
        14,
        15,
        16,
        13,
        14,
        15,
        16,
        45,
        910,
        783,
        816,
        897,
        770,
        803,
        132,
        1,
        2,
        3,
        4,
        1,
        2,
        3,
        4,
        1,
        2,
        3,
        4,
        1,
        2,
        3,
        4,
        1,
        2,
        3,
        4,
        1,
        2,
        3,
        4,
        1,
        2,
        3,
        4,
        1,
        2,
        3,
        4,
        1,
        2,
        3,
        4,
        1,
        2,
        3,
        4,
        1,
        2,
        3,
        4,
        1,
        2,
        3,
        4,
        1,
        2,
        3,
        4,
        1,
        2,
        3,
        4,
        1,
        2,
        3,
        4,
        1,
        2,
        3,
        4,
        1,
        2,
        3,
        4,
        1,
        2,
        3,
        4,
        1,
        2,
        3,
        4,
        1,
        2,
        3,
        4,
        1,
        2,
        3,
        4,
        1,
        2,
        3,
        4,
        1,
        2,
        3,
        4,
        1,
        2,
        3,
        4,
        1,
        2,
        3,
        4,
        1,
        2,
        3,
        4,
        1,
        2,
        3,
        4,
        1,
        2,
        3,
        4,
        1,
        2,
        3,
        4,
        1,
        2,
        3,
        4,
        1,
        2,
        3,
        4,
        1,
        2,
        3,
        4,
        1,
        2,
        3,
        4,
        1,
        2,
        3,
        4,
        1,
        2,
        3,
        4,
        1,
        2,
        3,
        4,
        1,
        2,
        3,
        4,
        1,
        2,
        3,
        4,
        1,
        2,
        3,
        4,
        1,
        2,
        3,
        4,
        1,
        2,
        3,
        4,
        1,
        2,
        3,
        4,
        1,
        2,
        3,
        4,
        1,
        2,
        3,
        4,
        1,
        2,
        3,
        4,
        1,
        2,
        3,
        4,
        1,
        2,
        3,
        4,
        1,
        2,
        3,
        4,
        1,
        2,
        3,
        4,
        1,
        2,
        3,
        4,
        1,
        2,
        3,
        4,
        1,
        2,
        3,
        4,
        1,
        2,
        3,
        4,
        1,
        2,
        3,
        4,
        1,
        2,
        3,
        4,
        1,
        2,
        3,
        4,
        1,
        2,
        3,
        4,
        1,
        2,
        3,
        4,
        1,
        2,
        3,
        4,
        1,
        2,
        3,
        4,
        1,
        2,
        3,
        4,
        1,
        2,
        3,
        4,
        33,
        898,
        771,
        804,
        901,
        774,
        807,
        136,
        5,
        6,
        7,
        8,
        5,
        6,
        7,
        8,
        5,
        6,
        7,
        8,
        5,
        6,
        7,
        8,
        5,
        6,
        7,
        8,
        5,
        6,
        71,
        72,
        69,
        70,
        71,
        72,
        69,
        70,
        71,
        72,
        69,
        70,
        71,
        72,
        69,
        70,
        71,
        72,
        69,
        70,
        71,
        72,
        69,
        70,
        71,
        72,
        69,
        70,
        71,
        72,
        69,
        70,
        71,
        72,
        69,
        70,
        71,
        72,
        69,
        70,
        71,
        72,
        69,
        70,
        71,
        72,
        69,
        70,
        71,
        72,
        69,
        70,
        71,
        72,
        69,
        70,
        71,
        72,
        69,
        70,
        71,
        72,
        69,
        70,
        71,
        72,
        69,
        70,
        71,
        72,
        69,
        70,
        71,
        72,
        69,
        70,
        71,
        8,
        5,
        6,
        7,
        8,
        5,
        6,
        7,
        8,
        5,
        6,
        7,
        8,
        5,
        6,
        7,
        8,
        5,
        6,
        7,
        8,
        5,
        6,
        7,
        8,
        5,
        6,
        7,
        8,
        5,
        6,
        7,
        8,
        5,
        6,
        7,
        8,
        5,
        6,
        7,
        8,
        5,
        6,
        7,
        8,
        5,
        6,
        7,
        8,
        5,
        6,
        71,
        72,
        69,
        70,
        71,
        72,
        69,
        70,
        71,
        72,
        69,
        70,
        71,
        72,
        69,
        70,
        71,
        72,
        69,
        70,
        71,
        72,
        69,
        70,
        71,
        72,
        69,
        70,
        71,
        72,
        69,
        70,
        71,
        72,
        69,
        70,
        71,
        72,
        69,
        70,
        71,
        72,
        69,
        70,
        71,
        72,
        69,
        70,
        71,
        72,
        69,
        70,
        71,
        72,
        69,
        70,
        71,
        72,
        69,
        70,
        71,
        72,
        69,
        70,
        71,
        72,
        69,
        70,
        71,
        72,
        69,
        70,
        71,
        72,
        69,
        70,
        71,
        8,
        5,
        6,
        7,
        8,
        5,
        6,
        7,
        8,
        5,
        6,
        7,
        8,
        5,
        6,
        7,
        8,
        5,
        6,
        7,
        8,
        37,
        902,
        775,
        808,
        905,
        778,
        811,
        140,
        9,
        10,
        11,
        12,
        9,
        10,
        11,
        12,
        9,
        10,
        11,
        12,
        9,
        10,
        11,
        12,
        9,
        10,
        11,
        76,
        73,
        106,
        411,
        284,
        281,
        282,
        283,
        284,
        281,
        282,
        283,
        284,
        281,
        282,
        283,
        284,
        281,
        282,
        283,
        284,
        281,
        282,
        283,
        284,
        281,
        282,
        283,
        284,
        281,
        282,
        283,
        284,
        281,
        282,
        283,
        284,
        281,
        282,
        283,
        284,
        281,
        282,
        283,
        284,
        281,
        282,
        283,
        284,
        281,
        282,
        283,
        284,
        281,
        282,
        283,
        284,
        281,
        282,
        283,
        284,
        281,
        282,
        283,
        284,
        281,
        282,
        283,
        284,
        281,
        282,
        283,
        284,
        281,
        282,
        283,
        284,
        281,
        282,
        315,
        204,
        73,
        74,
        11,
        12,
        9,
        10,
        11,
        12,
        9,
        10,
        11,
        12,
        9,
        10,
        11,
        12,
        9,
        10,
        11,
        12,
        9,
        10,
        11,
        12,
        9,
        10,
        11,
        12,
        9,
        10,
        11,
        12,
        9,
        10,
        11,
        12,
        9,
        10,
        11,
        12,
        9,
        10,
        11,
        12,
        9,
        10,
        11,
        76,
        73,
        106,
        411,
        284,
        281,
        282,
        283,
        284,
        281,
        282,
        283,
        284,
        281,
        282,
        283,
        284,
        281,
        282,
        283,
        284,
        281,
        282,
        283,
        284,
        281,
        282,
        283,
        284,
        281,
        282,
        283,
        284,
        281,
        282,
        283,
        284,
        281,
        282,
        283,
        284,
        281,
        282,
        283,
        284,
        281,
        282,
        283,
        284,
        281,
        282,
        283,
        284,
        281,
        282,
        283,
        284,
        281,
        282,
        283,
        284,
        281,
        282,
        283,
        284,
        281,
        282,
        283,
        284,
        281,
        282,
        283,
        284,
        281,
        282,
        283,
        284,
        281,
        282,
        315,
        204,
        73,
        74,
        11,
        12,
        9,
        10,
        11,
        12,
        9,
        10,
        11,
        12,
        9,
        10,
        11,
        12,
        9,
        10,
        11,
        12,
        41,
        906,
        779,
        812,
        909,
        782,
        815,
        144,
        13,
        14,
        15,
        16,
        13,
        14,
        15,
        16,
        13,
        14,
        15,
        16,
        13,
        14,
        15,
        16,
        13,
        78,
        111,
        416,
        285,
        286,
        271,
        272,
        269,
        270,
        271,
        272,
        269,
        270,
        271,
        272,
        269,
        270,
        271,
        272,
        269,
        270,
        271,
        272,
        269,
        270,
        271,
        272,
        269,
        270,
        271,
        272,
        269,
        270,
        271,
        272,
        269,
        270,
        271,
        272,
        269,
        270,
        271,
        272,
        269,
        270,
        271,
        272,
        269,
        270,
        271,
        272,
        269,
        270,
        271,
        272,
        269,
        270,
        271,
        272,
        269,
        270,
        271,
        272,
        269,
        270,
        271,
        272,
        269,
        270,
        271,
        272,
        269,
        270,
        271,
        272,
        269,
        270,
        271,
        272,
        269,
        270,
        271,
        288,
        285,
        318,
        207,
        80,
        13,
        14,
        15,
        16,
        13,
        14,
        15,
        16,
        13,
        14,
        15,
        16,
        13,
        14,
        15,
        16,
        13,
        14,
        15,
        16,
        13,
        14,
        15,
        16,
        13,
        14,
        15,
        16,
        13,
        14,
        15,
        16,
        13,
        14,
        15,
        16,
        13,
        14,
        15,
        16,
        13,
        78,
        111,
        416,
        285,
        286,
        271,
        272,
        269,
        270,
        271,
        272,
        269,
        270,
        271,
        272,
        269,
        270,
        271,
        272,
        269,
        270,
        271,
        272,
        269,
        270,
        271,
        272,
        269,
        270,
        271,
        272,
        269,
        270,
        271,
        272,
        269,
        270,
        271,
        272,
        269,
        270,
        271,
        272,
        269,
        270,
        271,
        272,
        269,
        270,
        271,
        272,
        269,
        270,
        271,
        272,
        269,
        270,
        271,
        272,
        269,
        270,
        271,
        272,
        269,
        270,
        271,
        272,
        269,
        270,
        271,
        272,
        269,
        270,
        271,
        272,
        269,
        270,
        271,
        272,
        269,
        270,
        271,
        288,
        285,
        318,
        207,
        80,
        13,
        14,
        15,
        16,
        13,
        14,
        15,
        16,
        13,
        14,
        15,
        16,
        13,
        14,
        15,
        16,
        45,
        910,
        783,
        816,
        897,
        770,
        803,
        132,
        1,
        2,
        3,
        4,
        1,
        2,
        3,
        4,
        1,
        2,
        3,
        4,
        1,
        2,
        3,
        4,
        97,
        402,
        275,
        260,
        257,
        258,
        259,
        260,
        257,
        258,
        259,
        260,
        257,
        258,
        259,
        260,
        257,
        258,
        259,
        260,
        257,
        258,
        259,
        260,
        257,
        258,
        259,
        260,
        257,
        258,
        259,
        260,
        257,
        258,
        259,
        260,
        257,
        258,
        259,
        260,
        257,
        258,
        259,
        260,
        257,
        258,
        259,
        260,
        257,
        258,
        259,
        260,
        257,
        258,
        259,
        260,
        257,
        258,
        259,
        260,
        257,
        258,
        259,
        260,
        257,
        258,
        259,
        260,
        257,
        258,
        259,
        260,
        257,
        258,
        259,
        260,
        257,
        258,
        259,
        260,
        257,
        258,
        259,
        260,
        257,
        258,
        275,
        308,
        193,
        2,
        3,
        4,
        1,
        2,
        3,
        4,
        1,
        2,
        3,
        4,
        1,
        2,
        3,
        4,
        1,
        2,
        3,
        4,
        1,
        2,
        3,
        4,
        1,
        2,
        3,
        4,
        1,
        2,
        3,
        4,
        1,
        2,
        3,
        4,
        1,
        2,
        3,
        4,
        97,
        402,
        275,
        260,
        257,
        258,
        259,
        260,
        257,
        258,
        259,
        260,
        257,
        258,
        259,
        260,
        257,
        258,
        259,
        260,
        257,
        258,
        259,
        260,
        257,
        258,
        259,
        260,
        257,
        258,
        259,
        260,
        257,
        258,
        259,
        260,
        257,
        258,
        259,
        260,
        257,
        258,
        259,
        260,
        257,
        258,
        259,
        260,
        257,
        258,
        259,
        260,
        257,
        258,
        259,
        260,
        257,
        258,
        259,
        260,
        257,
        258,
        259,
        260,
        257,
        258,
        259,
        260,
        257,
        258,
        259,
        260,
        257,
        258,
        259,
        260,
        257,
        258,
        259,
        260,
        257,
        258,
        259,
        260,
        257,
        258,
        275,
        308,
        193,
        2,
        3,
        4,
        1,
        2,
        3,
        4,
        1,
        2,
        3,
        4,
        1,
        2,
        3,
        4,
        33,
        898,
        771,
        804,
        901,
        774,
        807,
        136,
        5,
        6,
        7,
        8,
        5,
        6,
        7,
        8,
        5,
        6,
        7,
        8,
        5,
        6,
        7,
        104,
        405,
        262,
        263,
        264,
        261,
        262,
        263,
        264,
        261,
        262,
        263,
        264,
        261,
        262,
        263,
        264,
        261,
        262,
        263,
        264,
        261,
        262,
        263,
        264,
        261,
        262,
        263,
        264,
        261,
        262,
        263,
        264,
        261,
        262,
        263,
        264,
        261,
        262,
        263,
        264,
        261,
        262,
        263,
        264,
        261,
        262,
        263,
        264,
        261,
        262,
        263,
        264,
        261,
        262,
        263,
        264,
        261,
        262,
        263,
        264,
        261,
        262,
        263,
        264,
        261,
        262,
        263,
        264,
        261,
        262,
        263,
        264,
        261,
        262,
        263,
        264,
        261,
        262,
        263,
        264,
        261,
        262,
        263,
        264,
        261,
        262,
        263,
        264,
        309,
        198,
        7,
        8,
        5,
        6,
        7,
        8,
        5,
        6,
        7,
        8,
        5,
        6,
        7,
        8,
        5,
        6,
        7,
        8,
        5,
        6,
        7,
        8,
        5,
        6,
        7,
        8,
        5,
        6,
        7,
        8,
        5,
        6,
        7,
        8,
        5,
        6,
        7,
        104,
        405,
        262,
        263,
        264,
        261,
        262,
        263,
        264,
        261,
        262,
        263,
        264,
        261,
        262,
        263,
        264,
        261,
        262,
        263,
        264,
        261,
        262,
        263,
        264,
        261,
        262,
        263,
        264,
        261,
        262,
        263,
        264,
        261,
        262,
        263,
        264,
        261,
        262,
        263,
        264,
        261,
        262,
        263,
        264,
        261,
        262,
        263,
        264,
        261,
        262,
        263,
        264,
        261,
        262,
        263,
        264,
        261,
        262,
        263,
        264,
        261,
        262,
        263,
        264,
        261,
        262,
        263,
        264,
        261,
        262,
        263,
        264,
        261,
        262,
        263,
        264,
        261,
        262,
        263,
        264,
        261,
        262,
        263,
        264,
        261,
        262,
        263,
        264,
        309,
        198,
        7,
        8,
        5,
        6,
        7,
        8,
        5,
        6,
        7,
        8,
        5,
        6,
        7,
        8,
        37,
        902,
        775,
        808,
        905,
        778,
        811,
        140,
        9,
        10,
        11,
        12,
        9,
        10,
        11,
        12,
        9,
        10,
        11,
        12,
        9,
        10,
        107,
        412,
        265,
        266,
        267,
        268,
        265,
        266,
        267,
        268,
        265,
        266,
        267,
        268,
        265,
        266,
        267,
        268,
        265,
        266,
        267,
        268,
        265,
        266,
        267,
        268,
        265,
        266,
        267,
        268,
        265,
        266,
        267,
        268,
        265,
        266,
        267,
        268,
        265,
        266,
        267,
        268,
        265,
        266,
        267,
        268,
        265,
        266,
        267,
        268,
        265,
        266,
        267,
        268,
        265,
        266,
        267,
        268,
        265,
        266,
        267,
        268,
        265,
        266,
        267,
        268,
        265,
        266,
        267,
        268,
        265,
        266,
        267,
        268,
        265,
        266,
        267,
        268,
        265,
        266,
        267,
        268,
        265,
        266,
        267,
        268,
        265,
        266,
        267,
        268,
        265,
        314,
        203,
        12,
        9,
        10,
        11,
        12,
        9,
        10,
        11,
        12,
        9,
        10,
        11,
        12,
        9,
        10,
        11,
        12,
        9,
        10,
        11,
        12,
        9,
        10,
        11,
        12,
        9,
        10,
        11,
        12,
        9,
        10,
        11,
        12,
        9,
        10,
        107,
        412,
        265,
        266,
        267,
        268,
        265,
        266,
        267,
        268,
        265,
        266,
        267,
        268,
        265,
        266,
        267,
        268,
        265,
        266,
        267,
        268,
        265,
        266,
        267,
        268,
        265,
        266,
        267,
        268,
        265,
        266,
        267,
        268,
        265,
        266,
        267,
        268,
        265,
        266,
        267,
        268,
        265,
        266,
        267,
        268,
        265,
        266,
        267,
        268,
        265,
        266,
        267,
        268,
        265,
        266,
        267,
        268,
        265,
        266,
        267,
        268,
        265,
        266,
        267,
        268,
        265,
        266,
        267,
        268,
        265,
        266,
        267,
        268,
        265,
        266,
        267,
        268,
        265,
        266,
        267,
        268,
        265,
        266,
        267,
        268,
        265,
        266,
        267,
        268,
        265,
        314,
        203,
        12,
        9,
        10,
        11,
        12,
        9,
        10,
        11,
        12,
        9,
        10,
        11,
        12,
        41,
        906,
        779,
        812,
        909,
        782,
        815,
        144,
        13,
        14,
        15,
        16,
        13,
        14,
        15,
        16,
        13,
        14,
        15,
        16,
        13,
        110,
        415,
        272,
        269,
        270,
        271,
        272,
        269,
        270,
        335,
        336,
        333,
        334,
        335,
        336,
        333,
        334,
        335,
        336,
        333,
        334,
        335,
        336,
        333,
        334,
        335,
        336,
        333,
        334,
        335,
        336,
        333,
        334,
        335,
        336,
        333,
        334,
        335,
        336,
        333,
        334,
        335,
        336,
        333,
        270,
        271,
        272,
        269,
        270,
        271,
        336,
        333,
        334,
        335,
        336,
        333,
        334,
        335,
        336,
        333,
        334,
        335,
        336,
        333,
        334,
        335,
        336,
        333,
        334,
        335,
        336,
        333,
        334,
        335,
        336,
        333,
        334,
        335,
        336,
        333,
        334,
        335,
        336,
        333,
        334,
        335,
        272,
        269,
        270,
        271,
        272,
        269,
        270,
        319,
        208,
        13,
        14,
        15,
        16,
        13,
        14,
        15,
        16,
        13,
        14,
        15,
        16,
        13,
        14,
        15,
        16,
        13,
        14,
        15,
        16,
        13,
        14,
        15,
        16,
        13,
        14,
        15,
        16,
        13,
        14,
        15,
        16,
        13,
        110,
        415,
        272,
        269,
        270,
        271,
        272,
        269,
        270,
        335,
        336,
        333,
        334,
        335,
        336,
        333,
        334,
        335,
        336,
        333,
        334,
        335,
        336,
        333,
        334,
        335,
        336,
        333,
        334,
        335,
        336,
        333,
        334,
        335,
        336,
        333,
        334,
        335,
        336,
        333,
        334,
        335,
        336,
        333,
        270,
        271,
        272,
        269,
        270,
        271,
        336,
        333,
        334,
        335,
        336,
        333,
        334,
        335,
        336,
        333,
        334,
        335,
        336,
        333,
        334,
        335,
        336,
        333,
        334,
        335,
        336,
        333,
        334,
        335,
        336,
        333,
        334,
        335,
        336,
        333,
        334,
        335,
        336,
        333,
        334,
        335,
        272,
        269,
        270,
        271,
        272,
        269,
        270,
        319,
        208,
        13,
        14,
        15,
        16,
        13,
        14,
        15,
        16,
        13,
        14,
        15,
        16,
        45,
        910,
        783,
        816,
        897,
        770,
        803,
        132,
        1,
        2,
        3,
        4,
        1,
        2,
        3,
        4,
        1,
        2,
        3,
        4,
        97,
        402,
        259,
        260,
        257,
        258,
        259,
        260,
        321,
        354,
        147,
        20,
        17,
        18,
        19,
        20,
        17,
        18,
        19,
        20,
        17,
        18,
        19,
        20,
        17,
        18,
        19,
        20,
        17,
        18,
        19,
        20,
        17,
        18,
        19,
        20,
        17,
        18,
        19,
        20,
        17,
        18,
        19,
        20,
        49,
        386,
        259,
        260,
        257,
        258,
        291,
        148,
        17,
        18,
        19,
        20,
        17,
        18,
        19,
        20,
        17,
        18,
        19,
        20,
        17,
        18,
        19,
        20,
        17,
        18,
        19,
        20,
        17,
        18,
        19,
        20,
        17,
        18,
        19,
        20,
        17,
        18,
        19,
        20,
        17,
        18,
        51,
        452,
        321,
        258,
        259,
        260,
        257,
        258,
        259,
        308,
        193,
        2,
        3,
        4,
        1,
        2,
        3,
        4,
        1,
        2,
        3,
        4,
        1,
        2,
        3,
        4,
        1,
        2,
        3,
        4,
        1,
        2,
        3,
        4,
        1,
        2,
        3,
        4,
        1,
        2,
        3,
        4,
        97,
        402,
        259,
        260,
        257,
        258,
        259,
        260,
        321,
        354,
        147,
        20,
        17,
        18,
        19,
        20,
        17,
        18,
        19,
        20,
        17,
        18,
        19,
        20,
        17,
        18,
        19,
        20,
        17,
        18,
        19,
        20,
        17,
        18,
        19,
        20,
        17,
        18,
        19,
        20,
        17,
        18,
        19,
        20,
        49,
        386,
        259,
        260,
        257,
        258,
        291,
        148,
        17,
        18,
        19,
        20,
        17,
        18,
        19,
        20,
        17,
        18,
        19,
        20,
        17,
        18,
        19,
        20,
        17,
        18,
        19,
        20,
        17,
        18,
        19,
        20,
        17,
        18,
        19,
        20,
        17,
        18,
        19,
        20,
        17,
        18,
        51,
        452,
        321,
        258,
        259,
        260,
        257,
        258,
        259,
        308,
        193,
        2,
        3,
        4,
        1,
        2,
        3,
        4,
        1,
        2,
        3,
        4,
        33,
        898,
        771,
        804,
        901,
        774,
        807,
        136,
        5,
        6,
        7,
        8,
        5,
        6,
        7,
        8,
        5,
        6,
        7,
        40,
        405,
        262,
        263,
        264,
        261,
        262,
        263,
        360,
        149,
        22,
        7,
        8,
        5,
        6,
        7,
        8,
        5,
        6,
        7,
        8,
        5,
        6,
        7,
        8,
        5,
        6,
        7,
        8,
        5,
        6,
        7,
        8,
        5,
        6,
        7,
        8,
        5,
        6,
        7,
        8,
        5,
        6,
        7,
        8,
        37,
        390,
        263,
        264,
        261,
        262,
        295,
        136,
        5,
        6,
        7,
        8,
        5,
        6,
        7,
        8,
        5,
        6,
        7,
        8,
        5,
        6,
        7,
        8,
        5,
        6,
        7,
        8,
        5,
        6,
        7,
        8,
        5,
        6,
        7,
        8,
        5,
        6,
        7,
        8,
        5,
        6,
        7,
        24,
        53,
        454,
        263,
        264,
        261,
        262,
        263,
        264,
        309,
        134,
        7,
        8,
        5,
        6,
        7,
        8,
        5,
        6,
        7,
        8,
        5,
        6,
        7,
        8,
        5,
        6,
        7,
        8,
        5,
        6,
        7,
        8,
        5,
        6,
        7,
        8,
        5,
        6,
        7,
        40,
        405,
        262,
        263,
        264,
        261,
        262,
        263,
        360,
        149,
        22,
        7,
        8,
        5,
        6,
        7,
        8,
        5,
        6,
        7,
        8,
        5,
        6,
        7,
        8,
        5,
        6,
        7,
        8,
        5,
        6,
        7,
        8,
        5,
        6,
        7,
        8,
        5,
        6,
        7,
        8,
        5,
        6,
        7,
        8,
        37,
        390,
        263,
        264,
        261,
        262,
        295,
        136,
        5,
        6,
        7,
        8,
        5,
        6,
        7,
        8,
        5,
        6,
        7,
        8,
        5,
        6,
        7,
        8,
        5,
        6,
        7,
        8,
        5,
        6,
        7,
        8,
        5,
        6,
        7,
        8,
        5,
        6,
        7,
        8,
        5,
        6,
        7,
        24,
        53,
        454,
        263,
        264,
        261,
        262,
        263,
        264,
        309,
        134,
        7,
        8,
        5,
        6,
        7,
        8,
        5,
        6,
        7,
        8,
        37,
        902,
        775,
        808,
        905,
        778,
        811,
        140,
        9,
        10,
        11,
        12,
        9,
        10,
        11,
        12,
        9,
        10,
        11,
        108,
        393,
        266,
        267,
        268,
        265,
        266,
        363,
        156,
        9,
        10,
        11,
        12,
        9,
        10,
        11,
        12,
        9,
        10,
        11,
        12,
        9,
        10,
        11,
        12,
        9,
        10,
        11,
        12,
        9,
        10,
        11,
        12,
        9,
        10,
        11,
        12,
        9,
        10,
        11,
        12,
        9,
        10,
        11,
        12,
        41,
        394,
        267,
        268,
        265,
        266,
        299,
        140,
        9,
        10,
        11,
        12,
        9,
        10,
        11,
        12,
        9,
        10,
        11,
        12,
        9,
        10,
        11,
        12,
        9,
        10,
        11,
        12,
        9,
        10,
        11,
        12,
        9,
        10,
        11,
        12,
        9,
        10,
        11,
        12,
        9,
        10,
        11,
        12,
        9,
        58,
        459,
        268,
        265,
        266,
        267,
        268,
        297,
        202,
        11,
        12,
        9,
        10,
        11,
        12,
        9,
        10,
        11,
        12,
        9,
        10,
        11,
        12,
        9,
        10,
        11,
        12,
        9,
        10,
        11,
        12,
        9,
        10,
        11,
        12,
        9,
        10,
        11,
        108,
        393,
        266,
        267,
        268,
        265,
        266,
        363,
        156,
        9,
        10,
        11,
        12,
        9,
        10,
        11,
        12,
        9,
        10,
        11,
        12,
        9,
        10,
        11,
        12,
        9,
        10,
        11,
        12,
        9,
        10,
        11,
        12,
        9,
        10,
        11,
        12,
        9,
        10,
        11,
        12,
        9,
        10,
        11,
        12,
        41,
        394,
        267,
        268,
        265,
        266,
        299,
        140,
        9,
        10,
        11,
        12,
        9,
        10,
        11,
        12,
        9,
        10,
        11,
        12,
        9,
        10,
        11,
        12,
        9,
        10,
        11,
        12,
        9,
        10,
        11,
        12,
        9,
        10,
        11,
        12,
        9,
        10,
        11,
        12,
        9,
        10,
        11,
        12,
        9,
        58,
        459,
        268,
        265,
        266,
        267,
        268,
        297,
        202,
        11,
        12,
        9,
        10,
        11,
        12,
        9,
        10,
        11,
        12,
        41,
        906,
        779,
        812,
        909,
        782,
        815,
        144,
        13,
        14,
        15,
        16,
        13,
        14,
        15,
        16,
        13,
        14,
        47,
        416,
        269,
        270,
        271,
        272,
        269,
        366,
        159,
        16,
        13,
        14,
        15,
        16,
        13,
        14,
        15,
        16,
        13,
        14,
        15,
        16,
        13,
        14,
        15,
        16,
        13,
        14,
        15,
        16,
        13,
        14,
        15,
        16,
        13,
        14,
        15,
        16,
        13,
        14,
        15,
        16,
        13,
        14,
        15,
        16,
        45,
        398,
        271,
        272,
        269,
        270,
        303,
        144,
        13,
        14,
        15,
        16,
        13,
        14,
        15,
        16,
        13,
        14,
        15,
        16,
        13,
        14,
        15,
        16,
        13,
        14,
        15,
        16,
        13,
        14,
        15,
        16,
        13,
        14,
        15,
        16,
        13,
        14,
        15,
        16,
        13,
        14,
        15,
        16,
        13,
        14,
        63,
        464,
        269,
        270,
        271,
        272,
        269,
        318,
        143,
        16,
        13,
        14,
        15,
        16,
        13,
        14,
        15,
        16,
        13,
        14,
        15,
        16,
        13,
        14,
        15,
        16,
        13,
        14,
        15,
        16,
        13,
        14,
        15,
        16,
        13,
        14,
        47,
        416,
        269,
        270,
        271,
        272,
        269,
        366,
        159,
        16,
        13,
        14,
        15,
        16,
        13,
        14,
        15,
        16,
        13,
        14,
        15,
        16,
        13,
        14,
        15,
        16,
        13,
        14,
        15,
        16,
        13,
        14,
        15,
        16,
        13,
        14,
        15,
        16,
        13,
        14,
        15,
        16,
        13,
        14,
        15,
        16,
        45,
        398,
        271,
        272,
        269,
        270,
        303,
        144,
        13,
        14,
        15,
        16,
        13,
        14,
        15,
        16,
        13,
        14,
        15,
        16,
        13,
        14,
        15,
        16,
        13,
        14,
        15,
        16,
        13,
        14,
        15,
        16,
        13,
        14,
        15,
        16,
        13,
        14,
        15,
        16,
        13,
        14,
        15,
        16,
        13,
        14,
        63,
        464,
        269,
        270,
        271,
        272,
        269,
        318,
        143,
        16,
        13,
        14,
        15,
        16,
        13,
        14,
        15,
        16,
        45,
        910,
        783,
        816,
        897,
        770,
        803,
        132,
        1,
        2,
        3,
        4,
        1,
        2,
        3,
        4,
        1,
        2,
        35,
        388,
        257,
        258,
        259,
        260,
        289,
        146,
        3,
        4,
        1,
        2,
        3,
        4,
        1,
        2,
        3,
        4,
        1,
        2,
        3,
        4,
        1,
        2,
        3,
        4,
        1,
        2,
        3,
        4,
        1,
        2,
        3,
        4,
        1,
        2,
        3,
        4,
        1,
        2,
        3,
        4,
        1,
        2,
        3,
        4,
        33,
        386,
        259,
        260,
        257,
        258,
        291,
        132,
        1,
        2,
        3,
        4,
        1,
        2,
        3,
        4,
        1,
        2,
        3,
        4,
        1,
        2,
        3,
        4,
        1,
        2,
        3,
        4,
        1,
        2,
        3,
        4,
        1,
        2,
        3,
        4,
        1,
        2,
        3,
        4,
        1,
        2,
        3,
        4,
        1,
        2,
        3,
        52,
        385,
        258,
        259,
        260,
        257,
        290,
        131,
        4,
        1,
        2,
        3,
        4,
        1,
        2,
        3,
        4,
        1,
        2,
        3,
        4,
        1,
        2,
        3,
        4,
        1,
        2,
        3,
        4,
        1,
        2,
        3,
        4,
        1,
        2,
        35,
        388,
        257,
        258,
        259,
        260,
        289,
        146,
        3,
        4,
        1,
        2,
        3,
        4,
        1,
        2,
        3,
        4,
        1,
        2,
        3,
        4,
        1,
        2,
        3,
        4,
        1,
        2,
        3,
        4,
        1,
        2,
        3,
        4,
        1,
        2,
        3,
        4,
        1,
        2,
        3,
        4,
        1,
        2,
        3,
        4,
        33,
        386,
        259,
        260,
        257,
        258,
        291,
        132,
        1,
        2,
        3,
        4,
        1,
        2,
        3,
        4,
        1,
        2,
        3,
        4,
        1,
        2,
        3,
        4,
        1,
        2,
        3,
        4,
        1,
        2,
        3,
        4,
        1,
        2,
        3,
        4,
        1,
        2,
        3,
        4,
        1,
        2,
        3,
        4,
        1,
        2,
        3,
        52,
        385,
        258,
        259,
        260,
        257,
        290,
        131,
        4,
        1,
        2,
        3,
        4,
        1,
        2,
        3,
        4,
        33,
        898,
        771,
        804,
        901,
        774,
        807,
        136,
        5,
        6,
        7,
        8,
        5,
        6,
        7,
        8,
        5,
        6,
        103,
        392,
        261,
        262,
        263,
        264,
        357,
        134,
        7,
        8,
        5,
        6,
        7,
        8,
        5,
        6,
        7,
        8,
        5,
        6,
        7,
        8,
        5,
        6,
        7,
        8,
        5,
        6,
        7,
        8,
        5,
        6,
        7,
        8,
        5,
        6,
        7,
        8,
        5,
        6,
        7,
        8,
        5,
        6,
        7,
        8,
        37,
        390,
        263,
        264,
        261,
        262,
        295,
        136,
        5,
        6,
        7,
        8,
        5,
        6,
        7,
        8,
        5,
        6,
        7,
        8,
        5,
        6,
        7,
        8,
        5,
        6,
        7,
        8,
        5,
        6,
        7,
        8,
        5,
        6,
        7,
        8,
        5,
        6,
        7,
        8,
        5,
        6,
        7,
        8,
        5,
        6,
        7,
        40,
        453,
        262,
        263,
        264,
        261,
        294,
        199,
        8,
        5,
        6,
        7,
        8,
        5,
        6,
        7,
        8,
        5,
        6,
        7,
        8,
        5,
        6,
        7,
        8,
        5,
        6,
        7,
        8,
        5,
        6,
        7,
        8,
        5,
        6,
        103,
        392,
        261,
        262,
        263,
        264,
        357,
        134,
        7,
        8,
        5,
        6,
        7,
        8,
        5,
        6,
        7,
        8,
        5,
        6,
        7,
        8,
        5,
        6,
        7,
        8,
        5,
        6,
        7,
        8,
        5,
        6,
        7,
        8,
        5,
        6,
        7,
        8,
        5,
        6,
        7,
        8,
        5,
        6,
        7,
        8,
        37,
        390,
        263,
        264,
        261,
        262,
        295,
        136,
        5,
        6,
        7,
        8,
        5,
        6,
        7,
        8,
        5,
        6,
        7,
        8,
        5,
        6,
        7,
        8,
        5,
        6,
        7,
        8,
        5,
        6,
        7,
        8,
        5,
        6,
        7,
        8,
        5,
        6,
        7,
        8,
        5,
        6,
        7,
        8,
        5,
        6,
        7,
        40,
        453,
        262,
        263,
        264,
        261,
        294,
        199,
        8,
        5,
        6,
        7,
        8,
        5,
        6,
        7,
        8,
        37,
        902,
        775,
        808,
        905,
        778,
        811,
        140,
        9,
        10,
        11,
        12,
        9,
        10,
        11,
        12,
        9,
        42,
        411,
        268,
        265,
        266,
        267,
        300,
        153,
        10,
        11,
        12,
        9,
        10,
        11,
        12,
        9,
        10,
        11,
        12,
        9,
        10,
        11,
        12,
        9,
        10,
        11,
        12,
        9,
        10,
        11,
        12,
        9,
        10,
        11,
        12,
        9,
        10,
        11,
        12,
        9,
        10,
        11,
        12,
        9,
        10,
        11,
        12,
        41,
        394,
        267,
        268,
        265,
        266,
        299,
        140,
        9,
        10,
        11,
        12,
        9,
        10,
        11,
        12,
        9,
        10,
        11,
        12,
        9,
        10,
        11,
        12,
        9,
        10,
        11,
        12,
        9,
        10,
        11,
        12,
        9,
        10,
        11,
        12,
        9,
        10,
        11,
        12,
        9,
        10,
        11,
        12,
        9,
        10,
        11,
        12,
        57,
        394,
        267,
        268,
        265,
        266,
        315,
        140,
        9,
        10,
        11,
        12,
        9,
        10,
        11,
        12,
        9,
        10,
        11,
        12,
        9,
        10,
        11,
        12,
        9,
        10,
        11,
        12,
        9,
        10,
        11,
        12,
        9,
        42,
        411,
        268,
        265,
        266,
        267,
        300,
        153,
        10,
        11,
        12,
        9,
        10,
        11,
        12,
        9,
        10,
        11,
        12,
        9,
        10,
        11,
        12,
        9,
        10,
        11,
        12,
        9,
        10,
        11,
        12,
        9,
        10,
        11,
        12,
        9,
        10,
        11,
        12,
        9,
        10,
        11,
        12,
        9,
        10,
        11,
        12,
        41,
        394,
        267,
        268,
        265,
        266,
        299,
        140,
        9,
        10,
        11,
        12,
        9,
        10,
        11,
        12,
        9,
        10,
        11,
        12,
        9,
        10,
        11,
        12,
        9,
        10,
        11,
        12,
        9,
        10,
        11,
        12,
        9,
        10,
        11,
        12,
        9,
        10,
        11,
        12,
        9,
        10,
        11,
        12,
        9,
        10,
        11,
        12,
        57,
        394,
        267,
        268,
        265,
        266,
        315,
        140,
        9,
        10,
        11,
        12,
        9,
        10,
        11,
        12,
        41,
        906,
        779,
        812,
        909,
        782,
        815,
        144,
        13,
        14,
        15,
        16,
        13,
        14,
        15,
        16,
        13,
        46,
        399,
        272,
        269,
        270,
        271,
        304,
        141,
        14,
        15,
        16,
        13,
        14,
        15,
        16,
        13,
        14,
        15,
        16,
        13,
        14,
        15,
        16,
        13,
        14,
        15,
        16,
        13,
        14,
        15,
        16,
        13,
        14,
        15,
        16,
        13,
        14,
        15,
        16,
        13,
        14,
        15,
        16,
        13,
        14,
        15,
        16,
        45,
        398,
        271,
        272,
        269,
        270,
        303,
        144,
        13,
        14,
        15,
        16,
        13,
        14,
        15,
        16,
        13,
        14,
        15,
        16,
        13,
        14,
        15,
        16,
        13,
        14,
        15,
        16,
        13,
        14,
        15,
        16,
        13,
        14,
        15,
        16,
        13,
        14,
        15,
        16,
        13,
        14,
        15,
        16,
        13,
        14,
        15,
        16,
        45,
        398,
        271,
        272,
        269,
        270,
        303,
        144,
        13,
        14,
        15,
        16,
        13,
        14,
        15,
        16,
        13,
        14,
        15,
        16,
        13,
        14,
        15,
        16,
        13,
        14,
        15,
        16,
        13,
        14,
        15,
        16,
        13,
        46,
        399,
        272,
        269,
        270,
        271,
        304,
        141,
        14,
        15,
        16,
        13,
        14,
        15,
        16,
        13,
        14,
        15,
        16,
        13,
        14,
        15,
        16,
        13,
        14,
        15,
        16,
        13,
        14,
        15,
        16,
        13,
        14,
        15,
        16,
        13,
        14,
        15,
        16,
        13,
        14,
        15,
        16,
        13,
        14,
        15,
        16,
        45,
        398,
        271,
        272,
        269,
        270,
        303,
        144,
        13,
        14,
        15,
        16,
        13,
        14,
        15,
        16,
        13,
        14,
        15,
        16,
        13,
        14,
        15,
        16,
        13,
        14,
        15,
        16,
        13,
        14,
        15,
        16,
        13,
        14,
        15,
        16,
        13,
        14,
        15,
        16,
        13,
        14,
        15,
        16,
        13,
        14,
        15,
        16,
        45,
        398,
        271,
        272,
        269,
        270,
        303,
        144,
        13,
        14,
        15,
        16,
        13,
        14,
        15,
        16,
        45,
        910,
        783,
        816,
        897,
        770,
        803,
        132,
        1,
        2,
        3,
        4,
        1,
        2,
        3,
        4,
        1,
        34,
        387,
        260,
        257,
        258,
        259,
        292,
        193,
        66,
        67,
        68,
        65,
        66,
        67,
        68,
        65,
        66,
        67,
        68,
        65,
        66,
        67,
        68,
        65,
        66,
        67,
        68,
        65,
        66,
        67,
        68,
        65,
        66,
        67,
        68,
        65,
        66,
        67,
        68,
        65,
        66,
        67,
        68,
        65,
        66,
        67,
        68,
        97,
        386,
        259,
        260,
        257,
        258,
        291,
        196,
        65,
        66,
        67,
        68,
        65,
        66,
        67,
        68,
        65,
        66,
        67,
        68,
        65,
        66,
        67,
        68,
        65,
        66,
        67,
        68,
        65,
        66,
        67,
        68,
        65,
        66,
        67,
        68,
        65,
        66,
        67,
        68,
        65,
        66,
        67,
        68,
        65,
        66,
        67,
        68,
        97,
        386,
        259,
        260,
        257,
        258,
        291,
        132,
        1,
        2,
        3,
        4,
        1,
        2,
        3,
        4,
        1,
        2,
        3,
        4,
        1,
        2,
        3,
        4,
        1,
        2,
        3,
        4,
        1,
        2,
        3,
        4,
        1,
        34,
        387,
        260,
        257,
        258,
        259,
        292,
        193,
        66,
        67,
        68,
        65,
        66,
        67,
        68,
        65,
        66,
        67,
        68,
        65,
        66,
        67,
        68,
        65,
        66,
        67,
        68,
        65,
        66,
        67,
        68,
        65,
        66,
        67,
        68,
        65,
        66,
        67,
        68,
        65,
        66,
        67,
        68,
        65,
        66,
        67,
        68,
        97,
        386,
        259,
        260,
        257,
        258,
        291,
        196,
        65,
        66,
        67,
        68,
        65,
        66,
        67,
        68,
        65,
        66,
        67,
        68,
        65,
        66,
        67,
        68,
        65,
        66,
        67,
        68,
        65,
        66,
        67,
        68,
        65,
        66,
        67,
        68,
        65,
        66,
        67,
        68,
        65,
        66,
        67,
        68,
        65,
        66,
        67,
        68,
        97,
        386,
        259,
        260,
        257,
        258,
        291,
        132,
        1,
        2,
        3,
        4,
        1,
        2,
        3,
        4,
        33,
        898,
        771,
        804,
        901,
        774,
        807,
        136,
        5,
        6,
        7,
        8,
        5,
        6,
        7,
        8,
        5,
        38,
        391,
        264,
        261,
        262,
        263,
        264,
        277,
        278,
        279,
        280,
        277,
        278,
        279,
        280,
        277,
        278,
        279,
        280,
        277,
        278,
        279,
        280,
        277,
        278,
        279,
        280,
        277,
        278,
        279,
        280,
        277,
        278,
        279,
        280,
        277,
        278,
        279,
        280,
        277,
        278,
        279,
        280,
        277,
        278,
        279,
        280,
        277,
        262,
        263,
        264,
        261,
        262,
        263,
        280,
        277,
        278,
        279,
        280,
        277,
        278,
        279,
        280,
        277,
        278,
        279,
        280,
        277,
        278,
        279,
        280,
        277,
        278,
        279,
        280,
        277,
        278,
        279,
        280,
        277,
        278,
        279,
        280,
        277,
        278,
        279,
        280,
        277,
        278,
        279,
        280,
        277,
        278,
        279,
        280,
        277,
        262,
        263,
        264,
        261,
        262,
        295,
        136,
        5,
        6,
        7,
        8,
        5,
        6,
        7,
        8,
        5,
        6,
        7,
        8,
        5,
        6,
        7,
        8,
        5,
        6,
        7,
        8,
        5,
        6,
        7,
        8,
        5,
        38,
        391,
        264,
        261,
        262,
        263,
        264,
        277,
        278,
        279,
        280,
        277,
        278,
        279,
        280,
        277,
        278,
        279,
        280,
        277,
        278,
        279,
        280,
        277,
        278,
        279,
        280,
        277,
        278,
        279,
        280,
        277,
        278,
        279,
        280,
        277,
        278,
        279,
        280,
        277,
        278,
        279,
        280,
        277,
        278,
        279,
        280,
        277,
        262,
        263,
        264,
        261,
        262,
        263,
        280,
        277,
        278,
        279,
        280,
        277,
        278,
        279,
        280,
        277,
        278,
        279,
        280,
        277,
        278,
        279,
        280,
        277,
        278,
        279,
        280,
        277,
        278,
        279,
        280,
        277,
        278,
        279,
        280,
        277,
        278,
        279,
        280,
        277,
        278,
        279,
        280,
        277,
        278,
        279,
        280,
        277,
        262,
        263,
        264,
        261,
        262,
        295,
        136,
        5,
        6,
        7,
        8,
        5,
        6,
        7,
        8,
        37,
        902,
        775,
        808,
        905,
        778,
        811,
        140,
        9,
        10,
        11,
        12,
        9,
        10,
        11,
        12,
        9,
        42,
        395,
        268,
        265,
        266,
        267,
        268,
        265,
        266,
        267,
        268,
        265,
        266,
        267,
        268,
        265,
        266,
        267,
        268,
        265,
        266,
        267,
        268,
        265,
        266,
        267,
        268,
        265,
        266,
        267,
        268,
        265,
        266,
        267,
        268,
        265,
        266,
        267,
        268,
        265,
        266,
        267,
        268,
        265,
        266,
        267,
        268,
        265,
        266,
        267,
        268,
        265,
        266,
        267,
        268,
        265,
        266,
        267,
        268,
        265,
        266,
        267,
        268,
        265,
        266,
        267,
        268,
        265,
        266,
        267,
        268,
        265,
        266,
        267,
        268,
        265,
        266,
        267,
        268,
        265,
        266,
        267,
        268,
        265,
        266,
        267,
        268,
        265,
        266,
        267,
        268,
        265,
        266,
        267,
        268,
        265,
        266,
        267,
        268,
        265,
        266,
        299,
        140,
        9,
        10,
        11,
        12,
        9,
        10,
        11,
        12,
        9,
        10,
        11,
        12,
        9,
        10,
        11,
        12,
        9,
        10,
        11,
        12,
        9,
        10,
        11,
        12,
        9,
        42,
        395,
        268,
        265,
        266,
        267,
        268,
        265,
        266,
        267,
        268,
        265,
        266,
        267,
        268,
        265,
        266,
        267,
        268,
        265,
        266,
        267,
        268,
        265,
        266,
        267,
        268,
        265,
        266,
        267,
        268,
        265,
        266,
        267,
        268,
        265,
        266,
        267,
        268,
        265,
        266,
        267,
        268,
        265,
        266,
        267,
        268,
        265,
        266,
        267,
        268,
        265,
        266,
        267,
        268,
        265,
        266,
        267,
        268,
        265,
        266,
        267,
        268,
        265,
        266,
        267,
        268,
        265,
        266,
        267,
        268,
        265,
        266,
        267,
        268,
        265,
        266,
        267,
        268,
        265,
        266,
        267,
        268,
        265,
        266,
        267,
        268,
        265,
        266,
        267,
        268,
        265,
        266,
        267,
        268,
        265,
        266,
        267,
        268,
        265,
        266,
        299,
        140,
        9,
        10,
        11,
        12,
        9,
        10,
        11,
        12,
        41,
        906,
        779,
        812,
        909,
        782,
        815,
        144,
        13,
        14,
        15,
        16,
        13,
        14,
        15,
        16,
        13,
        46,
        399,
        272,
        269,
        270,
        271,
        272,
        269,
        270,
        271,
        272,
        269,
        270,
        271,
        272,
        269,
        270,
        271,
        272,
        269,
        270,
        271,
        272,
        269,
        270,
        271,
        272,
        269,
        270,
        271,
        272,
        269,
        270,
        271,
        272,
        269,
        270,
        271,
        272,
        269,
        270,
        271,
        272,
        269,
        270,
        271,
        272,
        269,
        270,
        271,
        272,
        269,
        270,
        271,
        272,
        269,
        270,
        271,
        272,
        269,
        270,
        271,
        272,
        269,
        270,
        271,
        272,
        269,
        270,
        271,
        272,
        269,
        270,
        271,
        272,
        269,
        270,
        271,
        272,
        269,
        270,
        271,
        272,
        269,
        270,
        271,
        272,
        269,
        270,
        271,
        272,
        269,
        270,
        271,
        272,
        269,
        270,
        271,
        272,
        269,
        270,
        303,
        144,
        13,
        14,
        15,
        16,
        13,
        14,
        15,
        16,
        13,
        14,
        15,
        16,
        13,
        14,
        15,
        16,
        13,
        14,
        15,
        16,
        13,
        14,
        15,
        16,
        13,
        46,
        399,
        272,
        269,
        270,
        271,
        272,
        269,
        270,
        271,
        272,
        269,
        270,
        271,
        272,
        269,
        270,
        271,
        272,
        269,
        270,
        271,
        272,
        269,
        270,
        271,
        272,
        269,
        270,
        271,
        272,
        269,
        270,
        271,
        272,
        269,
        270,
        271,
        272,
        269,
        270,
        271,
        272,
        269,
        270,
        271,
        272,
        269,
        270,
        271,
        272,
        269,
        270,
        271,
        272,
        269,
        270,
        271,
        272,
        269,
        270,
        271,
        272,
        269,
        270,
        271,
        272,
        269,
        270,
        271,
        272,
        269,
        270,
        271,
        272,
        269,
        270,
        271,
        272,
        269,
        270,
        271,
        272,
        269,
        270,
        271,
        272,
        269,
        270,
        271,
        272,
        269,
        270,
        271,
        272,
        269,
        270,
        271,
        272,
        269,
        270,
        303,
        144,
        13,
        14,
        15,
        16,
        13,
        14,
        15,
        16,
        45,
        910,
        783,
        816,
        897,
        770,
        803,
        132,
        1,
        2,
        3,
        4,
        1,
        2,
        3,
        4,
        1,
        34,
        387,
        260,
        257,
        258,
        259,
        260,
        257,
        258,
        259,
        260,
        257,
        258,
        259,
        260,
        257,
        258,
        259,
        260,
        257,
        258,
        259,
        260,
        257,
        258,
        259,
        260,
        257,
        258,
        259,
        260,
        257,
        258,
        259,
        260,
        257,
        258,
        259,
        260,
        257,
        258,
        259,
        260,
        257,
        258,
        259,
        260,
        257,
        258,
        259,
        260,
        257,
        258,
        259,
        260,
        257,
        258,
        259,
        260,
        257,
        258,
        259,
        260,
        257,
        258,
        259,
        260,
        257,
        258,
        259,
        260,
        257,
        258,
        259,
        260,
        257,
        258,
        259,
        260,
        257,
        258,
        259,
        260,
        257,
        258,
        259,
        260,
        257,
        258,
        259,
        260,
        257,
        258,
        259,
        260,
        257,
        258,
        259,
        260,
        257,
        258,
        291,
        132,
        1,
        2,
        3,
        4,
        1,
        2,
        3,
        4,
        1,
        2,
        3,
        4,
        1,
        2,
        3,
        4,
        1,
        2,
        3,
        4,
        1,
        2,
        3,
        4,
        1,
        34,
        387,
        260,
        257,
        258,
        259,
        260,
        257,
        258,
        259,
        260,
        257,
        258,
        259,
        260,
        257,
        258,
        259,
        260,
        257,
        258,
        259,
        260,
        257,
        258,
        259,
        260,
        257,
        258,
        259,
        260,
        257,
        258,
        259,
        260,
        257,
        258,
        259,
        260,
        257,
        258,
        259,
        260,
        257,
        258,
        259,
        260,
        257,
        258,
        259,
        260,
        257,
        258,
        259,
        260,
        257,
        258,
        259,
        260,
        257,
        258,
        259,
        260,
        257,
        258,
        259,
        260,
        257,
        258,
        259,
        260,
        257,
        258,
        259,
        260,
        257,
        258,
        259,
        260,
        257,
        258,
        259,
        260,
        257,
        258,
        259,
        260,
        257,
        258,
        259,
        260,
        257,
        258,
        259,
        260,
        257,
        258,
        259,
        260,
        257,
        258,
        291,
        132,
        1,
        2,
        3,
        4,
        1,
        2,
        3,
        4,
        33,
        898,
        771,
        804,
        901,
        774,
        807,
        136,
        5,
        6,
        7,
        8,
        5,
        6,
        7,
        8,
        5,
        38,
        391,
        264,
        261,
        262,
        263,
        264,
        261,
        262,
        263,
        264,
        261,
        262,
        263,
        264,
        261,
        262,
        263,
        264,
        261,
        262,
        263,
        264,
        261,
        262,
        263,
        264,
        261,
        262,
        263,
        264,
        261,
        262,
        263,
        264,
        261,
        262,
        263,
        264,
        261,
        262,
        263,
        264,
        261,
        262,
        263,
        264,
        261,
        262,
        263,
        264,
        261,
        262,
        263,
        264,
        261,
        262,
        263,
        264,
        261,
        262,
        263,
        264,
        261,
        262,
        263,
        264,
        261,
        262,
        263,
        264,
        261,
        262,
        263,
        264,
        261,
        262,
        263,
        264,
        261,
        262,
        263,
        264,
        261,
        262,
        263,
        264,
        261,
        262,
        263,
        264,
        261,
        262,
        263,
        264,
        261,
        262,
        263,
        264,
        261,
        262,
        295,
        136,
        5,
        6,
        7,
        8,
        5,
        6,
        7,
        8,
        5,
        6,
        7,
        8,
        5,
        6,
        7,
        8,
        5,
        6,
        7,
        8,
        5,
        6,
        7,
        8,
        5,
        38,
        391,
        264,
        261,
        262,
        263,
        264,
        261,
        262,
        263,
        264,
        261,
        262,
        263,
        264,
        261,
        262,
        263,
        264,
        261,
        262,
        263,
        264,
        261,
        262,
        263,
        264,
        261,
        262,
        263,
        264,
        261,
        262,
        263,
        264,
        261,
        262,
        263,
        264,
        261,
        262,
        263,
        264,
        261,
        262,
        263,
        264,
        261,
        262,
        263,
        264,
        261,
        262,
        263,
        264,
        261,
        262,
        263,
        264,
        261,
        262,
        263,
        264,
        261,
        262,
        263,
        264,
        261,
        262,
        263,
        264,
        261,
        262,
        263,
        264,
        261,
        262,
        263,
        264,
        261,
        262,
        263,
        264,
        261,
        262,
        263,
        264,
        261,
        262,
        263,
        264,
        261,
        262,
        263,
        264,
        261,
        262,
        263,
        264,
        261,
        262,
        295,
        136,
        5,
        6,
        7,
        8,
        5,
        6,
        7,
        8,
        37,
        902,
        775,
        808,
        905,
        778,
        811,
        140,
        9,
        10,
        11,
        12,
        9,
        10,
        11,
        12,
        9,
        42,
        395,
        268,
        265,
        266,
        267,
        268,
        329,
        330,
        331,
        332,
        329,
        330,
        331,
        332,
        329,
        330,
        331,
        332,
        329,
        330,
        331,
        332,
        329,
        330,
        331,
        332,
        329,
        330,
        331,
        332,
        329,
        330,
        331,
        332,
        329,
        330,
        331,
        332,
        329,
        330,
        331,
        332,
        329,
        330,
        331,
        332,
        329,
        266,
        267,
        268,
        265,
        266,
        267,
        332,
        329,
        330,
        331,
        332,
        329,
        330,
        331,
        332,
        329,
        330,
        331,
        332,
        329,
        330,
        331,
        332,
        329,
        330,
        331,
        332,
        329,
        330,
        331,
        332,
        329,
        330,
        331,
        332,
        329,
        330,
        331,
        332,
        329,
        330,
        331,
        332,
        329,
        330,
        331,
        332,
        329,
        266,
        267,
        268,
        265,
        266,
        299,
        140,
        9,
        10,
        11,
        12,
        9,
        10,
        11,
        12,
        9,
        10,
        11,
        12,
        9,
        10,
        11,
        12,
        9,
        10,
        11,
        12,
        9,
        10,
        11,
        12,
        9,
        42,
        395,
        268,
        265,
        266,
        267,
        268,
        329,
        330,
        331,
        332,
        329,
        330,
        331,
        332,
        329,
        330,
        331,
        332,
        329,
        330,
        331,
        332,
        329,
        330,
        331,
        332,
        329,
        330,
        331,
        332,
        329,
        330,
        331,
        332,
        329,
        330,
        331,
        332,
        329,
        330,
        331,
        332,
        329,
        330,
        331,
        332,
        329,
        266,
        267,
        268,
        265,
        266,
        267,
        332,
        329,
        330,
        331,
        332,
        329,
        330,
        331,
        332,
        329,
        330,
        331,
        332,
        329,
        330,
        331,
        332,
        329,
        330,
        331,
        332,
        329,
        330,
        331,
        332,
        329,
        330,
        331,
        332,
        329,
        330,
        331,
        332,
        329,
        330,
        331,
        332,
        329,
        330,
        331,
        332,
        329,
        266,
        267,
        268,
        265,
        266,
        299,
        140,
        9,
        10,
        11,
        12,
        9,
        10,
        11,
        12,
        41,
        906,
        779,
        812,
        909,
        782,
        815,
        144,
        13,
        14,
        15,
        16,
        13,
        14,
        15,
        16,
        13,
        46,
        399,
        272,
        269,
        270,
        271,
        304,
        157,
        30,
        31,
        32,
        29,
        30,
        31,
        32,
        29,
        30,
        31,
        32,
        29,
        30,
        31,
        32,
        29,
        30,
        31,
        32,
        29,
        30,
        31,
        32,
        29,
        30,
        31,
        32,
        29,
        30,
        31,
        32,
        29,
        30,
        31,
        32,
        29,
        30,
        31,
        32,
        61,
        398,
        271,
        272,
        269,
        270,
        303,
        160,
        29,
        30,
        31,
        32,
        29,
        30,
        31,
        32,
        29,
        30,
        31,
        32,
        29,
        30,
        31,
        32,
        29,
        30,
        31,
        32,
        29,
        30,
        31,
        32,
        29,
        30,
        31,
        32,
        29,
        30,
        31,
        32,
        29,
        30,
        31,
        32,
        29,
        30,
        31,
        32,
        61,
        398,
        271,
        272,
        269,
        270,
        303,
        144,
        13,
        14,
        15,
        16,
        13,
        14,
        15,
        16,
        13,
        14,
        15,
        16,
        13,
        14,
        15,
        16,
        13,
        14,
        15,
        16,
        13,
        14,
        15,
        16,
        13,
        46,
        399,
        272,
        269,
        270,
        271,
        304,
        157,
        30,
        31,
        32,
        29,
        30,
        31,
        32,
        29,
        30,
        31,
        32,
        29,
        30,
        31,
        32,
        29,
        30,
        31,
        32,
        29,
        30,
        31,
        32,
        29,
        30,
        31,
        32,
        29,
        30,
        31,
        32,
        29,
        30,
        31,
        32,
        29,
        30,
        31,
        32,
        61,
        398,
        271,
        272,
        269,
        270,
        303,
        160,
        29,
        30,
        31,
        32,
        29,
        30,
        31,
        32,
        29,
        30,
        31,
        32,
        29,
        30,
        31,
        32,
        29,
        30,
        31,
        32,
        29,
        30,
        31,
        32,
        29,
        30,
        31,
        32,
        29,
        30,
        31,
        32,
        29,
        30,
        31,
        32,
        29,
        30,
        31,
        32,
        61,
        398,
        271,
        272,
        269,
        270,
        303,
        144,
        13,
        14,
        15,
        16,
        13,
        14,
        15,
        16,
        45,
        910,
        783,
        816,
        897,
        770,
        803,
        132,
        1,
        2,
        3,
        4,
        1,
        2,
        3,
        4,
        1,
        34,
        387,
        260,
        257,
        258,
        259,
        292,
        129,
        2,
        3,
        4,
        1,
        2,
        3,
        4,
        1,
        2,
        3,
        4,
        1,
        2,
        3,
        4,
        1,
        2,
        3,
        4,
        1,
        2,
        3,
        4,
        1,
        2,
        3,
        4,
        1,
        2,
        3,
        4,
        1,
        2,
        3,
        4,
        1,
        2,
        3,
        4,
        33,
        386,
        259,
        260,
        257,
        258,
        291,
        132,
        1,
        2,
        3,
        4,
        1,
        2,
        3,
        4,
        1,
        2,
        3,
        4,
        1,
        2,
        3,
        4,
        1,
        2,
        3,
        4,
        1,
        2,
        3,
        4,
        1,
        2,
        3,
        4,
        1,
        2,
        3,
        4,
        1,
        2,
        3,
        4,
        1,
        2,
        3,
        4,
        33,
        386,
        259,
        260,
        257,
        258,
        291,
        132,
        1,
        2,
        3,
        4,
        1,
        2,
        3,
        4,
        1,
        2,
        3,
        4,
        1,
        2,
        3,
        4,
        1,
        2,
        3,
        4,
        1,
        2,
        3,
        4,
        1,
        34,
        387,
        260,
        257,
        258,
        259,
        292,
        129,
        2,
        3,
        4,
        1,
        2,
        3,
        4,
        1,
        2,
        3,
        4,
        1,
        2,
        3,
        4,
        1,
        2,
        3,
        4,
        1,
        2,
        3,
        4,
        1,
        2,
        3,
        4,
        1,
        2,
        3,
        4,
        1,
        2,
        3,
        4,
        1,
        2,
        3,
        4,
        33,
        386,
        259,
        260,
        257,
        258,
        291,
        132,
        1,
        2,
        3,
        4,
        1,
        2,
        3,
        4,
        1,
        2,
        3,
        4,
        1,
        2,
        3,
        4,
        1,
        2,
        3,
        4,
        1,
        2,
        3,
        4,
        1,
        2,
        3,
        4,
        1,
        2,
        3,
        4,
        1,
        2,
        3,
        4,
        1,
        2,
        3,
        4,
        33,
        386,
        259,
        260,
        257,
        258,
        291,
        132,
        1,
        2,
        3,
        4,
        1,
        2,
        3,
        4,
        33,
        898,
        771,
        804,
        901,
        774,
        807,
        136,
        5,
        6,
        7,
        8,
        5,
        6,
        7,
        8,
        5,
        38,
        391,
        264,
        261,
        262,
        263,
        296,
        133,
        6,
        7,
        8,
        5,
        6,
        7,
        8,
        5,
        6,
        7,
        8,
        5,
        6,
        7,
        8,
        5,
        6,
        7,
        8,
        5,
        6,
        7,
        8,
        5,
        6,
        7,
        8,
        5,
        6,
        7,
        8,
        5,
        6,
        7,
        8,
        5,
        6,
        7,
        8,
        37,
        390,
        263,
        264,
        261,
        262,
        295,
        136,
        5,
        6,
        7,
        8,
        5,
        6,
        7,
        8,
        5,
        6,
        7,
        8,
        5,
        6,
        7,
        8,
        5,
        6,
        7,
        8,
        5,
        6,
        7,
        8,
        5,
        6,
        7,
        8,
        5,
        6,
        7,
        8,
        5,
        6,
        7,
        8,
        5,
        6,
        7,
        8,
        37,
        390,
        263,
        264,
        261,
        262,
        295,
        136,
        5,
        6,
        7,
        8,
        5,
        6,
        7,
        8,
        5,
        6,
        7,
        8,
        5,
        6,
        7,
        8,
        5,
        6,
        7,
        8,
        5,
        6,
        7,
        8,
        5,
        38,
        391,
        264,
        261,
        262,
        263,
        296,
        133,
        6,
        7,
        8,
        5,
        6,
        7,
        8,
        5,
        6,
        7,
        8,
        5,
        6,
        7,
        8,
        5,
        6,
        7,
        8,
        5,
        6,
        7,
        8,
        5,
        6,
        7,
        8,
        5,
        6,
        7,
        8,
        5,
        6,
        7,
        8,
        5,
        6,
        7,
        8,
        37,
        390,
        263,
        264,
        261,
        262,
        295,
        136,
        5,
        6,
        7,
        8,
        5,
        6,
        7,
        8,
        5,
        6,
        7,
        8,
        5,
        6,
        7,
        8,
        5,
        6,
        7,
        8,
        5,
        6,
        7,
        8,
        5,
        6,
        7,
        8,
        5,
        6,
        7,
        8,
        5,
        6,
        7,
        8,
        5,
        6,
        7,
        8,
        37,
        390,
        263,
        264,
        261,
        262,
        295,
        136,
        5,
        6,
        7,
        8,
        5,
        6,
        7,
        8,
        37,
        902,
        775,
        808,
        905,
        778,
        811,
        140,
        9,
        10,
        11,
        12,
        9,
        10,
        11,
        12,
        9,
        42,
        395,
        268,
        265,
        266,
        267,
        300,
        137,
        10,
        11,
        12,
        9,
        10,
        11,
        12,
        9,
        10,
        11,
        12,
        9,
        10,
        11,
        12,
        9,
        10,
        11,
        12,
        9,
        10,
        11,
        12,
        9,
        10,
        11,
        12,
        9,
        10,
        11,
        12,
        9,
        10,
        11,
        12,
        9,
        10,
        11,
        12,
        41,
        394,
        267,
        268,
        265,
        266,
        299,
        140,
        9,
        10,
        11,
        12,
        9,
        10,
        11,
        12,
        9,
        10,
        11,
        12,
        9,
        10,
        11,
        12,
        9,
        10,
        11,
        12,
        9,
        10,
        11,
        12,
        9,
        10,
        11,
        12,
        9,
        10,
        11,
        12,
        9,
        10,
        11,
        12,
        9,
        10,
        11,
        12,
        41,
        394,
        267,
        268,
        265,
        266,
        299,
        140,
        9,
        10,
        11,
        12,
        9,
        10,
        11,
        12,
        9,
        10,
        11,
        12,
        9,
        10,
        11,
        12,
        9,
        10,
        11,
        12,
        9,
        10,
        11,
        12,
        9,
        42,
        395,
        268,
        265,
        266,
        267,
        300,
        137,
        10,
        11,
        12,
        9,
        10,
        11,
        12,
        9,
        10,
        11,
        12,
        9,
        10,
        11,
        12,
        9,
        10,
        11,
        12,
        9,
        10,
        11,
        12,
        9,
        10,
        11,
        12,
        9,
        10,
        11,
        12,
        9,
        10,
        11,
        12,
        9,
        10,
        11,
        12,
        41,
        394,
        267,
        268,
        265,
        266,
        299,
        140,
        9,
        10,
        11,
        12,
        9,
        10,
        11,
        12,
        9,
        10,
        11,
        12,
        9,
        10,
        11,
        12,
        9,
        10,
        11,
        12,
        9,
        10,
        11,
        12,
        9,
        10,
        11,
        12,
        9,
        10,
        11,
        12,
        9,
        10,
        11,
        12,
        9,
        10,
        11,
        12,
        41,
        394,
        267,
        268,
        265,
        266,
        299,
        140,
        9,
        10,
        11,
        12,
        9,
        10,
        11,
        12,
        41,
        906,
        779,
        812,
        909,
        782,
        815,
        144,
        13,
        14,
        15,
        16,
        13,
        14,
        15,
        16,
        13,
        46,
        399,
        272,
        269,
        270,
        271,
        304,
        141,
        14,
        15,
        16,
        13,
        14,
        15,
        16,
        13,
        14,
        15,
        16,
        13,
        14,
        15,
        16,
        13,
        14,
        15,
        16,
        13,
        14,
        15,
        16,
        13,
        14,
        15,
        16,
        13,
        14,
        15,
        16,
        13,
        14,
        15,
        16,
        13,
        14,
        15,
        16,
        45,
        398,
        271,
        272,
        269,
        270,
        303,
        144,
        13,
        14,
        15,
        16,
        13,
        14,
        15,
        16,
        13,
        14,
        15,
        16,
        13,
        14,
        15,
        16,
        13,
        14,
        15,
        16,
        13,
        14,
        15,
        16,
        13,
        14,
        15,
        16,
        13,
        14,
        15,
        16,
        13,
        14,
        15,
        16,
        13,
        14,
        15,
        16,
        45,
        398,
        271,
        272,
        269,
        270,
        303,
        144,
        13,
        14,
        15,
        16,
        13,
        14,
        15,
        16,
        13,
        14,
        15,
        16,
        13,
        14,
        15,
        16,
        13,
        14,
        15,
        16,
        13,
        14,
        15,
        16,
        13,
        46,
        399,
        272,
        269,
        270,
        271,
        304,
        141,
        14,
        15,
        16,
        13,
        14,
        15,
        16,
        13,
        14,
        15,
        16,
        13,
        14,
        15,
        16,
        13,
        14,
        15,
        16,
        13,
        14,
        15,
        16,
        13,
        14,
        15,
        16,
        13,
        14,
        15,
        16,
        13,
        14,
        15,
        16,
        13,
        14,
        15,
        16,
        45,
        398,
        271,
        272,
        269,
        270,
        303,
        144,
        13,
        14,
        15,
        16,
        13,
        14,
        15,
        16,
        13,
        14,
        15,
        16,
        13,
        14,
        15,
        16,
        13,
        14,
        15,
        16,
        13,
        14,
        15,
        16,
        13,
        14,
        15,
        16,
        13,
        14,
        15,
        16,
        13,
        14,
        15,
        16,
        13,
        14,
        15,
        16,
        45,
        398,
        271,
        272,
        269,
        270,
        303,
        144,
        13,
        14,
        15,
        16,
        13,
        14,
        15,
        16,
        45,
        910,
        783,
        816,
        897,
        770,
        803,
        132,
        1,
        2,
        3,
        4,
        1,
        2,
        3,
        4,
        1,
        34,
        387,
        260,
        257,
        258,
        259,
        292,
        129,
        2,
        3,
        4,
        1,
        2,
        3,
        4,
        1,
        2,
        3,
        4,
        1,
        2,
        3,
        4,
        1,
        2,
        3,
        4,
        1,
        2,
        3,
        4,
        1,
        2,
        3,
        4,
        1,
        2,
        3,
        4,
        1,
        2,
        3,
        4,
        1,
        2,
        3,
        4,
        33,
        386,
        259,
        260,
        257,
        258,
        291,
        132,
        1,
        2,
        3,
        4,
        1,
        2,
        3,
        4,
        1,
        2,
        3,
        4,
        1,
        2,
        3,
        4,
        1,
        2,
        3,
        4,
        1,
        2,
        3,
        4,
        1,
        2,
        3,
        4,
        1,
        2,
        3,
        4,
        1,
        2,
        3,
        4,
        1,
        2,
        3,
        4,
        33,
        386,
        259,
        260,
        257,
        258,
        291,
        132,
        1,
        2,
        3,
        4,
        1,
        2,
        3,
        4,
        1,
        2,
        3,
        4,
        1,
        2,
        3,
        4,
        1,
        2,
        3,
        4,
        1,
        2,
        3,
        4,
        1,
        34,
        387,
        260,
        257,
        258,
        259,
        292,
        129,
        2,
        3,
        4,
        1,
        2,
        3,
        4,
        1,
        2,
        3,
        4,
        1,
        2,
        3,
        4,
        1,
        2,
        3,
        4,
        1,
        2,
        3,
        4,
        1,
        2,
        3,
        4,
        1,
        2,
        3,
        4,
        1,
        2,
        3,
        4,
        1,
        2,
        3,
        4,
        33,
        386,
        259,
        260,
        257,
        258,
        291,
        132,
        1,
        2,
        3,
        4,
        1,
        2,
        3,
        4,
        1,
        2,
        3,
        4,
        1,
        2,
        3,
        4,
        1,
        2,
        3,
        4,
        1,
        2,
        3,
        4,
        1,
        2,
        3,
        4,
        1,
        2,
        3,
        4,
        1,
        2,
        3,
        4,
        1,
        2,
        3,
        4,
        33,
        386,
        259,
        260,
        257,
        258,
        291,
        132,
        1,
        2,
        3,
        4,
        1,
        2,
        3,
        4,
        33,
        898,
        771,
        804,
        901,
        774,
        807,
        136,
        5,
        6,
        7,
        8,
        5,
        6,
        7,
        8,
        5,
        38,
        391,
        264,
        261,
        262,
        263,
        296,
        133,
        6,
        7,
        8,
        5,
        6,
        7,
        8,
        5,
        6,
        7,
        8,
        5,
        6,
        7,
        8,
        5,
        6,
        7,
        8,
        5,
        6,
        7,
        8,
        5,
        6,
        7,
        8,
        5,
        6,
        7,
        8,
        5,
        6,
        7,
        8,
        5,
        6,
        7,
        8,
        37,
        390,
        263,
        264,
        261,
        262,
        295,
        136,
        5,
        6,
        7,
        8,
        5,
        6,
        7,
        8,
        5,
        6,
        7,
        8,
        5,
        6,
        7,
        8,
        5,
        6,
        7,
        8,
        5,
        6,
        7,
        8,
        5,
        6,
        7,
        8,
        5,
        6,
        7,
        8,
        5,
        6,
        7,
        8,
        5,
        6,
        7,
        8,
        37,
        390,
        263,
        264,
        261,
        262,
        295,
        136,
        5,
        6,
        7,
        8,
        5,
        6,
        7,
        8,
        5,
        6,
        7,
        8,
        5,
        6,
        7,
        8,
        5,
        6,
        7,
        8,
        5,
        6,
        7,
        8,
        5,
        38,
        391,
        264,
        261,
        262,
        263,
        296,
        133,
        6,
        7,
        8,
        5,
        6,
        7,
        8,
        5,
        6,
        7,
        8,
        5,
        6,
        7,
        8,
        5,
        6,
        7,
        8,
        5,
        6,
        7,
        8,
        5,
        6,
        7,
        8,
        5,
        6,
        7,
        8,
        5,
        6,
        7,
        8,
        5,
        6,
        7,
        8,
        37,
        390,
        263,
        264,
        261,
        262,
        295,
        136,
        5,
        6,
        7,
        8,
        5,
        6,
        7,
        8,
        5,
        6,
        7,
        8,
        5,
        6,
        7,
        8,
        5,
        6,
        7,
        8,
        5,
        6,
        7,
        8,
        5,
        6,
        7,
        8,
        5,
        6,
        7,
        8,
        5,
        6,
        7,
        8,
        5,
        6,
        7,
        8,
        37,
        390,
        263,
        264,
        261,
        262,
        295,
        136,
        5,
        6,
        7,
        8,
        5,
        6,
        7,
        8,
        37,
        902,
        775,
        808,
        905,
        778,
        811,
        140,
        9,
        10,
        11,
        12,
        9,
        10,
        11,
        12,
        9,
        42,
        395,
        268,
        265,
        266,
        267,
        300,
        137,
        10,
        11,
        12,
        9,
        10,
        11,
        12,
        9,
        10,
        11,
        12,
        9,
        10,
        11,
        12,
        9,
        10,
        11,
        12,
        9,
        10,
        11,
        12,
        9,
        10,
        11,
        12,
        9,
        10,
        11,
        12,
        9,
        10,
        11,
        12,
        9,
        10,
        11,
        12,
        41,
        394,
        267,
        268,
        265,
        266,
        299,
        140,
        9,
        10,
        11,
        12,
        9,
        10,
        11,
        12,
        9,
        10,
        11,
        12,
        9,
        10,
        11,
        12,
        9,
        10,
        11,
        12,
        9,
        10,
        11,
        12,
        9,
        10,
        11,
        12,
        9,
        10,
        11,
        12,
        9,
        10,
        11,
        12,
        9,
        10,
        11,
        12,
        41,
        394,
        267,
        268,
        265,
        266,
        299,
        140,
        9,
        10,
        11,
        12,
        9,
        10,
        11,
        12,
        9,
        10,
        11,
        12,
        9,
        10,
        11,
        12,
        9,
        10,
        11,
        12,
        9,
        10,
        11,
        12,
        9,
        42,
        395,
        268,
        265,
        266,
        267,
        300,
        137,
        10,
        11,
        12,
        9,
        10,
        11,
        12,
        9,
        10,
        11,
        12,
        9,
        10,
        11,
        12,
        9,
        10,
        11,
        12,
        9,
        10,
        11,
        12,
        9,
        10,
        11,
        12,
        9,
        10,
        11,
        12,
        9,
        10,
        11,
        12,
        9,
        10,
        11,
        12,
        41,
        394,
        267,
        268,
        265,
        266,
        299,
        140,
        9,
        10,
        11,
        12,
        9,
        10,
        11,
        12,
        9,
        10,
        11,
        12,
        9,
        10,
        11,
        12,
        9,
        10,
        11,
        12,
        9,
        10,
        11,
        12,
        9,
        10,
        11,
        12,
        9,
        10,
        11,
        12,
        9,
        10,
        11,
        12,
        9,
        10,
        11,
        12,
        41,
        394,
        267,
        268,
        265,
        266,
        299,
        140,
        9,
        10,
        11,
        12,
        9,
        10,
        11,
        12,
        41,
        906,
        779,
        812,
        909,
        782,
        815,
        144,
        13,
        14,
        15,
        16,
        13,
        14,
        15,
        16,
        13,
        46,
        399,
        272,
        269,
        270,
        271,
        304,
        141,
        14,
        15,
        16,
        13,
        14,
        15,
        16,
        13,
        14,
        15,
        16,
        13,
        14,
        15,
        16,
        13,
        14,
        15,
        16,
        13,
        14,
        15,
        16,
        13,
        14,
        15,
        16,
        13,
        14,
        15,
        16,
        13,
        14,
        15,
        16,
        13,
        14,
        15,
        16,
        45,
        398,
        271,
        272,
        269,
        270,
        303,
        144,
        13,
        14,
        15,
        16,
        13,
        14,
        15,
        16,
        13,
        14,
        15,
        16,
        13,
        14,
        15,
        16,
        13,
        14,
        79,
        80,
        77,
        78,
        79,
        80,
        77,
        78,
        79,
        80,
        77,
        78,
        79,
        80,
        77,
        14,
        15,
        16,
        13,
        14,
        15,
        16,
        45,
        398,
        271,
        272,
        269,
        270,
        303,
        144,
        13,
        14,
        15,
        16,
        13,
        14,
        15,
        16,
        13,
        14,
        15,
        16,
        13,
        14,
        15,
        16,
        13,
        14,
        15,
        16,
        13,
        14,
        15,
        16,
        13,
        46,
        399,
        272,
        269,
        270,
        271,
        304,
        141,
        14,
        15,
        16,
        13,
        14,
        15,
        16,
        13,
        14,
        15,
        16,
        13,
        14,
        15,
        16,
        13,
        14,
        15,
        16,
        13,
        14,
        15,
        16,
        13,
        14,
        15,
        16,
        13,
        14,
        15,
        16,
        13,
        14,
        15,
        16,
        13,
        14,
        15,
        16,
        45,
        398,
        271,
        272,
        269,
        270,
        303,
        144,
        13,
        14,
        15,
        16,
        13,
        14,
        15,
        16,
        13,
        14,
        15,
        16,
        13,
        14,
        15,
        16,
        13,
        14,
        79,
        80,
        77,
        78,
        79,
        80,
        77,
        78,
        79,
        80,
        77,
        78,
        79,
        80,
        77,
        14,
        15,
        16,
        13,
        14,
        15,
        16,
        45,
        398,
        271,
        272,
        269,
        270,
        303,
        144,
        13,
        14,
        15,
        16,
        13,
        14,
        15,
        16,
        45,
        910,
        783,
        816,
        897,
        770,
        803,
        132,
        1,
        2,
        3,
        4,
        1,
        2,
        3,
        4,
        1,
        34,
        387,
        260,
        257,
        258,
        259,
        292,
        129,
        2,
        3,
        4,
        1,
        2,
        3,
        4,
        1,
        2,
        3,
        4,
        1,
        2,
        3,
        4,
        1,
        2,
        3,
        4,
        1,
        2,
        3,
        4,
        1,
        2,
        3,
        4,
        1,
        2,
        3,
        4,
        1,
        2,
        3,
        4,
        1,
        2,
        3,
        4,
        33,
        386,
        259,
        260,
        257,
        258,
        291,
        132,
        1,
        2,
        3,
        4,
        1,
        2,
        3,
        4,
        1,
        2,
        3,
        4,
        1,
        2,
        3,
        4,
        65,
        98,
        915,
        788,
        785,
        786,
        787,
        788,
        785,
        786,
        787,
        788,
        785,
        786,
        787,
        788,
        817,
        194,
        67,
        4,
        1,
        2,
        3,
        4,
        33,
        386,
        259,
        260,
        257,
        258,
        291,
        132,
        1,
        2,
        3,
        4,
        1,
        2,
        3,
        4,
        1,
        2,
        3,
        4,
        1,
        2,
        3,
        4,
        1,
        2,
        3,
        4,
        1,
        2,
        3,
        4,
        1,
        34,
        387,
        260,
        257,
        258,
        259,
        292,
        129,
        2,
        3,
        4,
        1,
        2,
        3,
        4,
        1,
        2,
        3,
        4,
        1,
        2,
        3,
        4,
        1,
        2,
        3,
        4,
        1,
        2,
        3,
        4,
        1,
        2,
        3,
        4,
        1,
        2,
        3,
        4,
        1,
        2,
        3,
        4,
        1,
        2,
        3,
        4,
        33,
        386,
        259,
        260,
        257,
        258,
        291,
        132,
        1,
        2,
        3,
        4,
        1,
        2,
        3,
        4,
        1,
        2,
        3,
        4,
        1,
        2,
        3,
        4,
        65,
        98,
        915,
        788,
        785,
        786,
        787,
        788,
        785,
        786,
        787,
        788,
        785,
        786,
        787,
        788,
        817,
        194,
        67,
        4,
        1,
        2,
        3,
        4,
        33,
        386,
        259,
        260,
        257,
        258,
        291,
        132,
        1,
        2,
        3,
        4,
        1,
        2,
        3,
        4,
        33,
        898,
        771,
        804,
        901,
        774,
        807,
        136,
        5,
        6,
        7,
        8,
        5,
        6,
        7,
        8,
        5,
        38,
        391,
        264,
        261,
        262,
        263,
        296,
        133,
        6,
        7,
        8,
        5,
        6,
        7,
        8,
        5,
        6,
        7,
        8,
        5,
        6,
        7,
        8,
        5,
        6,
        7,
        8,
        5,
        6,
        7,
        8,
        5,
        6,
        7,
        8,
        5,
        6,
        7,
        8,
        5,
        6,
        7,
        8,
        5,
        6,
        7,
        8,
        37,
        390,
        263,
        264,
        261,
        262,
        295,
        136,
        5,
        6,
        7,
        8,
        5,
        6,
        7,
        8,
        5,
        6,
        7,
        8,
        5,
        6,
        7,
        104,
        917,
        790,
        775,
        776,
        773,
        774,
        775,
        776,
        773,
        774,
        775,
        776,
        773,
        774,
        775,
        776,
        773,
        790,
        823,
        200,
        5,
        6,
        7,
        8,
        37,
        390,
        263,
        264,
        261,
        262,
        295,
        136,
        5,
        6,
        7,
        8,
        5,
        6,
        7,
        8,
        5,
        6,
        7,
        8,
        5,
        6,
        7,
        8,
        5,
        6,
        7,
        8,
        5,
        6,
        7,
        8,
        5,
        38,
        391,
        264,
        261,
        262,
        263,
        296,
        133,
        6,
        7,
        8,
        5,
        6,
        7,
        8,
        5,
        6,
        7,
        8,
        5,
        6,
        7,
        8,
        5,
        6,
        7,
        8,
        5,
        6,
        7,
        8,
        5,
        6,
        7,
        8,
        5,
        6,
        7,
        8,
        5,
        6,
        7,
        8,
        5,
        6,
        7,
        8,
        37,
        390,
        263,
        264,
        261,
        262,
        295,
        136,
        5,
        6,
        7,
        8,
        5,
        6,
        7,
        8,
        5,
        6,
        7,
        8,
        5,
        6,
        7,
        104,
        917,
        790,
        775,
        776,
        773,
        774,
        775,
        776,
        773,
        774,
        775,
        776,
        773,
        774,
        775,
        776,
        773,
        790,
        823,
        200,
        5,
        6,
        7,
        8,
        37,
        390,
        263,
        264,
        261,
        262,
        295,
        136,
        5,
        6,
        7,
        8,
        5,
        6,
        7,
        8,
        37,
        902,
        775,
        808,
        905,
        778,
        811,
        140,
        9,
        10,
        11,
        12,
        9,
        10,
        11,
        12,
        9,
        42,
        395,
        268,
        265,
        266,
        267,
        300,
        137,
        10,
        11,
        12,
        9,
        10,
        11,
        12,
        9,
        10,
        11,
        12,
        9,
        10,
        11,
        12,
        9,
        10,
        11,
        12,
        9,
        10,
        11,
        12,
        9,
        10,
        11,
        12,
        9,
        10,
        11,
        12,
        9,
        10,
        11,
        12,
        9,
        10,
        11,
        12,
        41,
        394,
        267,
        268,
        265,
        266,
        299,
        140,
        9,
        10,
        11,
        12,
        9,
        10,
        11,
        12,
        9,
        10,
        11,
        12,
        9,
        10,
        107,
        924,
        777,
        778,
        779,
        780,
        777,
        778,
        779,
        780,
        777,
        778,
        779,
        780,
        777,
        778,
        779,
        780,
        777,
        778,
        779,
        828,
        201,
        10,
        11,
        12,
        41,
        394,
        267,
        268,
        265,
        266,
        299,
        140,
        9,
        10,
        11,
        12,
        9,
        10,
        11,
        12,
        9,
        10,
        11,
        12,
        9,
        10,
        11,
        12,
        9,
        10,
        11,
        12,
        9,
        10,
        11,
        12,
        9,
        42,
        395,
        268,
        265,
        266,
        267,
        300,
        137,
        10,
        11,
        12,
        9,
        10,
        11,
        12,
        9,
        10,
        11,
        12,
        9,
        10,
        11,
        12,
        9,
        10,
        11,
        12,
        9,
        10,
        11,
        12,
        9,
        10,
        11,
        12,
        9,
        10,
        11,
        12,
        9,
        10,
        11,
        12,
        9,
        10,
        11,
        12,
        41,
        394,
        267,
        268,
        265,
        266,
        299,
        140,
        9,
        10,
        11,
        12,
        9,
        10,
        11,
        12,
        9,
        10,
        11,
        12,
        9,
        10,
        107,
        924,
        777,
        778,
        779,
        780,
        777,
        778,
        779,
        780,
        777,
        778,
        779,
        780,
        777,
        778,
        779,
        780,
        777,
        778,
        779,
        828,
        201,
        10,
        11,
        12,
        41,
        394,
        267,
        268,
        265,
        266,
        299,
        140,
        9,
        10,
        11,
        12,
        9,
        10,
        11,
        12,
        41,
        906,
        779,
        812,
        909,
        782,
        815,
        144,
        13,
        14,
        15,
        16,
        13,
        14,
        15,
        16,
        13,
        46,
        399,
        272,
        269,
        270,
        271,
        304,
        141,
        14,
        15,
        16,
        13,
        14,
        15,
        16,
        13,
        14,
        15,
        16,
        13,
        14,
        15,
        16,
        13,
        14,
        15,
        16,
        13,
        14,
        15,
        16,
        13,
        14,
        15,
        16,
        13,
        14,
        15,
        16,
        13,
        14,
        15,
        16,
        13,
        14,
        15,
        16,
        45,
        398,
        271,
        272,
        269,
        270,
        303,
        144,
        13,
        14,
        15,
        16,
        13,
        14,
        15,
        16,
        13,
        14,
        15,
        16,
        13,
        110,
        927,
        784,
        781,
        782,
        783,
        784,
        781,
        782,
        783,
        784,
        781,
        782,
        783,
        784,
        781,
        782,
        783,
        784,
        781,
        782,
        783,
        784,
        829,
        206,
        15,
        16,
        45,
        398,
        271,
        272,
        269,
        270,
        303,
        144,
        13,
        14,
        15,
        16,
        13,
        14,
        15,
        16,
        13,
        14,
        15,
        16,
        13,
        14,
        15,
        16,
        13,
        14,
        15,
        16,
        13,
        14,
        15,
        16,
        13,
        46,
        399,
        272,
        269,
        270,
        271,
        304,
        141,
        14,
        15,
        16,
        13,
        14,
        15,
        16,
        13,
        14,
        15,
        16,
        13,
        14,
        15,
        16,
        13,
        14,
        15,
        16,
        13,
        14,
        15,
        16,
        13,
        14,
        15,
        16,
        13,
        14,
        15,
        16,
        13,
        14,
        15,
        16,
        13,
        14,
        15,
        16,
        45,
        398,
        271,
        272,
        269,
        270,
        303,
        144,
        13,
        14,
        15,
        16,
        13,
        14,
        15,
        16,
        13,
        14,
        15,
        16,
        13,
        110,
        927,
        784,
        781,
        782,
        783,
        784,
        781,
        782,
        783,
        784,
        781,
        782,
        783,
        784,
        781,
        782,
        783,
        784,
        781,
        782,
        783,
        784,
        829,
        206,
        15,
        16,
        45,
        398,
        271,
        272,
        269,
        270,
        303,
        144,
        13,
        14,
        15,
        16,
        13,
        14,
        15,
        16,
        45,
        910,
        783,
        816,
        897,
        770,
        803,
        132,
        1,
        2,
        3,
        4,
        1,
        2,
        3,
        4,
        1,
        34,
        387,
        260,
        257,
        258,
        259,
        292,
        129,
        2,
        3,
        4,
        1,
        2,
        3,
        4,
        1,
        2,
        3,
        4,
        1,
        2,
        3,
        4,
        1,
        2,
        3,
        4,
        1,
        2,
        3,
        4,
        1,
        2,
        3,
        4,
        1,
        2,
        3,
        4,
        1,
        2,
        3,
        4,
        1,
        2,
        3,
        4,
        33,
        386,
        259,
        260,
        257,
        258,
        291,
        132,
        1,
        2,
        3,
        4,
        1,
        2,
        3,
        4,
        1,
        2,
        3,
        4,
        33,
        914,
        771,
        772,
        769,
        770,
        771,
        772,
        769,
        770,
        771,
        772,
        769,
        770,
        771,
        772,
        769,
        770,
        771,
        772,
        769,
        770,
        771,
        772,
        769,
        818,
        131,
        4,
        33,
        386,
        259,
        260,
        257,
        258,
        291,
        132,
        1,
        2,
        3,
        4,
        1,
        2,
        3,
        4,
        1,
        2,
        3,
        4,
        1,
        2,
        3,
        4,
        1,
        2,
        3,
        4,
        1,
        2,
        3,
        4,
        1,
        34,
        387,
        260,
        257,
        258,
        259,
        292,
        129,
        2,
        3,
        4,
        1,
        2,
        3,
        4,
        1,
        2,
        3,
        4,
        1,
        2,
        3,
        4,
        1,
        2,
        3,
        4,
        1,
        2,
        3,
        4,
        1,
        2,
        3,
        4,
        1,
        2,
        3,
        4,
        1,
        2,
        3,
        4,
        1,
        2,
        3,
        4,
        33,
        386,
        259,
        260,
        257,
        258,
        291,
        132,
        1,
        2,
        3,
        4,
        1,
        2,
        3,
        4,
        1,
        2,
        3,
        4,
        33,
        914,
        771,
        772,
        769,
        770,
        771,
        772,
        769,
        770,
        771,
        772,
        769,
        770,
        771,
        772,
        769,
        770,
        771,
        772,
        769,
        770,
        771,
        772,
        769,
        818,
        131,
        4,
        33,
        386,
        259,
        260,
        257,
        258,
        291,
        132,
        1,
        2,
        3,
        4,
        1,
        2,
        3,
        4,
        33,
        898,
        771,
        804,
        901,
        774,
        807,
        136,
        5,
        6,
        7,
        8,
        5,
        6,
        7,
        8,
        5,
        38,
        391,
        264,
        261,
        262,
        263,
        296,
        133,
        6,
        7,
        8,
        5,
        6,
        7,
        8,
        5,
        6,
        7,
        8,
        5,
        6,
        7,
        8,
        5,
        6,
        7,
        8,
        5,
        6,
        7,
        8,
        5,
        6,
        7,
        8,
        5,
        6,
        7,
        8,
        5,
        6,
        7,
        8,
        5,
        6,
        7,
        8,
        37,
        390,
        263,
        264,
        261,
        262,
        295,
        136,
        5,
        6,
        7,
        8,
        5,
        6,
        7,
        8,
        5,
        6,
        7,
        8,
        101,
        902,
        775,
        776,
        773,
        774,
        775,
        776,
        773,
        774,
        775,
        776,
        773,
        774,
        775,
        776,
        773,
        774,
        775,
        776,
        773,
        774,
        775,
        776,
        773,
        806,
        199,
        8,
        37,
        390,
        263,
        264,
        261,
        262,
        295,
        136,
        5,
        6,
        7,
        8,
        5,
        6,
        7,
        8,
        5,
        6,
        7,
        8,
        5,
        6,
        7,
        8,
        5,
        6,
        7,
        8,
        5,
        6,
        7,
        8,
        5,
        38,
        391,
        264,
        261,
        262,
        263,
        296,
        133,
        6,
        7,
        8,
        5,
        6,
        7,
        8,
        5,
        6,
        7,
        8,
        5,
        6,
        7,
        8,
        5,
        6,
        7,
        8,
        5,
        6,
        7,
        8,
        5,
        6,
        7,
        8,
        5,
        6,
        7,
        8,
        5,
        6,
        7,
        8,
        5,
        6,
        7,
        8,
        37,
        390,
        263,
        264,
        261,
        262,
        295,
        136,
        5,
        6,
        7,
        8,
        5,
        6,
        7,
        8,
        5,
        6,
        7,
        8,
        101,
        902,
        775,
        776,
        773,
        774,
        775,
        776,
        773,
        774,
        775,
        776,
        773,
        774,
        775,
        776,
        773,
        774,
        775,
        776,
        773,
        774,
        775,
        776,
        773,
        806,
        199,
        8,
        37,
        390,
        263,
        264,
        261,
        262,
        295,
        136,
        5,
        6,
        7,
        8,
        5,
        6,
        7,
        8,
        37,
        902,
        775,
        808,
        905,
        778,
        811,
        140,
        9,
        10,
        11,
        12,
        9,
        10,
        11,
        12,
        9,
        42,
        395,
        268,
        265,
        266,
        267,
        300,
        137,
        10,
        11,
        12,
        9,
        10,
        11,
        12,
        9,
        10,
        11,
        12,
        9,
        10,
        11,
        12,
        9,
        10,
        11,
        12,
        9,
        10,
        11,
        12,
        9,
        10,
        11,
        12,
        9,
        10,
        11,
        12,
        9,
        10,
        11,
        12,
        9,
        10,
        11,
        12,
        41,
        394,
        267,
        268,
        265,
        266,
        299,
        140,
        9,
        10,
        11,
        12,
        9,
        10,
        11,
        12,
        9,
        10,
        11,
        44,
        921,
        778,
        779,
        780,
        777,
        778,
        779,
        780,
        777,
        778,
        779,
        780,
        777,
        778,
        779,
        780,
        777,
        778,
        779,
        780,
        777,
        778,
        779,
        780,
        777,
        778,
        827,
        140,
        41,
        394,
        267,
        268,
        265,
        266,
        299,
        140,
        9,
        10,
        11,
        12,
        9,
        10,
        11,
        12,
        9,
        10,
        11,
        12,
        9,
        10,
        11,
        12,
        9,
        10,
        11,
        12,
        9,
        10,
        11,
        12,
        9,
        42,
        395,
        268,
        265,
        266,
        267,
        300,
        137,
        10,
        11,
        12,
        9,
        10,
        11,
        12,
        9,
        10,
        11,
        12,
        9,
        10,
        11,
        12,
        9,
        10,
        11,
        12,
        9,
        10,
        11,
        12,
        9,
        10,
        11,
        12,
        9,
        10,
        11,
        12,
        9,
        10,
        11,
        12,
        9,
        10,
        11,
        12,
        41,
        394,
        267,
        268,
        265,
        266,
        299,
        140,
        9,
        10,
        11,
        12,
        9,
        10,
        11,
        12,
        9,
        10,
        11,
        44,
        921,
        778,
        779,
        780,
        777,
        778,
        779,
        780,
        777,
        778,
        779,
        780,
        777,
        778,
        779,
        780,
        777,
        778,
        779,
        780,
        777,
        778,
        779,
        780,
        777,
        778,
        827,
        140,
        41,
        394,
        267,
        268,
        265,
        266,
        299,
        140,
        9,
        10,
        11,
        12,
        9,
        10,
        11,
        12,
        41,
        906,
        779,
        812,
        909,
        782,
        815,
        144,
        13,
        14,
        15,
        16,
        13,
        14,
        15,
        16,
        13,
        46,
        399,
        272,
        269,
        270,
        271,
        304,
        141,
        14,
        15,
        16,
        13,
        14,
        15,
        16,
        13,
        14,
        15,
        16,
        13,
        14,
        15,
        16,
        13,
        14,
        15,
        16,
        13,
        14,
        15,
        16,
        13,
        14,
        15,
        16,
        13,
        14,
        15,
        16,
        13,
        14,
        15,
        16,
        13,
        14,
        15,
        16,
        45,
        398,
        271,
        272,
        269,
        270,
        303,
        144,
        13,
        14,
        15,
        16,
        13,
        14,
        15,
        16,
        13,
        14,
        15,
        48,
        909,
        782,
        783,
        784,
        781,
        782,
        783,
        784,
        781,
        782,
        783,
        784,
        781,
        782,
        783,
        784,
        781,
        782,
        783,
        784,
        781,
        782,
        783,
        784,
        781,
        782,
        815,
        144,
        45,
        398,
        271,
        272,
        269,
        270,
        303,
        144,
        13,
        14,
        15,
        16,
        13,
        14,
        15,
        16,
        13,
        14,
        15,
        16,
        13,
        14,
        15,
        16,
        13,
        14,
        15,
        16,
        13,
        14,
        15,
        16,
        13,
        46,
        399,
        272,
        269,
        270,
        271,
        304,
        141,
        14,
        15,
        16,
        13,
        14,
        15,
        16,
        13,
        14,
        15,
        16,
        13,
        14,
        15,
        16,
        13,
        14,
        15,
        16,
        13,
        14,
        15,
        16,
        13,
        14,
        15,
        16,
        13,
        14,
        15,
        16,
        13,
        14,
        15,
        16,
        13,
        14,
        15,
        16,
        45,
        398,
        271,
        272,
        269,
        270,
        303,
        144,
        13,
        14,
        15,
        16,
        13,
        14,
        15,
        16,
        13,
        14,
        15,
        48,
        909,
        782,
        783,
        784,
        781,
        782,
        783,
        784,
        781,
        782,
        783,
        784,
        781,
        782,
        783,
        784,
        781,
        782,
        783,
        784,
        781,
        782,
        783,
        784,
        781,
        782,
        815,
        144,
        45,
        398,
        271,
        272,
        269,
        270,
        303,
        144,
        13,
        14,
        15,
        16,
        13,
        14,
        15,
        16,
        45,
        910,
        783,
        816,
        897,
        770,
        803,
        132,
        1,
        2,
        3,
        4,
        1,
        2,
        3,
        4,
        1,
        34,
        387,
        260,
        257,
        258,
        259,
        292,
        129,
        2,
        3,
        4,
        1,
        2,
        3,
        4,
        1,
        2,
        3,
        4,
        1,
        2,
        3,
        4,
        1,
        2,
        3,
        4,
        1,
        2,
        3,
        4,
        1,
        2,
        3,
        4,
        1,
        2,
        3,
        4,
        1,
        2,
        3,
        4,
        1,
        2,
        3,
        4,
        33,
        386,
        259,
        260,
        257,
        258,
        291,
        132,
        1,
        2,
        3,
        4,
        1,
        2,
        3,
        4,
        1,
        2,
        3,
        36,
        897,
        770,
        771,
        772,
        769,
        770,
        771,
        772,
        769,
        770,
        771,
        772,
        769,
        770,
        771,
        772,
        769,
        770,
        771,
        772,
        769,
        770,
        771,
        772,
        769,
        770,
        803,
        132,
        33,
        386,
        259,
        260,
        257,
        258,
        291,
        132,
        1,
        2,
        3,
        4,
        1,
        2,
        3,
        4,
        1,
        2,
        3,
        4,
        1,
        2,
        3,
        4,
        1,
        2,
        3,
        4,
        1,
        2,
        3,
        4,
        1,
        34,
        387,
        260,
        257,
        258,
        259,
        292,
        129,
        2,
        3,
        4,
        1,
        2,
        3,
        4,
        1,
        2,
        3,
        4,
        1,
        2,
        3,
        4,
        1,
        2,
        3,
        4,
        1,
        2,
        3,
        4,
        1,
        2,
        3,
        4,
        1,
        2,
        3,
        4,
        1,
        2,
        3,
        4,
        1,
        2,
        3,
        4,
        33,
        386,
        259,
        260,
        257,
        258,
        291,
        132,
        1,
        2,
        3,
        4,
        1,
        2,
        3,
        4,
        1,
        2,
        3,
        36,
        897,
        770,
        771,
        772,
        769,
        770,
        771,
        772,
        769,
        770,
        771,
        772,
        769,
        770,
        771,
        772,
        769,
        770,
        771,
        772,
        769,
        770,
        771,
        772,
        769,
        770,
        803,
        132,
        33,
        386,
        259,
        260,
        257,
        258,
        291,
        132,
        1,
        2,
        3,
        4,
        1,
        2,
        3,
        4,
        33,
        898,
        771,
        804,
        901,
        774,
        807,
        136,
        5,
        6,
        7,
        8,
        5,
        6,
        7,
        8,
        5,
        38,
        391,
        264,
        261,
        262,
        263,
        296,
        133,
        6,
        7,
        8,
        5,
        6,
        7,
        8,
        5,
        6,
        7,
        8,
        5,
        6,
        7,
        8,
        5,
        6,
        7,
        8,
        5,
        6,
        7,
        8,
        5,
        6,
        7,
        8,
        5,
        6,
        7,
        8,
        5,
        6,
        7,
        8,
        5,
        6,
        7,
        8,
        37,
        390,
        263,
        264,
        261,
        262,
        295,
        136,
        5,
        6,
        7,
        8,
        5,
        6,
        7,
        8,
        5,
        6,
        7,
        40,
        901,
        774,
        775,
        776,
        773,
        774,
        775,
        776,
        773,
        774,
        775,
        776,
        773,
        774,
        775,
        776,
        773,
        774,
        775,
        776,
        773,
        774,
        775,
        776,
        773,
        774,
        807,
        136,
        37,
        390,
        263,
        264,
        261,
        262,
        295,
        136,
        5,
        6,
        7,
        8,
        5,
        6,
        7,
        8,
        5,
        6,
        7,
        8,
        5,
        6,
        7,
        8,
        5,
        6,
        7,
        8,
        5,
        6,
        7,
        8,
        5,
        38,
        391,
        264,
        261,
        262,
        263,
        296,
        133,
        6,
        7,
        8,
        5,
        6,
        7,
        8,
        5,
        6,
        7,
        8,
        5,
        6,
        7,
        8,
        5,
        6,
        7,
        8,
        5,
        6,
        7,
        8,
        5,
        6,
        7,
        8,
        5,
        6,
        7,
        8,
        5,
        6,
        7,
        8,
        5,
        6,
        7,
        8,
        37,
        390,
        263,
        264,
        261,
        262,
        295,
        136,
        5,
        6,
        7,
        8,
        5,
        6,
        7,
        8,
        5,
        6,
        7,
        40,
        901,
        774,
        775,
        776,
        773,
        774,
        775,
        776,
        773,
        774,
        775,
        776,
        773,
        774,
        775,
        776,
        773,
        774,
        775,
        776,
        773,
        774,
        775,
        776,
        773,
        774,
        807,
        136,
        37,
        390,
        263,
        264,
        261,
        262,
        295,
        136,
        5,
        6,
        7,
        8,
        5,
        6,
        7,
        8,
        37,
        902,
        775,
        808,
        905,
        778,
        811,
        140,
        9,
        10,
        11,
        12,
        9,
        10,
        11,
        12,
        9,
        42,
        395,
        268,
        265,
        266,
        267,
        300,
        137,
        10,
        11,
        12,
        9,
        10,
        11,
        12,
        9,
        10,
        11,
        12,
        9,
        10,
        11,
        12,
        9,
        10,
        11,
        12,
        9,
        10,
        11,
        12,
        9,
        10,
        11,
        12,
        9,
        10,
        11,
        12,
        9,
        10,
        11,
        12,
        9,
        10,
        11,
        12,
        41,
        394,
        267,
        268,
        265,
        266,
        299,
        140,
        9,
        10,
        11,
        12,
        9,
        10,
        11,
        12,
        9,
        10,
        11,
        44,
        905,
        778,
        779,
        780,
        777,
        778,
        779,
        780,
        777,
        778,
        779,
        780,
        777,
        778,
        779,
        780,
        777,
        778,
        779,
        780,
        777,
        778,
        779,
        780,
        777,
        778,
        811,
        140,
        41,
        394,
        267,
        268,
        265,
        266,
        299,
        140,
        9,
        10,
        11,
        12,
        9,
        10,
        11,
        12,
        9,
        10,
        11,
        12,
        9,
        10,
        11,
        12,
        9,
        10,
        11,
        12,
        9,
        10,
        11,
        12,
        9,
        42,
        395,
        268,
        265,
        266,
        267,
        300,
        137,
        10,
        11,
        12,
        9,
        10,
        11,
        12,
        9,
        10,
        11,
        12,
        9,
        10,
        11,
        12,
        9,
        10,
        11,
        12,
        9,
        10,
        11,
        12,
        9,
        10,
        11,
        12,
        9,
        10,
        11,
        12,
        9,
        10,
        11,
        12,
        9,
        10,
        11,
        12,
        41,
        394,
        267,
        268,
        265,
        266,
        299,
        140,
        9,
        10,
        11,
        12,
        9,
        10,
        11,
        12,
        9,
        10,
        11,
        44,
        905,
        778,
        779,
        780,
        777,
        778,
        779,
        780,
        777,
        778,
        779,
        780,
        777,
        778,
        779,
        780,
        777,
        778,
        779,
        780,
        777,
        778,
        779,
        780,
        777,
        778,
        811,
        140,
        41,
        394,
        267,
        268,
        265,
        266,
        299,
        140,
        9,
        10,
        11,
        12,
        9,
        10,
        11,
        12,
        41,
        906,
        779,
        812,
        909,
        782,
        815,
        144,
        13,
        14,
        15,
        16,
        13,
        14,
        15,
        16,
        13,
        46,
        399,
        272,
        269,
        270,
        271,
        304,
        141,
        14,
        15,
        16,
        13,
        14,
        15,
        16,
        13,
        14,
        15,
        16,
        13,
        14,
        15,
        16,
        13,
        14,
        15,
        16,
        13,
        14,
        15,
        16,
        13,
        14,
        15,
        16,
        13,
        14,
        15,
        16,
        13,
        14,
        15,
        16,
        13,
        14,
        15,
        16,
        45,
        398,
        271,
        272,
        269,
        270,
        303,
        144,
        13,
        14,
        15,
        16,
        13,
        14,
        15,
        16,
        13,
        14,
        15,
        48,
        909,
        782,
        783,
        784,
        781,
        782,
        783,
        784,
        781,
        782,
        783,
        784,
        781,
        782,
        783,
        784,
        781,
        782,
        783,
        784,
        781,
        782,
        783,
        784,
        781,
        782,
        815,
        144,
        45,
        398,
        271,
        272,
        269,
        270,
        303,
        144,
        13,
        14,
        15,
        16,
        13,
        14,
        15,
        16,
        13,
        14,
        15,
        16,
        13,
        14,
        15,
        16,
        13,
        14,
        15,
        16,
        13,
        14,
        15,
        16,
        13,
        46,
        399,
        272,
        269,
        270,
        271,
        304,
        141,
        14,
        15,
        16,
        13,
        14,
        15,
        16,
        13,
        14,
        15,
        16,
        13,
        14,
        15,
        16,
        13,
        14,
        15,
        16,
        13,
        14,
        15,
        16,
        13,
        14,
        15,
        16,
        13,
        14,
        15,
        16,
        13,
        14,
        15,
        16,
        13,
        14,
        15,
        16,
        45,
        398,
        271,
        272,
        269,
        270,
        303,
        144,
        13,
        14,
        15,
        16,
        13,
        14,
        15,
        16,
        13,
        14,
        15,
        48,
        909,
        782,
        783,
        784,
        781,
        782,
        783,
        784,
        781,
        782,
        783,
        784,
        781,
        782,
        783,
        784,
        781,
        782,
        783,
        784,
        781,
        782,
        783,
        784,
        781,
        782,
        815,
        144,
        45,
        398,
        271,
        272,
        269,
        270,
        303,
        144,
        13,
        14,
        15,
        16,
        13,
        14,
        15,
        16,
        45,
        910,
        783,
        816,
        897,
        770,
        803,
        132,
        1,
        2,
        3,
        4,
        1,
        2,
        3,
        4,
        1,
        34,
        387,
        260,
        257,
        258,
        259,
        292,
        129,
        2,
        3,
        4,
        1,
        2,
        3,
        4,
        1,
        2,
        3,
        4,
        1,
        2,
        3,
        4,
        1,
        2,
        3,
        4,
        1,
        2,
        3,
        4,
        1,
        2,
        3,
        4,
        1,
        2,
        3,
        4,
        1,
        2,
        3,
        4,
        1,
        2,
        3,
        4,
        33,
        386,
        259,
        260,
        257,
        258,
        291,
        132,
        1,
        2,
        3,
        4,
        1,
        2,
        3,
        4,
        1,
        2,
        3,
        36,
        897,
        770,
        771,
        772,
        769,
        770,
        771,
        772,
        769,
        770,
        771,
        772,
        769,
        770,
        771,
        772,
        769,
        770,
        771,
        772,
        769,
        770,
        771,
        772,
        769,
        770,
        803,
        132,
        33,
        386,
        259,
        260,
        257,
        258,
        291,
        132,
        1,
        2,
        3,
        4,
        1,
        2,
        3,
        4,
        1,
        2,
        3,
        4,
        1,
        2,
        3,
        4,
        1,
        2,
        3,
        4,
        1,
        2,
        3,
        4,
        1,
        34,
        387,
        260,
        257,
        258,
        259,
        292,
        129,
        2,
        3,
        4,
        1,
        2,
        3,
        4,
        1,
        2,
        3,
        4,
        1,
        2,
        3,
        4,
        1,
        2,
        3,
        4,
        1,
        2,
        3,
        4,
        1,
        2,
        3,
        4,
        1,
        2,
        3,
        4,
        1,
        2,
        3,
        4,
        1,
        2,
        3,
        4,
        33,
        386,
        259,
        260,
        257,
        258,
        291,
        132,
        1,
        2,
        3,
        4,
        1,
        2,
        3,
        4,
        1,
        2,
        3,
        36,
        897,
        770,
        771,
        772,
        769,
        770,
        771,
        772,
        769,
        770,
        771,
        772,
        769,
        770,
        771,
        772,
        769,
        770,
        771,
        772,
        769,
        770,
        771,
        772,
        769,
        770,
        803,
        132,
        33,
        386,
        259,
        260,
        257,
        258,
        291,
        132,
        1,
        2,
        3,
        4,
        1,
        2,
        3,
        4,
        33,
        898,
        771,
        804,
        901,
        774,
        807,
        136,
        5,
        6,
        7,
        8,
        5,
        6,
        7,
        8,
        5,
        38,
        391,
        264,
        261,
        262,
        263,
        296,
        133,
        6,
        7,
        8,
        5,
        6,
        7,
        8,
        5,
        6,
        7,
        8,
        5,
        6,
        7,
        8,
        5,
        6,
        7,
        8,
        5,
        6,
        7,
        8,
        5,
        6,
        7,
        8,
        5,
        6,
        7,
        8,
        5,
        6,
        7,
        8,
        5,
        6,
        7,
        8,
        37,
        390,
        263,
        264,
        261,
        262,
        295,
        136,
        5,
        6,
        7,
        8,
        5,
        6,
        7,
        8,
        5,
        6,
        7,
        40,
        901,
        774,
        775,
        776,
        773,
        774,
        775,
        776,
        773,
        774,
        775,
        776,
        773,
        774,
        775,
        776,
        773,
        774,
        775,
        776,
        773,
        774,
        775,
        776,
        773,
        774,
        807,
        136,
        37,
        390,
        263,
        264,
        261,
        262,
        295,
        136,
        5,
        6,
        7,
        8,
        5,
        6,
        7,
        8,
        5,
        6,
        7,
        8,
        5,
        6,
        7,
        8,
        5,
        6,
        7,
        8,
        5,
        6,
        7,
        8,
        5,
        38,
        391,
        264,
        261,
        262,
        263,
        296,
        133,
        6,
        7,
        8,
        5,
        6,
        7,
        8,
        5,
        6,
        7,
        8,
        5,
        6,
        7,
        8,
        5,
        6,
        7,
        8,
        5,
        6,
        7,
        8,
        5,
        6,
        7,
        8,
        5,
        6,
        7,
        8,
        5,
        6,
        7,
        8,
        5,
        6,
        7,
        8,
        37,
        390,
        263,
        264,
        261,
        262,
        295,
        136,
        5,
        6,
        7,
        8,
        5,
        6,
        7,
        8,
        5,
        6,
        7,
        40,
        901,
        774,
        775,
        776,
        773,
        774,
        775,
        776,
        773,
        774,
        775,
        776,
        773,
        774,
        775,
        776,
        773,
        774,
        775,
        776,
        773,
        774,
        775,
        776,
        773,
        774,
        807,
        136,
        37,
        390,
        263,
        264,
        261,
        262,
        295,
        136,
        5,
        6,
        7,
        8,
        5,
        6,
        7,
        8,
        37,
        902,
        775,
        808,
        905,
        778,
        811,
        140,
        9,
        10,
        11,
        12,
        9,
        10,
        11,
        12,
        9,
        42,
        395,
        268,
        265,
        266,
        267,
        300,
        137,
        10,
        11,
        12,
        9,
        10,
        11,
        12,
        9,
        10,
        11,
        12,
        9,
        10,
        11,
        12,
        9,
        10,
        11,
        12,
        9,
        10,
        11,
        12,
        9,
        10,
        11,
        12,
        9,
        10,
        11,
        12,
        9,
        10,
        11,
        12,
        9,
        10,
        11,
        12,
        41,
        394,
        267,
        268,
        265,
        266,
        299,
        140,
        9,
        10,
        11,
        12,
        9,
        10,
        11,
        12,
        9,
        10,
        11,
        44,
        905,
        778,
        779,
        780,
        777,
        778,
        779,
        780,
        777,
        778,
        779,
        780,
        777,
        778,
        779,
        780,
        777,
        778,
        779,
        780,
        777,
        778,
        779,
        780,
        777,
        778,
        811,
        140,
        41,
        394,
        267,
        268,
        265,
        266,
        299,
        140,
        9,
        10,
        11,
        12,
        9,
        10,
        11,
        12,
        9,
        10,
        11,
        12,
        9,
        10,
        11,
        12,
        9,
        10,
        11,
        12,
        9,
        10,
        11,
        12,
        9,
        42,
        395,
        268,
        265,
        266,
        267,
        300,
        137,
        10,
        11,
        12,
        9,
        10,
        11,
        12,
        9,
        10,
        11,
        12,
        9,
        10,
        11,
        12,
        9,
        10,
        11,
        12,
        9,
        10,
        11,
        12,
        9,
        10,
        11,
        12,
        9,
        10,
        11,
        12,
        9,
        10,
        11,
        12,
        9,
        10,
        11,
        12,
        41,
        394,
        267,
        268,
        265,
        266,
        299,
        140,
        9,
        10,
        11,
        12,
        9,
        10,
        11,
        12,
        9,
        10,
        11,
        44,
        905,
        778,
        779,
        780,
        777,
        778,
        779,
        780,
        777,
        778,
        779,
        780,
        777,
        778,
        779,
        780,
        777,
        778,
        779,
        780,
        777,
        778,
        779,
        780,
        777,
        778,
        811,
        140,
        41,
        394,
        267,
        268,
        265,
        266,
        299,
        140,
        9,
        10,
        11,
        12,
        9,
        10,
        11,
        12,
        41,
        906,
        779,
        812,
        909,
        782,
        815,
        144,
        13,
        14,
        15,
        16,
        13,
        14,
        15,
        16,
        13,
        46,
        399,
        272,
        269,
        270,
        271,
        304,
        141,
        14,
        15,
        16,
        13,
        14,
        15,
        16,
        13,
        14,
        15,
        16,
        13,
        14,
        15,
        16,
        13,
        14,
        15,
        16,
        13,
        14,
        15,
        16,
        13,
        14,
        15,
        16,
        13,
        14,
        15,
        16,
        13,
        14,
        15,
        16,
        13,
        14,
        15,
        16,
        45,
        398,
        271,
        272,
        269,
        270,
        303,
        144,
        13,
        14,
        15,
        16,
        13,
        14,
        15,
        16,
        13,
        14,
        15,
        48,
        909,
        782,
        783,
        784,
        781,
        782,
        783,
        784,
        781,
        782,
        783,
        784,
        781,
        782,
        783,
        784,
        781,
        782,
        783,
        784,
        781,
        782,
        783,
        784,
        781,
        782,
        815,
        144,
        45,
        398,
        271,
        272,
        269,
        270,
        303,
        144,
        13,
        14,
        15,
        16,
        13,
        14,
        15,
        16,
        13,
        14,
        15,
        16,
        13,
        14,
        15,
        16,
        13,
        14,
        15,
        16,
        13,
        14,
        15,
        16,
        13,
        46,
        399,
        272,
        269,
        270,
        271,
        304,
        141,
        14,
        15,
        16,
        13,
        14,
        15,
        16,
        13,
        14,
        15,
        16,
        13,
        14,
        15,
        16,
        13,
        14,
        15,
        16,
        13,
        14,
        15,
        16,
        13,
        14,
        15,
        16,
        13,
        14,
        15,
        16,
        13,
        14,
        15,
        16,
        13,
        14,
        15,
        16,
        45,
        398,
        271,
        272,
        269,
        270,
        303,
        144,
        13,
        14,
        15,
        16,
        13,
        14,
        15,
        16,
        13,
        14,
        15,
        48,
        909,
        782,
        783,
        784,
        781,
        782,
        783,
        784,
        781,
        782,
        783,
        784,
        781,
        782,
        783,
        784,
        781,
        782,
        783,
        784,
        781,
        782,
        783,
        784,
        781,
        782,
        815,
        144,
        45,
        398,
        271,
        272,
        269,
        270,
        303,
        144,
        13,
        14,
        15,
        16,
        13,
        14,
        15,
        16,
        45,
        910,
        783,
        816,
        897,
        770,
        803,
        132,
        1,
        2,
        3,
        4,
        1,
        2,
        3,
        4,
        1,
        34,
        387,
        260,
        257,
        258,
        259,
        292,
        129,
        2,
        3,
        4,
        1,
        2,
        3,
        4,
        1,
        2,
        3,
        4,
        1,
        2,
        3,
        4,
        1,
        2,
        3,
        4,
        1,
        2,
        3,
        4,
        1,
        2,
        3,
        4,
        1,
        2,
        3,
        4,
        1,
        2,
        3,
        4,
        1,
        2,
        3,
        4,
        33,
        386,
        259,
        260,
        257,
        258,
        291,
        132,
        1,
        2,
        3,
        4,
        1,
        2,
        3,
        4,
        1,
        2,
        3,
        36,
        897,
        770,
        771,
        772,
        769,
        770,
        771,
        772,
        769,
        770,
        771,
        772,
        769,
        770,
        771,
        772,
        769,
        770,
        771,
        772,
        769,
        770,
        771,
        772,
        769,
        770,
        803,
        132,
        33,
        386,
        259,
        260,
        257,
        258,
        291,
        132,
        1,
        2,
        3,
        4,
        1,
        2,
        3,
        4,
        1,
        2,
        3,
        4,
        1,
        2,
        3,
        4,
        1,
        2,
        3,
        4,
        1,
        2,
        3,
        4,
        1,
        34,
        387,
        260,
        257,
        258,
        259,
        292,
        129,
        2,
        3,
        4,
        1,
        2,
        3,
        4,
        1,
        2,
        3,
        4,
        1,
        2,
        3,
        4,
        1,
        2,
        3,
        4,
        1,
        2,
        3,
        4,
        1,
        2,
        3,
        4,
        1,
        2,
        3,
        4,
        1,
        2,
        3,
        4,
        1,
        2,
        3,
        4,
        33,
        386,
        259,
        260,
        257,
        258,
        291,
        132,
        1,
        2,
        3,
        4,
        1,
        2,
        3,
        4,
        1,
        2,
        3,
        36,
        897,
        770,
        771,
        772,
        769,
        770,
        771,
        772,
        769,
        770,
        771,
        772,
        769,
        770,
        771,
        772,
        769,
        770,
        771,
        772,
        769,
        770,
        771,
        772,
        769,
        770,
        803,
        132,
        33,
        386,
        259,
        260,
        257,
        258,
        291,
        132,
        1,
        2,
        3,
        4,
        1,
        2,
        3,
        4,
        33,
        898,
        771,
        804,
        901,
        774,
        807,
        136,
        5,
        6,
        7,
        8,
        5,
        6,
        7,
        8,
        5,
        38,
        391,
        264,
        261,
        262,
        263,
        296,
        133,
        6,
        7,
        8,
        5,
        6,
        7,
        8,
        5,
        6,
        7,
        8,
        5,
        6,
        7,
        8,
        5,
        6,
        7,
        8,
        5,
        6,
        7,
        8,
        5,
        6,
        7,
        8,
        5,
        6,
        7,
        8,
        5,
        6,
        7,
        8,
        5,
        6,
        7,
        8,
        37,
        390,
        263,
        264,
        261,
        262,
        295,
        136,
        5,
        6,
        7,
        8,
        5,
        6,
        7,
        8,
        5,
        6,
        7,
        40,
        901,
        774,
        775,
        776,
        773,
        774,
        775,
        776,
        773,
        774,
        775,
        776,
        773,
        774,
        775,
        776,
        773,
        774,
        775,
        776,
        773,
        774,
        775,
        776,
        773,
        774,
        807,
        136,
        37,
        390,
        263,
        264,
        261,
        262,
        295,
        136,
        5,
        6,
        7,
        8,
        5,
        6,
        7,
        8,
        5,
        6,
        7,
        8,
        5,
        6,
        7,
        8,
        5,
        6,
        7,
        8,
        5,
        6,
        7,
        8,
        5,
        38,
        391,
        264,
        261,
        262,
        263,
        296,
        133,
        6,
        7,
        8,
        5,
        6,
        7,
        8,
        5,
        6,
        7,
        8,
        5,
        6,
        7,
        8,
        5,
        6,
        7,
        8,
        5,
        6,
        7,
        8,
        5,
        6,
        7,
        8,
        5,
        6,
        7,
        8,
        5,
        6,
        7,
        8,
        5,
        6,
        7,
        8,
        37,
        390,
        263,
        264,
        261,
        262,
        295,
        136,
        5,
        6,
        7,
        8,
        5,
        6,
        7,
        8,
        5,
        6,
        7,
        40,
        901,
        774,
        775,
        776,
        773,
        774,
        775,
        776,
        773,
        774,
        775,
        776,
        773,
        774,
        775,
        776,
        773,
        774,
        775,
        776,
        773,
        774,
        775,
        776,
        773,
        774,
        807,
        136,
        37,
        390,
        263,
        264,
        261,
        262,
        295,
        136,
        5,
        6,
        7,
        8,
        5,
        6,
        7,
        8,
        37,
        902,
        775,
        808,
        905,
        778,
        811,
        140,
        9,
        10,
        11,
        12,
        9,
        10,
        11,
        12,
        9,
        42,
        395,
        268,
        265,
        266,
        267,
        300,
        137,
        10,
        11,
        12,
        9,
        10,
        11,
        12,
        9,
        10,
        11,
        12,
        9,
        10,
        11,
        12,
        9,
        10,
        11,
        12,
        9,
        10,
        11,
        12,
        9,
        10,
        11,
        12,
        9,
        10,
        11,
        12,
        9,
        10,
        11,
        12,
        9,
        10,
        11,
        12,
        41,
        394,
        267,
        268,
        265,
        266,
        299,
        140,
        9,
        10,
        11,
        12,
        9,
        10,
        11,
        12,
        9,
        10,
        11,
        44,
        905,
        778,
        779,
        780,
        777,
        778,
        779,
        780,
        777,
        778,
        779,
        780,
        777,
        778,
        779,
        780,
        777,
        778,
        779,
        780,
        777,
        778,
        779,
        780,
        777,
        778,
        811,
        140,
        41,
        394,
        267,
        268,
        265,
        266,
        299,
        140,
        9,
        10,
        11,
        12,
        9,
        10,
        11,
        12,
        9,
        10,
        11,
        12,
        9,
        10,
        11,
        12,
        9,
        10,
        11,
        12,
        9,
        10,
        11,
        12,
        9,
        42,
        395,
        268,
        265,
        266,
        267,
        300,
        137,
        10,
        11,
        12,
        9,
        10,
        11,
        12,
        9,
        10,
        11,
        12,
        9,
        10,
        11,
        12,
        9,
        10,
        11,
        12,
        9,
        10,
        11,
        12,
        9,
        10,
        11,
        12,
        9,
        10,
        11,
        12,
        9,
        10,
        11,
        12,
        9,
        10,
        11,
        12,
        41,
        394,
        267,
        268,
        265,
        266,
        299,
        140,
        9,
        10,
        11,
        12,
        9,
        10,
        11,
        12,
        9,
        10,
        11,
        44,
        905,
        778,
        779,
        780,
        777,
        778,
        779,
        780,
        777,
        778,
        779,
        780,
        777,
        778,
        779,
        780,
        777,
        778,
        779,
        780,
        777,
        778,
        779,
        780,
        777,
        778,
        811,
        140,
        41,
        394,
        267,
        268,
        265,
        266,
        299,
        140,
        9,
        10,
        11,
        12,
        9,
        10,
        11,
        12,
        41,
        906,
        779,
        812,
        909,
        782,
        815,
        144,
        13,
        14,
        15,
        16,
        13,
        14,
        15,
        16,
        13,
        46,
        399,
        272,
        269,
        270,
        271,
        304,
        141,
        14,
        15,
        16,
        13,
        14,
        15,
        16,
        13,
        14,
        15,
        16,
        13,
        14,
        15,
        16,
        13,
        14,
        15,
        16,
        13,
        14,
        15,
        16,
        13,
        14,
        15,
        16,
        13,
        14,
        15,
        16,
        13,
        14,
        15,
        16,
        13,
        14,
        15,
        16,
        45,
        398,
        271,
        272,
        269,
        270,
        303,
        144,
        13,
        14,
        15,
        16,
        13,
        14,
        15,
        16,
        13,
        14,
        15,
        48,
        909,
        782,
        783,
        784,
        781,
        782,
        783,
        784,
        781,
        782,
        783,
        784,
        781,
        782,
        783,
        784,
        781,
        782,
        783,
        784,
        781,
        782,
        783,
        784,
        781,
        782,
        815,
        144,
        45,
        398,
        271,
        272,
        269,
        270,
        303,
        144,
        13,
        14,
        15,
        16,
        13,
        14,
        15,
        16,
        13,
        14,
        15,
        16,
        13,
        14,
        15,
        16,
        13,
        14,
        15,
        16,
        13,
        14,
        15,
        16,
        13,
        46,
        399,
        272,
        269,
        270,
        271,
        304,
        141,
        14,
        15,
        16,
        13,
        14,
        15,
        16,
        13,
        14,
        15,
        16,
        13,
        14,
        15,
        16,
        13,
        14,
        15,
        16,
        13,
        14,
        15,
        16,
        13,
        14,
        15,
        16,
        13,
        14,
        15,
        16,
        13,
        14,
        15,
        16,
        13,
        14,
        15,
        16,
        45,
        398,
        271,
        272,
        269,
        270,
        303,
        144,
        13,
        14,
        15,
        16,
        13,
        14,
        15,
        16,
        13,
        14,
        15,
        48,
        909,
        782,
        783,
        784,
        781,
        782,
        783,
        784,
        781,
        782,
        783,
        784,
        781,
        782,
        783,
        784,
        781,
        782,
        783,
        784,
        781,
        782,
        783,
        784,
        781,
        782,
        815,
        144,
        45,
        398,
        271,
        272,
        269,
        270,
        303,
        144,
        13,
        14,
        15,
        16,
        13,
        14,
        15,
        16,
        45,
        910,
        783,
        816,
        897,
        770,
        803,
        132,
        1,
        2,
        3,
        4,
        1,
        2,
        3,
        4,
        1,
        34,
        387,
        260,
        257,
        258,
        259,
        292,
        129,
        2,
        3,
        4,
        1,
        2,
        3,
        4,
        1,
        2,
        3,
        4,
        1,
        2,
        3,
        4,
        1,
        2,
        3,
        4,
        1,
        2,
        3,
        4,
        1,
        2,
        3,
        4,
        1,
        2,
        3,
        4,
        1,
        2,
        3,
        4,
        1,
        2,
        3,
        4,
        33,
        386,
        259,
        260,
        257,
        258,
        291,
        132,
        1,
        2,
        3,
        4,
        1,
        2,
        3,
        4,
        1,
        2,
        3,
        36,
        961,
        770,
        771,
        772,
        769,
        770,
        771,
        772,
        769,
        770,
        771,
        772,
        769,
        770,
        771,
        772,
        769,
        770,
        771,
        772,
        769,
        770,
        771,
        772,
        769,
        770,
        867,
        132,
        33,
        386,
        259,
        260,
        257,
        258,
        291,
        132,
        1,
        2,
        3,
        4,
        1,
        2,
        3,
        4,
        1,
        2,
        3,
        4,
        1,
        2,
        3,
        4,
        1,
        2,
        3,
        4,
        1,
        2,
        3,
        4,
        1,
        34,
        387,
        260,
        257,
        258,
        259,
        292,
        129,
        2,
        3,
        4,
        1,
        2,
        3,
        4,
        1,
        2,
        3,
        4,
        1,
        2,
        3,
        4,
        1,
        2,
        3,
        4,
        1,
        2,
        3,
        4,
        1,
        2,
        3,
        4,
        1,
        2,
        3,
        4,
        1,
        2,
        3,
        4,
        1,
        2,
        3,
        4,
        33,
        386,
        259,
        260,
        257,
        258,
        291,
        132,
        1,
        2,
        3,
        4,
        1,
        2,
        3,
        4,
        1,
        2,
        3,
        36,
        961,
        770,
        771,
        772,
        769,
        770,
        771,
        772,
        769,
        770,
        771,
        772,
        769,
        770,
        771,
        772,
        769,
        770,
        771,
        772,
        769,
        770,
        771,
        772,
        769,
        770,
        867,
        132,
        33,
        386,
        259,
        260,
        257,
        258,
        291,
        132,
        1,
        2,
        3,
        4,
        1,
        2,
        3,
        4,
        33,
        898,
        771,
        804,
        901,
        774,
        807,
        136,
        5,
        6,
        7,
        8,
        5,
        6,
        7,
        8,
        5,
        38,
        391,
        264,
        261,
        262,
        263,
        296,
        133,
        6,
        7,
        8,
        5,
        6,
        7,
        8,
        5,
        6,
        7,
        8,
        5,
        6,
        7,
        8,
        5,
        6,
        7,
        8,
        5,
        6,
        7,
        8,
        5,
        6,
        7,
        8,
        5,
        6,
        7,
        8,
        5,
        6,
        7,
        8,
        5,
        6,
        7,
        8,
        37,
        390,
        263,
        264,
        261,
        262,
        295,
        136,
        5,
        6,
        7,
        8,
        5,
        6,
        7,
        8,
        5,
        6,
        7,
        8,
        53,
        902,
        775,
        776,
        773,
        774,
        775,
        776,
        773,
        774,
        775,
        776,
        773,
        774,
        775,
        776,
        773,
        774,
        775,
        776,
        773,
        774,
        775,
        776,
        773,
        806,
        151,
        8,
        37,
        390,
        263,
        264,
        261,
        262,
        295,
        136,
        5,
        6,
        7,
        8,
        5,
        6,
        7,
        8,
        5,
        6,
        7,
        8,
        5,
        6,
        7,
        8,
        5,
        6,
        7,
        8,
        5,
        6,
        7,
        8,
        5,
        38,
        391,
        264,
        261,
        262,
        263,
        296,
        133,
        6,
        7,
        8,
        5,
        6,
        7,
        8,
        5,
        6,
        7,
        8,
        5,
        6,
        7,
        8,
        5,
        6,
        7,
        8,
        5,
        6,
        7,
        8,
        5,
        6,
        7,
        8,
        5,
        6,
        7,
        8,
        5,
        6,
        7,
        8,
        5,
        6,
        7,
        8,
        37,
        390,
        263,
        264,
        261,
        262,
        295,
        136,
        5,
        6,
        7,
        8,
        5,
        6,
        7,
        8,
        5,
        6,
        7,
        8,
        53,
        902,
        775,
        776,
        773,
        774,
        775,
        776,
        773,
        774,
        775,
        776,
        773,
        774,
        775,
        776,
        773,
        774,
        775,
        776,
        773,
        774,
        775,
        776,
        773,
        806,
        151,
        8,
        37,
        390,
        263,
        264,
        261,
        262,
        295,
        136,
        5,
        6,
        7,
        8,
        5,
        6,
        7,
        8,
        37,
        902,
        775,
        808,
        905,
        778,
        811,
        140,
        9,
        10,
        11,
        12,
        9,
        10,
        11,
        12,
        9,
        42,
        395,
        268,
        265,
        266,
        267,
        300,
        137,
        10,
        11,
        12,
        9,
        10,
        11,
        12,
        9,
        10,
        11,
        12,
        9,
        10,
        11,
        12,
        9,
        10,
        11,
        12,
        9,
        10,
        11,
        12,
        9,
        10,
        11,
        12,
        9,
        10,
        11,
        12,
        9,
        10,
        11,
        12,
        9,
        10,
        11,
        12,
        41,
        394,
        267,
        268,
        265,
        266,
        299,
        140,
        9,
        10,
        11,
        12,
        9,
        10,
        11,
        12,
        9,
        10,
        11,
        12,
        41,
        970,
        779,
        780,
        777,
        778,
        779,
        780,
        777,
        778,
        779,
        780,
        777,
        778,
        779,
        780,
        777,
        778,
        779,
        780,
        777,
        778,
        779,
        780,
        777,
        874,
        139,
        12,
        41,
        394,
        267,
        268,
        265,
        266,
        299,
        140,
        9,
        10,
        11,
        12,
        9,
        10,
        11,
        12,
        9,
        10,
        11,
        12,
        9,
        10,
        11,
        12,
        9,
        10,
        11,
        12,
        9,
        10,
        11,
        12,
        9,
        42,
        395,
        268,
        265,
        266,
        267,
        300,
        137,
        10,
        11,
        12,
        9,
        10,
        11,
        12,
        9,
        10,
        11,
        12,
        9,
        10,
        11,
        12,
        9,
        10,
        11,
        12,
        9,
        10,
        11,
        12,
        9,
        10,
        11,
        12,
        9,
        10,
        11,
        12,
        9,
        10,
        11,
        12,
        9,
        10,
        11,
        12,
        41,
        394,
        267,
        268,
        265,
        266,
        299,
        140,
        9,
        10,
        11,
        12,
        9,
        10,
        11,
        12,
        9,
        10,
        11,
        12,
        41,
        970,
        779,
        780,
        777,
        778,
        779,
        780,
        777,
        778,
        779,
        780,
        777,
        778,
        779,
        780,
        777,
        778,
        779,
        780,
        777,
        778,
        779,
        780,
        777,
        874,
        139,
        12,
        41,
        394,
        267,
        268,
        265,
        266,
        299,
        140,
        9,
        10,
        11,
        12,
        9,
        10,
        11,
        12,
        41,
        906,
        779,
        812,
        909,
        782,
        815,
        144,
        13,
        14,
        15,
        16,
        13,
        14,
        15,
        16,
        13,
        46,
        399,
        272,
        269,
        270,
        271,
        304,
        141,
        14,
        15,
        16,
        13,
        14,
        15,
        16,
        13,
        14,
        15,
        16,
        13,
        14,
        15,
        16,
        13,
        14,
        15,
        16,
        13,
        14,
        15,
        16,
        13,
        14,
        15,
        16,
        13,
        14,
        15,
        16,
        13,
        14,
        15,
        16,
        13,
        14,
        15,
        16,
        45,
        398,
        271,
        272,
        269,
        270,
        303,
        144,
        13,
        14,
        15,
        16,
        13,
        14,
        15,
        16,
        13,
        14,
        15,
        16,
        13,
        62,
        975,
        784,
        781,
        782,
        783,
        784,
        781,
        782,
        783,
        784,
        781,
        782,
        783,
        784,
        781,
        782,
        783,
        784,
        781,
        782,
        783,
        784,
        877,
        158,
        15,
        16,
        45,
        398,
        271,
        272,
        269,
        270,
        303,
        144,
        13,
        14,
        15,
        16,
        13,
        14,
        15,
        16,
        13,
        14,
        15,
        16,
        13,
        14,
        15,
        16,
        13,
        14,
        15,
        16,
        13,
        14,
        15,
        16,
        13,
        46,
        399,
        272,
        269,
        270,
        271,
        304,
        141,
        14,
        15,
        16,
        13,
        14,
        15,
        16,
        13,
        14,
        15,
        16,
        13,
        14,
        15,
        16,
        13,
        14,
        15,
        16,
        13,
        14,
        15,
        16,
        13,
        14,
        15,
        16,
        13,
        14,
        15,
        16,
        13,
        14,
        15,
        16,
        13,
        14,
        15,
        16,
        45,
        398,
        271,
        272,
        269,
        270,
        303,
        144,
        13,
        14,
        15,
        16,
        13,
        14,
        15,
        16,
        13,
        14,
        15,
        16,
        13,
        62,
        975,
        784,
        781,
        782,
        783,
        784,
        781,
        782,
        783,
        784,
        781,
        782,
        783,
        784,
        781,
        782,
        783,
        784,
        781,
        782,
        783,
        784,
        877,
        158,
        15,
        16,
        45,
        398,
        271,
        272,
        269,
        270,
        303,
        144,
        13,
        14,
        15,
        16,
        13,
        14,
        15,
        16,
        45,
        910,
        783,
        816,
        897,
        770,
        803,
        132,
        1,
        2,
        3,
        4,
        1,
        2,
        3,
        4,
        1,
        34,
        387,
        260,
        257,
        258,
        259,
        292,
        129,
        2,
        3,
        4,
        1,
        2,
        3,
        4,
        1,
        2,
        3,
        4,
        1,
        2,
        3,
        4,
        1,
        2,
        3,
        4,
        1,
        2,
        3,
        4,
        1,
        2,
        3,
        4,
        1,
        2,
        3,
        4,
        1,
        2,
        3,
        4,
        1,
        2,
        3,
        4,
        33,
        386,
        259,
        260,
        257,
        258,
        291,
        132,
        1,
        2,
        3,
        4,
        1,
        2,
        3,
        4,
        1,
        2,
        3,
        4,
        1,
        2,
        51,
        964,
        769,
        770,
        771,
        772,
        769,
        770,
        771,
        772,
        769,
        770,
        771,
        772,
        769,
        770,
        771,
        772,
        769,
        770,
        771,
        868,
        145,
        2,
        3,
        4,
        33,
        386,
        259,
        260,
        257,
        258,
        291,
        132,
        1,
        2,
        3,
        4,
        1,
        2,
        3,
        4,
        1,
        2,
        3,
        4,
        1,
        2,
        3,
        4,
        1,
        2,
        3,
        4,
        1,
        2,
        3,
        4,
        1,
        34,
        387,
        260,
        257,
        258,
        259,
        292,
        129,
        2,
        3,
        4,
        1,
        2,
        3,
        4,
        1,
        2,
        3,
        4,
        1,
        2,
        3,
        4,
        1,
        2,
        3,
        4,
        1,
        2,
        3,
        4,
        1,
        2,
        3,
        4,
        1,
        2,
        3,
        4,
        1,
        2,
        3,
        4,
        1,
        2,
        3,
        4,
        33,
        386,
        259,
        260,
        257,
        258,
        291,
        132,
        1,
        2,
        3,
        4,
        1,
        2,
        3,
        4,
        1,
        2,
        3,
        4,
        1,
        2,
        51,
        964,
        769,
        770,
        771,
        772,
        769,
        770,
        771,
        772,
        769,
        770,
        771,
        772,
        769,
        770,
        771,
        772,
        769,
        770,
        771,
        868,
        145,
        2,
        3,
        4,
        33,
        386,
        259,
        260,
        257,
        258,
        291,
        132,
        1,
        2,
        3,
        4,
        1,
        2,
        3,
        4,
        33,
        898,
        771,
        804,
        901,
        774,
        807,
        136,
        5,
        6,
        7,
        8,
        5,
        6,
        7,
        8,
        5,
        38,
        391,
        264,
        261,
        262,
        263,
        296,
        133,
        6,
        7,
        8,
        5,
        6,
        7,
        8,
        5,
        6,
        7,
        8,
        5,
        6,
        7,
        8,
        5,
        6,
        7,
        8,
        5,
        6,
        7,
        8,
        5,
        6,
        7,
        8,
        5,
        6,
        7,
        8,
        5,
        6,
        7,
        8,
        5,
        6,
        7,
        8,
        37,
        390,
        263,
        264,
        261,
        262,
        295,
        136,
        5,
        6,
        7,
        8,
        5,
        6,
        7,
        8,
        5,
        6,
        7,
        8,
        5,
        6,
        7,
        56,
        965,
        838,
        775,
        776,
        773,
        774,
        775,
        776,
        773,
        774,
        775,
        776,
        773,
        774,
        775,
        776,
        773,
        838,
        871,
        152,
        5,
        6,
        7,
        8,
        37,
        390,
        263,
        264,
        261,
        262,
        295,
        136,
        5,
        6,
        7,
        8,
        5,
        6,
        7,
        8,
        5,
        6,
        7,
        8,
        5,
        6,
        7,
        8,
        5,
        6,
        7,
        8,
        5,
        6,
        7,
        8,
        5,
        38,
        391,
        264,
        261,
        262,
        263,
        296,
        133,
        6,
        7,
        8,
        5,
        6,
        7,
        8,
        5,
        6,
        7,
        8,
        5,
        6,
        7,
        8,
        5,
        6,
        7,
        8,
        5,
        6,
        7,
        8,
        5,
        6,
        7,
        8,
        5,
        6,
        7,
        8,
        5,
        6,
        7,
        8,
        5,
        6,
        7,
        8,
        37,
        390,
        263,
        264,
        261,
        262,
        295,
        136,
        5,
        6,
        7,
        8,
        5,
        6,
        7,
        8,
        5,
        6,
        7,
        8,
        5,
        6,
        7,
        56,
        965,
        838,
        775,
        776,
        773,
        774,
        775,
        776,
        773,
        774,
        775,
        776,
        773,
        774,
        775,
        776,
        773,
        838,
        871,
        152,
        5,
        6,
        7,
        8,
        37,
        390,
        263,
        264,
        261,
        262,
        295,
        136,
        5,
        6,
        7,
        8,
        5,
        6,
        7,
        8,
        37,
        902,
        775,
        808,
        905,
        778,
        811,
        140,
        9,
        10,
        11,
        12,
        9,
        10,
        11,
        12,
        9,
        42,
        395,
        268,
        265,
        266,
        267,
        300,
        137,
        10,
        11,
        12,
        9,
        10,
        11,
        12,
        9,
        10,
        11,
        12,
        9,
        10,
        11,
        12,
        9,
        10,
        11,
        12,
        9,
        10,
        11,
        12,
        9,
        10,
        11,
        12,
        73,
        74,
        75,
        76,
        73,
        74,
        75,
        76,
        73,
        74,
        75,
        76,
        105,
        458,
        331,
        332,
        265,
        330,
        299,
        140,
        9,
        10,
        11,
        12,
        9,
        10,
        11,
        12,
        9,
        10,
        11,
        12,
        9,
        10,
        11,
        12,
        25,
        58,
        971,
        844,
        841,
        842,
        843,
        844,
        841,
        842,
        843,
        844,
        841,
        842,
        843,
        844,
        873,
        154,
        27,
        12,
        9,
        10,
        11,
        12,
        41,
        394,
        267,
        268,
        265,
        266,
        299,
        140,
        9,
        10,
        11,
        12,
        9,
        10,
        11,
        12,
        9,
        10,
        11,
        12,
        9,
        10,
        11,
        12,
        9,
        10,
        11,
        12,
        9,
        10,
        11,
        12,
        9,
        42,
        395,
        268,
        265,
        266,
        267,
        300,
        137,
        10,
        11,
        12,
        9,
        10,
        11,
        12,
        9,
        10,
        11,
        12,
        9,
        10,
        11,
        12,
        9,
        10,
        11,
        12,
        9,
        10,
        11,
        12,
        9,
        10,
        11,
        12,
        73,
        74,
        75,
        76,
        73,
        74,
        75,
        76,
        73,
        74,
        75,
        76,
        105,
        458,
        331,
        332,
        265,
        330,
        299,
        140,
        9,
        10,
        11,
        12,
        9,
        10,
        11,
        12,
        9,
        10,
        11,
        12,
        9,
        10,
        11,
        12,
        25,
        58,
        971,
        844,
        841,
        842,
        843,
        844,
        841,
        842,
        843,
        844,
        841,
        842,
        843,
        844,
        873,
        154,
        27,
        12,
        9,
        10,
        11,
        12,
        41,
        394,
        267,
        268,
        265,
        266,
        299,
        140,
        9,
        10,
        11,
        12,
        9,
        10,
        11,
        12,
        41,
        906,
        779,
        812,
        909,
        782,
        815,
        144,
        13,
        14,
        15,
        16,
        13,
        14,
        15,
        16,
        13,
        46,
        399,
        272,
        269,
        270,
        271,
        304,
        141,
        14,
        15,
        16,
        13,
        14,
        15,
        16,
        13,
        14,
        15,
        16,
        13,
        14,
        15,
        16,
        13,
        14,
        15,
        16,
        13,
        14,
        15,
        16,
        13,
        14,
        15,
        112,
        669,
        542,
        543,
        544,
        541,
        542,
        543,
        544,
        541,
        542,
        543,
        544,
        541,
        542,
        543,
        576,
        429,
        702,
        495,
        208,
        13,
        14,
        15,
        16,
        13,
        14,
        15,
        16,
        13,
        14,
        15,
        16,
        13,
        14,
        15,
        16,
        13,
        14,
        31,
        32,
        29,
        30,
        31,
        32,
        29,
        30,
        31,
        32,
        29,
        30,
        31,
        32,
        29,
        14,
        15,
        16,
        13,
        14,
        15,
        16,
        45,
        398,
        271,
        272,
        269,
        270,
        303,
        144,
        13,
        14,
        15,
        16,
        13,
        14,
        15,
        16,
        13,
        14,
        15,
        16,
        13,
        14,
        15,
        16,
        13,
        14,
        15,
        16,
        13,
        14,
        15,
        16,
        13,
        46,
        399,
        272,
        269,
        270,
        271,
        304,
        141,
        14,
        15,
        16,
        13,
        14,
        15,
        16,
        13,
        14,
        15,
        16,
        13,
        14,
        15,
        16,
        13,
        14,
        15,
        16,
        13,
        14,
        15,
        16,
        13,
        14,
        15,
        112,
        669,
        542,
        543,
        544,
        541,
        542,
        543,
        544,
        541,
        542,
        543,
        544,
        541,
        542,
        543,
        576,
        429,
        702,
        495,
        208,
        13,
        14,
        15,
        16,
        13,
        14,
        15,
        16,
        13,
        14,
        15,
        16,
        13,
        14,
        15,
        16,
        13,
        14,
        31,
        32,
        29,
        30,
        31,
        32,
        29,
        30,
        31,
        32,
        29,
        30,
        31,
        32,
        29,
        14,
        15,
        16,
        13,
        14,
        15,
        16,
        45,
        398,
        271,
        272,
        269,
        270,
        303,
        144,
        13,
        14,
        15,
        16,
        13,
        14,
        15,
        16,
        45,
        910,
        783,
        816,
        897,
        770,
        803,
        132,
        1,
        2,
        3,
        4,
        1,
        2,
        3,
        4,
        1,
        34,
        387,
        260,
        257,
        258,
        259,
        292,
        129,
        2,
        3,
        4,
        1,
        2,
        3,
        4,
        1,
        2,
        3,
        4,
        1,
        2,
        3,
        4,
        1,
        2,
        3,
        4,
        1,
        2,
        3,
        4,
        1,
        66,
        99,
        660,
        513,
        514,
        515,
        516,
        513,
        514,
        515,
        516,
        513,
        514,
        515,
        516,
        513,
        514,
        515,
        548,
        481,
        642,
        531,
        564,
        193,
        66,
        3,
        4,
        1,
        2,
        3,
        4,
        1,
        2,
        3,
        4,
        1,
        2,
        3,
        4,
        1,
        2,
        3,
        4,
        1,
        2,
        3,
        4,
        1,
        2,
        3,
        4,
        1,
        2,
        3,
        4,
        1,
        2,
        3,
        4,
        1,
        2,
        3,
        4,
        33,
        386,
        259,
        260,
        257,
        258,
        291,
        132,
        1,
        2,
        3,
        4,
        1,
        2,
        3,
        4,
        1,
        2,
        3,
        4,
        1,
        2,
        3,
        4,
        1,
        2,
        3,
        4,
        1,
        2,
        3,
        4,
        1,
        34,
        387,
        260,
        257,
        258,
        259,
        292,
        129,
        2,
        3,
        4,
        1,
        2,
        3,
        4,
        1,
        2,
        3,
        4,
        1,
        2,
        3,
        4,
        1,
        2,
        3,
        4,
        1,
        2,
        3,
        4,
        1,
        66,
        99,
        660,
        513,
        514,
        515,
        516,
        513,
        514,
        515,
        516,
        513,
        514,
        515,
        516,
        513,
        514,
        515,
        548,
        481,
        642,
        531,
        564,
        193,
        66,
        3,
        4,
        1,
        2,
        3,
        4,
        1,
        2,
        3,
        4,
        1,
        2,
        3,
        4,
        1,
        2,
        3,
        4,
        1,
        2,
        3,
        4,
        1,
        2,
        3,
        4,
        1,
        2,
        3,
        4,
        1,
        2,
        3,
        4,
        1,
        2,
        3,
        4,
        33,
        386,
        259,
        260,
        257,
        258,
        291,
        132,
        1,
        2,
        3,
        4,
        1,
        2,
        3,
        4,
        33,
        898,
        771,
        804,
        901,
        774,
        807,
        136,
        5,
        6,
        7,
        8,
        5,
        6,
        7,
        8,
        5,
        38,
        391,
        264,
        261,
        262,
        263,
        296,
        133,
        6,
        7,
        8,
        5,
        6,
        7,
        8,
        5,
        6,
        7,
        8,
        5,
        6,
        7,
        8,
        5,
        6,
        7,
        8,
        5,
        6,
        7,
        8,
        101,
        662,
        535,
        520,
        517,
        518,
        519,
        520,
        517,
        518,
        519,
        520,
        517,
        518,
        519,
        520,
        517,
        518,
        519,
        520,
        533,
        518,
        519,
        520,
        533,
        566,
        199,
        72,
        5,
        6,
        7,
        8,
        5,
        6,
        7,
        8,
        5,
        6,
        7,
        8,
        5,
        6,
        7,
        8,
        5,
        6,
        7,
        8,
        5,
        6,
        7,
        8,
        5,
        6,
        7,
        8,
        5,
        6,
        7,
        8,
        5,
        6,
        7,
        8,
        37,
        390,
        263,
        264,
        261,
        262,
        295,
        136,
        5,
        6,
        7,
        8,
        5,
        6,
        7,
        8,
        5,
        6,
        7,
        8,
        5,
        6,
        7,
        8,
        5,
        6,
        7,
        8,
        5,
        6,
        7,
        8,
        5,
        38,
        391,
        264,
        261,
        262,
        263,
        296,
        133,
        6,
        7,
        8,
        5,
        6,
        7,
        8,
        5,
        6,
        7,
        8,
        5,
        6,
        7,
        8,
        5,
        6,
        7,
        8,
        5,
        6,
        7,
        8,
        101,
        662,
        535,
        520,
        517,
        518,
        519,
        520,
        517,
        518,
        519,
        520,
        517,
        518,
        519,
        520,
        517,
        518,
        519,
        520,
        533,
        518,
        519,
        520,
        533,
        566,
        199,
        72,
        5,
        6,
        7,
        8,
        5,
        6,
        7,
        8,
        5,
        6,
        7,
        8,
        5,
        6,
        7,
        8,
        5,
        6,
        7,
        8,
        5,
        6,
        7,
        8,
        5,
        6,
        7,
        8,
        5,
        6,
        7,
        8,
        5,
        6,
        7,
        8,
        37,
        390,
        263,
        264,
        261,
        262,
        295,
        136,
        5,
        6,
        7,
        8,
        5,
        6,
        7,
        8,
        37,
        902,
        775,
        808,
        905,
        778,
        811,
        140,
        9,
        10,
        11,
        12,
        9,
        10,
        11,
        12,
        9,
        42,
        395,
        268,
        265,
        266,
        267,
        300,
        137,
        10,
        11,
        12,
        9,
        10,
        11,
        12,
        9,
        10,
        11,
        12,
        9,
        10,
        11,
        12,
        9,
        10,
        11,
        12,
        9,
        10,
        75,
        108,
        665,
        522,
        523,
        524,
        521,
        522,
        587,
        588,
        585,
        586,
        587,
        588,
        585,
        586,
        587,
        588,
        585,
        586,
        587,
        588,
        585,
        586,
        523,
        524,
        521,
        522,
        539,
        572,
        201,
        74,
        11,
        12,
        9,
        10,
        11,
        12,
        9,
        10,
        11,
        12,
        9,
        10,
        11,
        12,
        9,
        10,
        11,
        12,
        9,
        10,
        11,
        12,
        9,
        10,
        11,
        12,
        9,
        10,
        11,
        12,
        9,
        10,
        11,
        12,
        41,
        394,
        267,
        268,
        265,
        266,
        299,
        140,
        9,
        10,
        11,
        12,
        9,
        10,
        11,
        12,
        9,
        10,
        11,
        12,
        9,
        10,
        11,
        12,
        9,
        10,
        11,
        12,
        9,
        10,
        11,
        12,
        9,
        42,
        395,
        268,
        265,
        266,
        267,
        300,
        137,
        10,
        11,
        12,
        9,
        10,
        11,
        12,
        9,
        10,
        11,
        12,
        9,
        10,
        11,
        12,
        9,
        10,
        11,
        12,
        9,
        10,
        75,
        108,
        665,
        522,
        523,
        524,
        521,
        522,
        587,
        588,
        585,
        586,
        587,
        588,
        585,
        586,
        587,
        588,
        585,
        586,
        587,
        588,
        585,
        586,
        523,
        524,
        521,
        522,
        539,
        572,
        201,
        74,
        11,
        12,
        9,
        10,
        11,
        12,
        9,
        10,
        11,
        12,
        9,
        10,
        11,
        12,
        9,
        10,
        11,
        12,
        9,
        10,
        11,
        12,
        9,
        10,
        11,
        12,
        9,
        10,
        11,
        12,
        9,
        10,
        11,
        12,
        41,
        394,
        267,
        268,
        265,
        266,
        299,
        140,
        9,
        10,
        11,
        12,
        9,
        10,
        11,
        12,
        41,
        906,
        779,
        812,
        909,
        782,
        815,
        144,
        13,
        14,
        15,
        16,
        13,
        14,
        15,
        16,
        13,
        46,
        399,
        272,
        269,
        270,
        271,
        304,
        141,
        14,
        15,
        16,
        13,
        14,
        15,
        16,
        13,
        14,
        15,
        16,
        13,
        14,
        15,
        16,
        13,
        14,
        15,
        16,
        13,
        110,
        671,
        544,
        525,
        526,
        527,
        528,
        589,
        622,
        159,
        32,
        29,
        30,
        31,
        32,
        29,
        30,
        31,
        32,
        61,
        414,
        287,
        288,
        285,
        318,
        719,
        592,
        525,
        526,
        527,
        528,
        541,
        574,
        207,
        80,
        13,
        14,
        15,
        16,
        13,
        14,
        15,
        16,
        13,
        14,
        15,
        16,
        13,
        14,
        15,
        16,
        13,
        14,
        15,
        16,
        13,
        14,
        15,
        16,
        13,
        14,
        15,
        16,
        13,
        14,
        15,
        16,
        45,
        398,
        271,
        272,
        269,
        270,
        303,
        144,
        13,
        14,
        15,
        16,
        13,
        14,
        15,
        16,
        13,
        14,
        15,
        16,
        13,
        14,
        15,
        16,
        13,
        14,
        15,
        16,
        13,
        14,
        15,
        16,
        13,
        46,
        399,
        272,
        269,
        270,
        271,
        304,
        141,
        14,
        15,
        16,
        13,
        14,
        15,
        16,
        13,
        14,
        15,
        16,
        13,
        14,
        15,
        16,
        13,
        14,
        15,
        16,
        13,
        110,
        671,
        544,
        525,
        526,
        527,
        528,
        589,
        622,
        159,
        32,
        29,
        30,
        31,
        32,
        29,
        30,
        31,
        32,
        61,
        414,
        287,
        288,
        285,
        318,
        719,
        592,
        525,
        526,
        527,
        528,
        541,
        574,
        207,
        80,
        13,
        14,
        15,
        16,
        13,
        14,
        15,
        16,
        13,
        14,
        15,
        16,
        13,
        14,
        15,
        16,
        13,
        14,
        15,
        16,
        13,
        14,
        15,
        16,
        13,
        14,
        15,
        16,
        13,
        14,
        15,
        16,
        45,
        398,
        271,
        272,
        269,
        270,
        303,
        144,
        13,
        14,
        15,
        16,
        13,
        14,
        15,
        16,
        45,
        910,
        783,
        816,
        897,
        770,
        803,
        132,
        1,
        2,
        3,
        4,
        1,
        2,
        3,
        4,
        1,
        34,
        387,
        260,
        257,
        258,
        259,
        292,
        129,
        2,
        3,
        4,
        1,
        2,
        3,
        4,
        1,
        2,
        3,
        4,
        1,
        2,
        3,
        4,
        1,
        2,
        3,
        68,
        97,
        658,
        515,
        516,
        513,
        514,
        515,
        612,
        145,
        18,
        3,
        4,
        1,
        2,
        3,
        4,
        1,
        2,
        3,
        4,
        33,
        386,
        259,
        260,
        257,
        258,
        307,
        180,
        705,
        578,
        515,
        516,
        513,
        514,
        531,
        564,
        193,
        66,
        67,
        68,
        65,
        66,
        67,
        68,
        65,
        66,
        67,
        68,
        65,
        66,
        67,
        68,
        65,
        66,
        67,
        68,
        65,
        66,
        67,
        68,
        65,
        66,
        67,
        68,
        65,
        2,
        3,
        4,
        33,
        386,
        259,
        260,
        257,
        258,
        291,
        132,
        1,
        2,
        3,
        4,
        1,
        2,
        3,
        4,
        1,
        2,
        3,
        4,
        1,
        2,
        3,
        4,
        1,
        2,
        3,
        4,
        1,
        2,
        3,
        4,
        1,
        34,
        387,
        260,
        257,
        258,
        259,
        292,
        129,
        2,
        3,
        4,
        1,
        2,
        3,
        4,
        1,
        2,
        3,
        4,
        1,
        2,
        3,
        4,
        1,
        2,
        3,
        68,
        97,
        658,
        515,
        516,
        513,
        514,
        515,
        612,
        145,
        18,
        3,
        4,
        1,
        2,
        3,
        4,
        1,
        2,
        3,
        4,
        33,
        386,
        259,
        260,
        257,
        258,
        307,
        180,
        705,
        578,
        515,
        516,
        513,
        514,
        531,
        564,
        193,
        66,
        67,
        68,
        65,
        66,
        67,
        68,
        65,
        66,
        67,
        68,
        65,
        66,
        67,
        68,
        65,
        66,
        67,
        68,
        65,
        66,
        67,
        68,
        65,
        66,
        67,
        68,
        65,
        2,
        3,
        4,
        33,
        386,
        259,
        260,
        257,
        258,
        291,
        132,
        1,
        2,
        3,
        4,
        1,
        2,
        3,
        4,
        33,
        898,
        771,
        804,
        901,
        774,
        807,
        136,
        5,
        6,
        7,
        8,
        5,
        6,
        7,
        8,
        5,
        38,
        391,
        264,
        261,
        262,
        263,
        296,
        133,
        6,
        7,
        8,
        5,
        6,
        7,
        8,
        5,
        6,
        7,
        8,
        5,
        6,
        7,
        8,
        5,
        70,
        103,
        664,
        533,
        518,
        519,
        520,
        517,
        582,
        615,
        152,
        5,
        6,
        7,
        8,
        5,
        6,
        7,
        8,
        5,
        6,
        7,
        8,
        37,
        390,
        263,
        264,
        261,
        262,
        295,
        136,
        21,
        54,
        711,
        584,
        517,
        518,
        519,
        520,
        533,
        534,
        535,
        536,
        533,
        534,
        535,
        536,
        533,
        534,
        535,
        536,
        533,
        534,
        535,
        536,
        533,
        534,
        535,
        536,
        533,
        534,
        535,
        536,
        533,
        534,
        535,
        536,
        565,
        198,
        7,
        8,
        37,
        390,
        263,
        264,
        261,
        262,
        295,
        136,
        5,
        6,
        7,
        8,
        5,
        6,
        7,
        8,
        5,
        6,
        7,
        8,
        5,
        6,
        7,
        8,
        5,
        6,
        7,
        8,
        5,
        6,
        7,
        8,
        5,
        38,
        391,
        264,
        261,
        262,
        263,
        296,
        133,
        6,
        7,
        8,
        5,
        6,
        7,
        8,
        5,
        6,
        7,
        8,
        5,
        6,
        7,
        8,
        5,
        70,
        103,
        664,
        533,
        518,
        519,
        520,
        517,
        582,
        615,
        152,
        5,
        6,
        7,
        8,
        5,
        6,
        7,
        8,
        5,
        6,
        7,
        8,
        37,
        390,
        263,
        264,
        261,
        262,
        295,
        136,
        21,
        54,
        711,
        584,
        517,
        518,
        519,
        520,
        533,
        534,
        535,
        536,
        533,
        534,
        535,
        536,
        533,
        534,
        535,
        536,
        533,
        534,
        535,
        536,
        533,
        534,
        535,
        536,
        533,
        534,
        535,
        536,
        533,
        534,
        535,
        536,
        565,
        198,
        7,
        8,
        37,
        390,
        263,
        264,
        261,
        262,
        295,
        136,
        5,
        6,
        7,
        8,
        5,
        6,
        7,
        8,
        37,
        902,
        775,
        808,
        905,
        778,
        811,
        140,
        9,
        10,
        11,
        12,
        9,
        10,
        11,
        12,
        9,
        42,
        395,
        268,
        265,
        266,
        267,
        300,
        137,
        10,
        11,
        12,
        9,
        10,
        11,
        12,
        9,
        10,
        11,
        12,
        9,
        10,
        11,
        12,
        105,
        666,
        539,
        524,
        521,
        522,
        523,
        524,
        617,
        154,
        27,
        12,
        9,
        10,
        11,
        12,
        9,
        10,
        11,
        12,
        9,
        10,
        11,
        12,
        41,
        394,
        267,
        268,
        265,
        266,
        299,
        140,
        9,
        10,
        27,
        60,
        713,
        586,
        523,
        524,
        521,
        522,
        523,
        524,
        521,
        522,
        523,
        524,
        521,
        522,
        523,
        524,
        521,
        522,
        523,
        524,
        521,
        522,
        523,
        524,
        521,
        522,
        523,
        524,
        521,
        522,
        523,
        524,
        521,
        570,
        203,
        76,
        41,
        394,
        267,
        268,
        265,
        266,
        299,
        140,
        9,
        10,
        11,
        12,
        9,
        10,
        11,
        12,
        9,
        10,
        11,
        12,
        9,
        10,
        11,
        12,
        9,
        10,
        11,
        12,
        9,
        10,
        11,
        12,
        9,
        42,
        395,
        268,
        265,
        266,
        267,
        300,
        137,
        10,
        11,
        12,
        9,
        10,
        11,
        12,
        9,
        10,
        11,
        12,
        9,
        10,
        11,
        12,
        105,
        666,
        539,
        524,
        521,
        522,
        523,
        524,
        617,
        154,
        27,
        12,
        9,
        10,
        11,
        12,
        9,
        10,
        11,
        12,
        9,
        10,
        11,
        12,
        41,
        394,
        267,
        268,
        265,
        266,
        299,
        140,
        9,
        10,
        27,
        60,
        713,
        586,
        523,
        524,
        521,
        522,
        523,
        524,
        521,
        522,
        523,
        524,
        521,
        522,
        523,
        524,
        521,
        522,
        523,
        524,
        521,
        522,
        523,
        524,
        521,
        522,
        523,
        524,
        521,
        522,
        523,
        524,
        521,
        570,
        203,
        76,
        41,
        394,
        267,
        268,
        265,
        266,
        299,
        140,
        9,
        10,
        11,
        12,
        9,
        10,
        11,
        12,
        41,
        906,
        779,
        812,
        909,
        782,
        815,
        144,
        13,
        14,
        15,
        16,
        13,
        14,
        15,
        16,
        13,
        46,
        399,
        272,
        269,
        270,
        271,
        304,
        141,
        14,
        15,
        16,
        13,
        14,
        15,
        16,
        13,
        14,
        15,
        16,
        13,
        14,
        15,
        48,
        669,
        526,
        527,
        528,
        525,
        526,
        591,
        624,
        157,
        14,
        15,
        16,
        13,
        14,
        15,
        16,
        13,
        14,
        15,
        16,
        13,
        14,
        15,
        16,
        45,
        398,
        271,
        272,
        269,
        270,
        303,
        144,
        13,
        14,
        15,
        16,
        29,
        62,
        719,
        592,
        525,
        526,
        527,
        528,
        525,
        526,
        527,
        528,
        525,
        526,
        527,
        528,
        525,
        526,
        527,
        528,
        525,
        526,
        527,
        528,
        525,
        526,
        527,
        528,
        525,
        526,
        527,
        528,
        525,
        526,
        543,
        576,
        237,
        398,
        271,
        272,
        269,
        270,
        303,
        144,
        13,
        14,
        15,
        16,
        13,
        14,
        15,
        16,
        13,
        14,
        15,
        16,
        13,
        14,
        15,
        16,
        13,
        14,
        15,
        16,
        13,
        14,
        15,
        16,
        13,
        46,
        399,
        272,
        269,
        270,
        271,
        304,
        141,
        14,
        15,
        16,
        13,
        14,
        15,
        16,
        13,
        14,
        15,
        16,
        13,
        14,
        15,
        48,
        669,
        526,
        527,
        528,
        525,
        526,
        591,
        624,
        157,
        14,
        15,
        16,
        13,
        14,
        15,
        16,
        13,
        14,
        15,
        16,
        13,
        14,
        15,
        16,
        45,
        398,
        271,
        272,
        269,
        270,
        303,
        144,
        13,
        14,
        15,
        16,
        29,
        62,
        719,
        592,
        525,
        526,
        527,
        528,
        525,
        526,
        527,
        528,
        525,
        526,
        527,
        528,
        525,
        526,
        527,
        528,
        525,
        526,
        527,
        528,
        525,
        526,
        527,
        528,
        525,
        526,
        527,
        528,
        525,
        526,
        543,
        576,
        237,
        398,
        271,
        272,
        269,
        270,
        303,
        144,
        13,
        14,
        15,
        16,
        13,
        14,
        15,
        16,
        45,
        910,
        783,
        816,
        897,
        770,
        803,
        132,
        1,
        2,
        3,
        4,
        1,
        2,
        3,
        4,
        1,
        34,
        387,
        260,
        257,
        258,
        259,
        292,
        129,
        2,
        3,
        4,
        1,
        2,
        3,
        4,
        1,
        2,
        3,
        4,
        1,
        2,
        3,
        100,
        641,
        514,
        515,
        516,
        513,
        610,
        147,
        20,
        1,
        2,
        3,
        4,
        1,
        2,
        3,
        4,
        1,
        2,
        3,
        4,
        1,
        2,
        3,
        4,
        33,
        386,
        259,
        260,
        257,
        258,
        291,
        132,
        1,
        2,
        3,
        4,
        1,
        2,
        19,
        52,
        705,
        578,
        579,
        580,
        577,
        578,
        579,
        580,
        577,
        578,
        579,
        580,
        577,
        578,
        579,
        580,
        577,
        578,
        579,
        580,
        577,
        578,
        579,
        580,
        577,
        578,
        579,
        516,
        513,
        514,
        515,
        516,
        561,
        450,
        259,
        260,
        257,
        258,
        291,
        132,
        1,
        2,
        3,
        4,
        1,
        2,
        3,
        4,
        1,
        2,
        3,
        4,
        1,
        2,
        3,
        4,
        1,
        2,
        3,
        4,
        1,
        2,
        3,
        4,
        1,
        34,
        387,
        260,
        257,
        258,
        259,
        292,
        129,
        2,
        3,
        4,
        1,
        2,
        3,
        4,
        1,
        2,
        3,
        4,
        1,
        2,
        3,
        100,
        641,
        514,
        515,
        516,
        513,
        610,
        147,
        20,
        1,
        2,
        3,
        4,
        1,
        2,
        3,
        4,
        1,
        2,
        3,
        4,
        1,
        2,
        3,
        4,
        33,
        386,
        259,
        260,
        257,
        258,
        291,
        132,
        1,
        2,
        3,
        4,
        1,
        2,
        19,
        52,
        705,
        578,
        579,
        580,
        577,
        578,
        579,
        580,
        577,
        578,
        579,
        580,
        577,
        578,
        579,
        580,
        577,
        578,
        579,
        580,
        577,
        578,
        579,
        580,
        577,
        578,
        579,
        516,
        513,
        514,
        515,
        516,
        561,
        450,
        259,
        260,
        257,
        258,
        291,
        132,
        1,
        2,
        3,
        4,
        1,
        2,
        3,
        4,
        33,
        898,
        771,
        804,
        901,
        774,
        807,
        136,
        5,
        6,
        7,
        8,
        5,
        6,
        7,
        8,
        5,
        38,
        391,
        264,
        261,
        262,
        263,
        296,
        133,
        6,
        7,
        8,
        5,
        6,
        7,
        8,
        5,
        6,
        7,
        8,
        5,
        6,
        103,
        664,
        517,
        518,
        519,
        520,
        613,
        150,
        7,
        8,
        5,
        6,
        7,
        8,
        5,
        6,
        7,
        8,
        5,
        6,
        7,
        8,
        5,
        6,
        7,
        8,
        37,
        390,
        263,
        264,
        261,
        262,
        295,
        136,
        5,
        6,
        7,
        8,
        5,
        6,
        7,
        8,
        21,
        22,
        23,
        24,
        21,
        22,
        23,
        24,
        21,
        22,
        23,
        24,
        21,
        22,
        23,
        24,
        21,
        22,
        23,
        24,
        21,
        22,
        23,
        24,
        21,
        22,
        55,
        712,
        581,
        518,
        519,
        520,
        517,
        566,
        455,
        328,
        261,
        262,
        295,
        136,
        5,
        6,
        7,
        8,
        5,
        6,
        7,
        8,
        5,
        6,
        7,
        8,
        5,
        6,
        7,
        8,
        5,
        6,
        7,
        8,
        5,
        6,
        7,
        8,
        5,
        38,
        391,
        264,
        261,
        262,
        263,
        296,
        133,
        6,
        7,
        8,
        5,
        6,
        7,
        8,
        5,
        6,
        7,
        8,
        5,
        6,
        103,
        664,
        517,
        518,
        519,
        520,
        613,
        150,
        7,
        8,
        5,
        6,
        7,
        8,
        5,
        6,
        7,
        8,
        5,
        6,
        7,
        8,
        5,
        6,
        7,
        8,
        37,
        390,
        263,
        264,
        261,
        262,
        295,
        136,
        5,
        6,
        7,
        8,
        5,
        6,
        7,
        8,
        21,
        22,
        23,
        24,
        21,
        22,
        23,
        24,
        21,
        22,
        23,
        24,
        21,
        22,
        23,
        24,
        21,
        22,
        23,
        24,
        21,
        22,
        23,
        24,
        21,
        22,
        55,
        712,
        581,
        518,
        519,
        520,
        517,
        566,
        455,
        328,
        261,
        262,
        295,
        136,
        5,
        6,
        7,
        8,
        5,
        6,
        7,
        8,
        37,
        902,
        775,
        808,
        905,
        778,
        811,
        140,
        9,
        10,
        11,
        12,
        9,
        10,
        11,
        12,
        9,
        42,
        395,
        268,
        265,
        266,
        267,
        300,
        137,
        10,
        11,
        12,
        9,
        10,
        11,
        12,
        9,
        10,
        11,
        12,
        9,
        42,
        667,
        524,
        521,
        522,
        523,
        620,
        153,
        10,
        11,
        12,
        9,
        10,
        11,
        12,
        9,
        10,
        11,
        12,
        9,
        10,
        11,
        12,
        9,
        10,
        11,
        12,
        41,
        394,
        267,
        268,
        265,
        266,
        299,
        140,
        9,
        10,
        11,
        12,
        9,
        10,
        11,
        12,
        9,
        10,
        11,
        12,
        9,
        10,
        11,
        12,
        9,
        10,
        11,
        12,
        9,
        10,
        11,
        12,
        9,
        10,
        11,
        12,
        9,
        10,
        11,
        12,
        9,
        10,
        11,
        28,
        57,
        714,
        523,
        524,
        521,
        522,
        539,
        572,
        457,
        266,
        299,
        140,
        9,
        10,
        11,
        12,
        9,
        10,
        11,
        12,
        9,
        10,
        11,
        12,
        9,
        10,
        11,
        12,
        9,
        10,
        11,
        12,
        9,
        10,
        11,
        12,
        9,
        42,
        395,
        268,
        265,
        266,
        267,
        300,
        137,
        10,
        11,
        12,
        9,
        10,
        11,
        12,
        9,
        10,
        11,
        12,
        9,
        42,
        667,
        524,
        521,
        522,
        523,
        620,
        153,
        10,
        11,
        12,
        9,
        10,
        11,
        12,
        9,
        10,
        11,
        12,
        9,
        10,
        11,
        12,
        9,
        10,
        11,
        12,
        41,
        394,
        267,
        268,
        265,
        266,
        299,
        140,
        9,
        10,
        11,
        12,
        9,
        10,
        11,
        12,
        9,
        10,
        11,
        12,
        9,
        10,
        11,
        12,
        9,
        10,
        11,
        12,
        9,
        10,
        11,
        12,
        9,
        10,
        11,
        12,
        9,
        10,
        11,
        12,
        9,
        10,
        11,
        28,
        57,
        714,
        523,
        524,
        521,
        522,
        539,
        572,
        457,
        266,
        299,
        140,
        9,
        10,
        11,
        12,
        9,
        10,
        11,
        12,
        41,
        906,
        779,
        812,
        909,
        782,
        815,
        144,
        13,
        14,
        15,
        16,
        13,
        14,
        15,
        16,
        13,
        46,
        399,
        272,
        269,
        270,
        271,
        304,
        141,
        14,
        15,
        16,
        13,
        14,
        15,
        16,
        13,
        14,
        15,
        16,
        13,
        110,
        655,
        528,
        525,
        526,
        623,
        160,
        13,
        14,
        15,
        16,
        13,
        14,
        15,
        16,
        13,
        14,
        15,
        16,
        13,
        14,
        15,
        16,
        13,
        14,
        15,
        16,
        45,
        398,
        271,
        272,
        269,
        270,
        303,
        144,
        13,
        14,
        15,
        16,
        13,
        14,
        15,
        16,
        13,
        14,
        15,
        16,
        13,
        14,
        15,
        16,
        13,
        14,
        15,
        16,
        13,
        14,
        15,
        16,
        13,
        14,
        15,
        16,
        13,
        14,
        15,
        16,
        13,
        14,
        15,
        16,
        13,
        62,
        719,
        528,
        525,
        526,
        527,
        528,
        573,
        462,
        303,
        144,
        13,
        14,
        15,
        16,
        13,
        14,
        15,
        16,
        13,
        14,
        15,
        16,
        13,
        14,
        15,
        16,
        13,
        14,
        15,
        16,
        13,
        14,
        15,
        16,
        13,
        46,
        399,
        272,
        269,
        270,
        271,
        304,
        141,
        14,
        15,
        16,
        13,
        14,
        15,
        16,
        13,
        14,
        15,
        16,
        13,
        110,
        655,
        528,
        525,
        526,
        623,
        160,
        13,
        14,
        15,
        16,
        13,
        14,
        15,
        16,
        13,
        14,
        15,
        16,
        13,
        14,
        15,
        16,
        13,
        14,
        15,
        16,
        45,
        398,
        271,
        272,
        269,
        270,
        303,
        144,
        13,
        14,
        15,
        16,
        13,
        14,
        15,
        16,
        13,
        14,
        15,
        16,
        13,
        14,
        15,
        16,
        13,
        14,
        15,
        16,
        13,
        14,
        15,
        16,
        13,
        14,
        15,
        16,
        13,
        14,
        15,
        16,
        13,
        14,
        15,
        16,
        13,
        62,
        719,
        528,
        525,
        526,
        527,
        528,
        573,
        462,
        303,
        144,
        13,
        14,
        15,
        16,
        13,
        14,
        15,
        16,
        45,
        910,
        783,
        816,
        897,
        770,
        803,
        132,
        1,
        2,
        3,
        4,
        1,
        2,
        3,
        4,
        1,
        34,
        387,
        260,
        257,
        258,
        259,
        292,
        129,
        2,
        3,
        4,
        65,
        66,
        67,
        68,
        65,
        66,
        67,
        68,
        97,
        658,
        515,
        516,
        513,
        546,
        211,
        4,
        1,
        2,
        3,
        4,
        1,
        2,
        3,
        4,
        1,
        2,
        3,
        4,
        1,
        2,
        3,
        4,
        1,
        2,
        3,
        4,
        33,
        386,
        259,
        260,
        257,
        258,
        291,
        132,
        1,
        2,
        3,
        4,
        1,
        2,
        3,
        4,
        1,
        2,
        3,
        4,
        1,
        2,
        3,
        4,
        1,
        2,
        3,
        4,
        1,
        2,
        3,
        4,
        1,
        2,
        3,
        4,
        1,
        2,
        3,
        4,
        1,
        2,
        3,
        4,
        1,
        2,
        51,
        708,
        577,
        514,
        515,
        516,
        513,
        562,
        419,
        132,
        1,
        2,
        3,
        4,
        1,
        2,
        3,
        4,
        1,
        2,
        3,
        4,
        1,
        2,
        3,
        4,
        1,
        2,
        3,
        4,
        1,
        2,
        3,
        4,
        1,
        34,
        387,
        260,
        257,
        258,
        259,
        292,
        129,
        2,
        3,
        4,
        65,
        66,
        67,
        68,
        65,
        66,
        67,
        68,
        97,
        658,
        515,
        516,
        513,
        546,
        211,
        4,
        1,
        2,
        3,
        4,
        1,
        2,
        3,
        4,
        1,
        2,
        3,
        4,
        1,
        2,
        3,
        4,
        1,
        2,
        3,
        4,
        33,
        386,
        259,
        260,
        257,
        258,
        291,
        132,
        1,
        2,
        3,
        4,
        1,
        2,
        3,
        4,
        1,
        2,
        3,
        4,
        1,
        2,
        3,
        4,
        1,
        2,
        3,
        4,
        1,
        2,
        3,
        4,
        1,
        2,
        3,
        4,
        1,
        2,
        3,
        4,
        1,
        2,
        3,
        4,
        1,
        2,
        51,
        708,
        577,
        514,
        515,
        516,
        513,
        562,
        419,
        132,
        1,
        2,
        3,
        4,
        1,
        2,
        3,
        4,
        33,
        898,
        771,
        804,
        901,
        774,
        807,
        136,
        5,
        6,
        7,
        8,
        5,
        6,
        7,
        8,
        5,
        38,
        391,
        264,
        261,
        262,
        263,
        296,
        133,
        6,
        7,
        104,
        1173,
        1046,
        1047,
        1048,
        1045,
        1046,
        1047,
        1048,
        1141,
        646,
        519,
        520,
        517,
        614,
        1207,
        200,
        5,
        6,
        7,
        8,
        5,
        6,
        7,
        8,
        5,
        6,
        7,
        8,
        5,
        6,
        7,
        8,
        5,
        6,
        7,
        8,
        37,
        390,
        263,
        264,
        261,
        262,
        295,
        136,
        5,
        6,
        7,
        8,
        5,
        6,
        7,
        8,
        5,
        6,
        7,
        8,
        5,
        6,
        7,
        8,
        5,
        6,
        7,
        8,
        5,
        6,
        7,
        8,
        5,
        6,
        7,
        8,
        5,
        6,
        7,
        8,
        5,
        6,
        7,
        8,
        5,
        6,
        7,
        24,
        53,
        710,
        519,
        520,
        517,
        550,
        423,
        136,
        5,
        6,
        7,
        8,
        5,
        6,
        7,
        8,
        5,
        6,
        7,
        8,
        5,
        6,
        7,
        8,
        5,
        6,
        7,
        8,
        5,
        6,
        7,
        8,
        5,
        38,
        391,
        264,
        261,
        262,
        263,
        296,
        133,
        6,
        7,
        104,
        1173,
        1046,
        1047,
        1048,
        1045,
        1046,
        1047,
        1048,
        1141,
        646,
        519,
        520,
        517,
        614,
        1207,
        200,
        5,
        6,
        7,
        8,
        5,
        6,
        7,
        8,
        5,
        6,
        7,
        8,
        5,
        6,
        7,
        8,
        5,
        6,
        7,
        8,
        37,
        390,
        263,
        264,
        261,
        262,
        295,
        136,
        5,
        6,
        7,
        8,
        5,
        6,
        7,
        8,
        5,
        6,
        7,
        8,
        5,
        6,
        7,
        8,
        5,
        6,
        7,
        8,
        5,
        6,
        7,
        8,
        5,
        6,
        7,
        8,
        5,
        6,
        7,
        8,
        5,
        6,
        7,
        8,
        5,
        6,
        7,
        24,
        53,
        710,
        519,
        520,
        517,
        550,
        423,
        136,
        5,
        6,
        7,
        8,
        5,
        6,
        7,
        8,
        37,
        902,
        775,
        808,
        905,
        778,
        811,
        140,
        9,
        10,
        11,
        12,
        9,
        10,
        11,
        12,
        9,
        42,
        395,
        268,
        265,
        266,
        267,
        300,
        137,
        10,
        43,
        1180,
        1033,
        1034,
        1035,
        1036,
        1033,
        1034,
        1035,
        1132,
        665,
        522,
        523,
        524,
        617,
        1178,
        1035,
        1084,
        137,
        10,
        11,
        12,
        9,
        10,
        11,
        12,
        9,
        10,
        11,
        12,
        9,
        10,
        11,
        12,
        9,
        10,
        11,
        12,
        41,
        394,
        267,
        268,
        265,
        266,
        299,
        140,
        9,
        10,
        11,
        12,
        9,
        10,
        11,
        12,
        9,
        10,
        11,
        12,
        9,
        10,
        11,
        12,
        9,
        10,
        11,
        12,
        9,
        10,
        11,
        12,
        9,
        10,
        11,
        12,
        9,
        10,
        11,
        12,
        9,
        10,
        11,
        12,
        9,
        10,
        11,
        12,
        41,
        442,
        651,
        524,
        521,
        554,
        427,
        140,
        9,
        10,
        11,
        12,
        9,
        10,
        11,
        12,
        9,
        10,
        11,
        12,
        9,
        10,
        11,
        12,
        9,
        10,
        11,
        12,
        9,
        10,
        11,
        12,
        9,
        42,
        395,
        268,
        265,
        266,
        267,
        300,
        137,
        10,
        43,
        1180,
        1033,
        1034,
        1035,
        1036,
        1033,
        1034,
        1035,
        1132,
        665,
        522,
        523,
        524,
        617,
        1178,
        1035,
        1084,
        137,
        10,
        11,
        12,
        9,
        10,
        11,
        12,
        9,
        10,
        11,
        12,
        9,
        10,
        11,
        12,
        9,
        10,
        11,
        12,
        41,
        394,
        267,
        268,
        265,
        266,
        299,
        140,
        9,
        10,
        11,
        12,
        9,
        10,
        11,
        12,
        9,
        10,
        11,
        12,
        9,
        10,
        11,
        12,
        9,
        10,
        11,
        12,
        9,
        10,
        11,
        12,
        9,
        10,
        11,
        12,
        9,
        10,
        11,
        12,
        9,
        10,
        11,
        12,
        9,
        10,
        11,
        12,
        41,
        442,
        651,
        524,
        521,
        554,
        427,
        140,
        9,
        10,
        11,
        12,
        9,
        10,
        11,
        12,
        41,
        906,
        779,
        812,
        909,
        782,
        815,
        144,
        13,
        14,
        15,
        16,
        13,
        14,
        15,
        16,
        13,
        46,
        399,
        272,
        269,
        270,
        271,
        304,
        141,
        14,
        47,
        1168,
        1037,
        1038,
        1039,
        1040,
        1037,
        1038,
        1071,
        672,
        525,
        526,
        527,
        560,
        1181,
        1038,
        1039,
        1072,
        141,
        14,
        15,
        16,
        13,
        14,
        15,
        16,
        13,
        14,
        15,
        16,
        13,
        14,
        15,
        16,
        13,
        14,
        15,
        16,
        45,
        398,
        271,
        272,
        269,
        270,
        303,
        144,
        13,
        14,
        15,
        16,
        13,
        14,
        15,
        16,
        13,
        14,
        15,
        16,
        13,
        14,
        15,
        16,
        13,
        14,
        15,
        16,
        13,
        14,
        15,
        16,
        13,
        14,
        15,
        16,
        13,
        14,
        15,
        16,
        13,
        14,
        15,
        16,
        13,
        14,
        15,
        16,
        45,
        430,
        655,
        528,
        525,
        558,
        431,
        144,
        13,
        14,
        15,
        16,
        13,
        14,
        15,
        16,
        13,
        14,
        15,
        16,
        13,
        14,
        15,
        16,
        13,
        14,
        15,
        16,
        13,
        14,
        15,
        16,
        13,
        46,
        399,
        272,
        269,
        270,
        271,
        304,
        141,
        14,
        47,
        1168,
        1037,
        1038,
        1039,
        1040,
        1037,
        1038,
        1071,
        672,
        525,
        526,
        527,
        560,
        1181,
        1038,
        1039,
        1072,
        141,
        14,
        15,
        16,
        13,
        14,
        15,
        16,
        13,
        14,
        15,
        16,
        13,
        14,
        15,
        16,
        13,
        14,
        15,
        16,
        45,
        398,
        271,
        272,
        269,
        270,
        303,
        144,
        13,
        14,
        15,
        16,
        13,
        14,
        15,
        16,
        13,
        14,
        15,
        16,
        13,
        14,
        15,
        16,
        13,
        14,
        15,
        16,
        13,
        14,
        15,
        16,
        13,
        14,
        15,
        16,
        13,
        14,
        15,
        16,
        13,
        14,
        15,
        16,
        13,
        14,
        15,
        16,
        45,
        430,
        655,
        528,
        525,
        558,
        431,
        144,
        13,
        14,
        15,
        16,
        13,
        14,
        15,
        16,
        45,
        910,
        783,
        816,
        897,
        770,
        803,
        132,
        1,
        2,
        3,
        4,
        1,
        2,
        3,
        4,
        1,
        34,
        387,
        260,
        257,
        258,
        259,
        292,
        129,
        2,
        35,
        1156,
        1025,
        1026,
        1027,
        1028,
        1025,
        1026,
        1123,
        644,
        513,
        514,
        515,
        612,
        1153,
        1026,
        1027,
        1060,
        129,
        2,
        3,
        4,
        1,
        2,
        3,
        4,
        1,
        2,
        3,
        4,
        1,
        2,
        3,
        4,
        1,
        2,
        3,
        4,
        33,
        386,
        259,
        260,
        257,
        258,
        291,
        132,
        1,
        2,
        3,
        4,
        1,
        2,
        3,
        4,
        1,
        2,
        3,
        4,
        1,
        2,
        3,
        4,
        1,
        2,
        3,
        4,
        1,
        2,
        3,
        4,
        1,
        2,
        3,
        4,
        1,
        2,
        3,
        4,
        1,
        2,
        3,
        4,
        1,
        2,
        3,
        4,
        33,
        418,
        643,
        516,
        513,
        546,
        419,
        132,
        1,
        2,
        3,
        4,
        1,
        2,
        3,
        4,
        1,
        2,
        3,
        4,
        1,
        2,
        3,
        4,
        1,
        2,
        3,
        4,
        1,
        2,
        3,
        4,
        1,
        34,
        387,
        260,
        257,
        258,
        259,
        292,
        129,
        2,
        35,
        1156,
        1025,
        1026,
        1027,
        1028,
        1025,
        1026,
        1123,
        644,
        513,
        514,
        515,
        612,
        1153,
        1026,
        1027,
        1060,
        129,
        2,
        3,
        4,
        1,
        2,
        3,
        4,
        1,
        2,
        3,
        4,
        1,
        2,
        3,
        4,
        1,
        2,
        3,
        4,
        33,
        386,
        259,
        260,
        257,
        258,
        291,
        132,
        1,
        2,
        3,
        4,
        1,
        2,
        3,
        4,
        1,
        2,
        3,
        4,
        1,
        2,
        3,
        4,
        1,
        2,
        3,
        4,
        1,
        2,
        3,
        4,
        1,
        2,
        3,
        4,
        1,
        2,
        3,
        4,
        1,
        2,
        3,
        4,
        1,
        2,
        3,
        4,
        33,
        418,
        643,
        516,
        513,
        546,
        419,
        132,
        1,
        2,
        3,
        4,
        1,
        2,
        3,
        4,
        33,
        898,
        771,
        804,
        901,
        774,
        807,
        136,
        5,
        6,
        7,
        8,
        5,
        6,
        7,
        8,
        5,
        38,
        391,
        264,
        261,
        262,
        263,
        296,
        133,
        6,
        39,
        1160,
        1029,
        1030,
        1031,
        1032,
        1029,
        1126,
        663,
        520,
        517,
        518,
        551,
        1176,
        1029,
        1030,
        1031,
        1064,
        133,
        6,
        7,
        8,
        5,
        6,
        7,
        8,
        5,
        6,
        7,
        8,
        5,
        6,
        7,
        8,
        5,
        6,
        7,
        8,
        37,
        390,
        263,
        264,
        261,
        262,
        295,
        136,
        5,
        6,
        7,
        8,
        5,
        6,
        7,
        8,
        5,
        6,
        7,
        8,
        5,
        6,
        7,
        8,
        5,
        6,
        7,
        8,
        5,
        6,
        7,
        8,
        5,
        6,
        7,
        8,
        5,
        6,
        7,
        8,
        5,
        6,
        7,
        8,
        5,
        6,
        7,
        8,
        37,
        422,
        647,
        520,
        517,
        550,
        423,
        136,
        5,
        6,
        7,
        8,
        5,
        6,
        7,
        8,
        5,
        6,
        7,
        8,
        5,
        6,
        7,
        8,
        5,
        6,
        7,
        8,
        5,
        6,
        7,
        8,
        5,
        38,
        391,
        264,
        261,
        262,
        263,
        296,
        133,
        6,
        39,
        1160,
        1029,
        1030,
        1031,
        1032,
        1029,
        1126,
        663,
        520,
        517,
        518,
        551,
        1176,
        1029,
        1030,
        1031,
        1064,
        133,
        6,
        7,
        8,
        5,
        6,
        7,
        8,
        5,
        6,
        7,
        8,
        5,
        6,
        7,
        8,
        5,
        6,
        7,
        8,
        37,
        390,
        263,
        264,
        261,
        262,
        295,
        136,
        5,
        6,
        7,
        8,
        5,
        6,
        7,
        8,
        5,
        6,
        7,
        8,
        5,
        6,
        7,
        8,
        5,
        6,
        7,
        8,
        5,
        6,
        7,
        8,
        5,
        6,
        7,
        8,
        5,
        6,
        7,
        8,
        5,
        6,
        7,
        8,
        5,
        6,
        7,
        8,
        37,
        422,
        647,
        520,
        517,
        550,
        423,
        136,
        5,
        6,
        7,
        8,
        5,
        6,
        7,
        8,
        37,
        902,
        775,
        808,
        905,
        778,
        811,
        140,
        9,
        10,
        11,
        12,
        9,
        10,
        11,
        12,
        9,
        42,
        395,
        268,
        265,
        266,
        267,
        300,
        137,
        10,
        43,
        1164,
        1033,
        1034,
        1035,
        1036,
        1065,
        666,
        523,
        524,
        521,
        522,
        619,
        1164,
        1033,
        1034,
        1035,
        1068,
        137,
        10,
        11,
        12,
        9,
        10,
        11,
        12,
        9,
        10,
        11,
        12,
        9,
        10,
        11,
        12,
        9,
        10,
        11,
        12,
        41,
        394,
        267,
        268,
        265,
        266,
        299,
        140,
        9,
        10,
        11,
        12,
        9,
        10,
        11,
        12,
        9,
        10,
        11,
        12,
        9,
        10,
        11,
        12,
        9,
        10,
        11,
        12,
        9,
        10,
        11,
        12,
        9,
        10,
        11,
        12,
        9,
        10,
        11,
        12,
        9,
        10,
        11,
        12,
        9,
        10,
        11,
        12,
        41,
        426,
        651,
        524,
        521,
        554,
        427,
        140,
        9,
        10,
        11,
        12,
        9,
        10,
        11,
        12,
        9,
        10,
        11,
        12,
        9,
        10,
        11,
        12,
        9,
        10,
        11,
        12,
        9,
        10,
        11,
        12,
        9,
        42,
        395,
        268,
        265,
        266,
        267,
        300,
        137,
        10,
        43,
        1164,
        1033,
        1034,
        1035,
        1036,
        1065,
        666,
        523,
        524,
        521,
        522,
        619,
        1164,
        1033,
        1034,
        1035,
        1068,
        137,
        10,
        11,
        12,
        9,
        10,
        11,
        12,
        9,
        10,
        11,
        12,
        9,
        10,
        11,
        12,
        9,
        10,
        11,
        12,
        41,
        394,
        267,
        268,
        265,
        266,
        299,
        140,
        9,
        10,
        11,
        12,
        9,
        10,
        11,
        12,
        9,
        10,
        11,
        12,
        9,
        10,
        11,
        12,
        9,
        10,
        11,
        12,
        9,
        10,
        11,
        12,
        9,
        10,
        11,
        12,
        9,
        10,
        11,
        12,
        9,
        10,
        11,
        12,
        9,
        10,
        11,
        12,
        41,
        426,
        651,
        524,
        521,
        554,
        427,
        140,
        9,
        10,
        11,
        12,
        9,
        10,
        11,
        12,
        41,
        906,
        779,
        812,
        909,
        782,
        815,
        144,
        13,
        14,
        15,
        16,
        13,
        14,
        15,
        16,
        13,
        46,
        399,
        272,
        269,
        270,
        271,
        304,
        141,
        14,
        47,
        1168,
        1037,
        1038,
        1039,
        1040,
        1133,
        654,
        527,
        528,
        525,
        622,
        1183,
        1040,
        1037,
        1038,
        1039,
        1072,
        141,
        14,
        15,
        16,
        13,
        14,
        15,
        16,
        13,
        14,
        15,
        16,
        13,
        14,
        15,
        16,
        13,
        14,
        15,
        16,
        45,
        398,
        271,
        272,
        269,
        270,
        303,
        144,
        13,
        14,
        15,
        16,
        13,
        14,
        15,
        16,
        13,
        14,
        15,
        16,
        13,
        14,
        15,
        16,
        13,
        14,
        15,
        16,
        13,
        14,
        15,
        16,
        13,
        14,
        15,
        16,
        13,
        14,
        15,
        16,
        13,
        14,
        15,
        16,
        13,
        14,
        15,
        16,
        45,
        430,
        655,
        528,
        525,
        558,
        431,
        144,
        13,
        14,
        15,
        16,
        13,
        14,
        15,
        16,
        13,
        14,
        15,
        16,
        13,
        14,
        15,
        16,
        13,
        14,
        15,
        16,
        13,
        14,
        15,
        16,
        13,
        46,
        399,
        272,
        269,
        270,
        271,
        304,
        141,
        14,
        47,
        1168,
        1037,
        1038,
        1039,
        1040,
        1133,
        654,
        527,
        528,
        525,
        622,
        1183,
        1040,
        1037,
        1038,
        1039,
        1072,
        141,
        14,
        15,
        16,
        13,
        14,
        15,
        16,
        13,
        14,
        15,
        16,
        13,
        14,
        15,
        16,
        13,
        14,
        15,
        16,
        45,
        398,
        271,
        272,
        269,
        270,
        303,
        144,
        13,
        14,
        15,
        16,
        13,
        14,
        15,
        16,
        13,
        14,
        15,
        16,
        13,
        14,
        15,
        16,
        13,
        14,
        15,
        16,
        13,
        14,
        15,
        16,
        13,
        14,
        15,
        16,
        13,
        14,
        15,
        16,
        13,
        14,
        15,
        16,
        13,
        14,
        15,
        16,
        45,
        430,
        655,
        528,
        525,
        558,
        431,
        144,
        13,
        14,
        15,
        16,
        13,
        14,
        15,
        16,
        45,
        910,
        783,
        816,
        897,
        770,
        803,
        132,
        1,
        2,
        3,
        4,
        1,
        2,
        3,
        4,
        1,
        34,
        387,
        260,
        257,
        258,
        259,
        292,
        193,
        66,
        99,
        1156,
        1025,
        1026,
        1027,
        1060,
        721,
        578,
        515,
        516,
        545,
        1170,
        1027,
        1028,
        1025,
        1026,
        1027,
        1060,
        193,
        66,
        67,
        68,
        65,
        66,
        67,
        68,
        65,
        66,
        67,
        68,
        65,
        66,
        67,
        68,
        65,
        66,
        67,
        68,
        97,
        386,
        259,
        260,
        257,
        258,
        291,
        196,
        65,
        66,
        67,
        68,
        65,
        66,
        67,
        68,
        65,
        66,
        67,
        68,
        65,
        66,
        67,
        68,
        65,
        66,
        67,
        68,
        65,
        66,
        67,
        68,
        65,
        66,
        67,
        68,
        65,
        66,
        67,
        68,
        65,
        66,
        67,
        68,
        65,
        66,
        67,
        68,
        97,
        418,
        643,
        580,
        577,
        610,
        419,
        196,
        65,
        66,
        67,
        68,
        65,
        66,
        67,
        68,
        65,
        66,
        67,
        68,
        65,
        66,
        67,
        68,
        65,
        66,
        67,
        68,
        65,
        66,
        67,
        68,
        65,
        98,
        387,
        260,
        257,
        258,
        259,
        292,
        193,
        66,
        99,
        1156,
        1025,
        1026,
        1027,
        1060,
        721,
        578,
        515,
        516,
        545,
        1170,
        1027,
        1028,
        1025,
        1026,
        1027,
        1060,
        193,
        66,
        67,
        68,
        65,
        66,
        67,
        68,
        65,
        66,
        67,
        68,
        65,
        66,
        67,
        68,
        65,
        66,
        67,
        68,
        97,
        386,
        259,
        260,
        257,
        258,
        291,
        196,
        65,
        66,
        67,
        68,
        65,
        66,
        67,
        68,
        65,
        66,
        67,
        68,
        65,
        66,
        67,
        68,
        65,
        66,
        67,
        68,
        65,
        66,
        67,
        68,
        65,
        66,
        67,
        68,
        65,
        66,
        67,
        68,
        65,
        66,
        67,
        68,
        65,
        66,
        67,
        68,
        97,
        418,
        643,
        516,
        513,
        546,
        419,
        132,
        1,
        2,
        3,
        4,
        1,
        2,
        3,
        4,
        33,
        898,
        771,
        804,
        901,
        774,
        807,
        136,
        5,
        6,
        7,
        8,
        5,
        6,
        7,
        8,
        5,
        38,
        391,
        264,
        261,
        262,
        263,
        264,
        277,
        278,
        311,
        1160,
        1029,
        1030,
        1031,
        1032,
        1045,
        1078,
        711,
        520,
        613,
        1158,
        1031,
        1032,
        1029,
        1030,
        1031,
        1064,
        405,
        278,
        279,
        280,
        277,
        278,
        279,
        280,
        277,
        278,
        279,
        280,
        277,
        278,
        279,
        280,
        277,
        278,
        279,
        280,
        277,
        262,
        263,
        264,
        261,
        262,
        263,
        280,
        277,
        278,
        279,
        280,
        277,
        278,
        279,
        280,
        277,
        278,
        279,
        280,
        277,
        278,
        279,
        280,
        277,
        278,
        279,
        280,
        277,
        278,
        279,
        280,
        277,
        278,
        279,
        280,
        277,
        278,
        279,
        280,
        277,
        278,
        279,
        280,
        277,
        278,
        279,
        280,
        277,
        294,
        679,
        408,
        277,
        278,
        263,
        280,
        277,
        278,
        279,
        280,
        277,
        278,
        279,
        280,
        277,
        278,
        279,
        280,
        277,
        278,
        279,
        280,
        277,
        278,
        279,
        280,
        277,
        278,
        279,
        280,
        277,
        278,
        263,
        264,
        261,
        262,
        263,
        264,
        277,
        278,
        311,
        1160,
        1029,
        1030,
        1031,
        1032,
        1045,
        1078,
        711,
        520,
        613,
        1158,
        1031,
        1032,
        1029,
        1030,
        1031,
        1064,
        405,
        278,
        279,
        280,
        277,
        278,
        279,
        280,
        277,
        278,
        279,
        280,
        277,
        278,
        279,
        280,
        277,
        278,
        279,
        280,
        277,
        262,
        263,
        264,
        261,
        262,
        263,
        280,
        277,
        278,
        279,
        280,
        277,
        278,
        279,
        280,
        277,
        278,
        279,
        280,
        277,
        278,
        279,
        280,
        277,
        278,
        279,
        280,
        277,
        278,
        279,
        280,
        277,
        278,
        279,
        280,
        277,
        278,
        279,
        280,
        277,
        278,
        279,
        280,
        277,
        278,
        279,
        280,
        277,
        294,
        647,
        520,
        517,
        550,
        423,
        136,
        5,
        6,
        7,
        8,
        5,
        6,
        7,
        8,
        37,
        902,
        775,
        808,
        905,
        778,
        811,
        140,
        9,
        10,
        11,
        12,
        9,
        10,
        11,
        12,
        9,
        42,
        395,
        268,
        265,
        266,
        267,
        268,
        265,
        266,
        299,
        1164,
        1033,
        1034,
        1035,
        1036,
        1033,
        1034,
        1083,
        748,
        1177,
        1034,
        1035,
        1036,
        1033,
        1034,
        1035,
        1068,
        393,
        266,
        267,
        268,
        265,
        266,
        267,
        268,
        265,
        266,
        267,
        268,
        265,
        266,
        267,
        268,
        265,
        266,
        267,
        268,
        265,
        266,
        267,
        268,
        265,
        266,
        267,
        268,
        265,
        266,
        267,
        268,
        265,
        266,
        267,
        268,
        265,
        266,
        267,
        268,
        265,
        266,
        267,
        268,
        265,
        266,
        267,
        268,
        265,
        266,
        267,
        268,
        265,
        266,
        267,
        268,
        265,
        266,
        267,
        268,
        265,
        266,
        267,
        268,
        265,
        266,
        267,
        268,
        265,
        298,
        747,
        396,
        265,
        266,
        267,
        268,
        265,
        266,
        267,
        268,
        265,
        266,
        267,
        268,
        265,
        266,
        267,
        268,
        265,
        266,
        267,
        268,
        265,
        266,
        267,
        268,
        265,
        266,
        267,
        268,
        265,
        266,
        267,
        268,
        265,
        266,
        267,
        268,
        265,
        266,
        299,
        1164,
        1033,
        1034,
        1035,
        1036,
        1033,
        1034,
        1083,
        748,
        1177,
        1034,
        1035,
        1036,
        1033,
        1034,
        1035,
        1068,
        393,
        266,
        267,
        268,
        265,
        266,
        267,
        268,
        265,
        266,
        267,
        268,
        265,
        266,
        267,
        268,
        265,
        266,
        267,
        268,
        265,
        266,
        267,
        268,
        265,
        266,
        267,
        268,
        265,
        266,
        267,
        268,
        265,
        266,
        267,
        268,
        265,
        266,
        267,
        268,
        265,
        266,
        267,
        268,
        265,
        266,
        267,
        268,
        265,
        266,
        267,
        268,
        265,
        266,
        267,
        268,
        265,
        266,
        267,
        268,
        265,
        266,
        267,
        268,
        265,
        266,
        267,
        268,
        265,
        298,
        715,
        588,
        585,
        618,
        427,
        140,
        9,
        10,
        11,
        12,
        9,
        10,
        11,
        12,
        41,
        906,
        779,
        812,
        909,
        782,
        815,
        144,
        13,
        14,
        15,
        16,
        13,
        14,
        15,
        16,
        13,
        46,
        399,
        272,
        269,
        270,
        271,
        272,
        269,
        270,
        303,
        1168,
        1037,
        1038,
        1039,
        1040,
        1037,
        1038,
        1039,
        1056,
        1037,
        1038,
        1039,
        1040,
        1037,
        1038,
        1039,
        1072,
        397,
        270,
        271,
        272,
        269,
        270,
        271,
        272,
        269,
        270,
        271,
        272,
        269,
        270,
        271,
        272,
        269,
        270,
        271,
        272,
        269,
        270,
        271,
        272,
        269,
        270,
        271,
        272,
        269,
        270,
        271,
        272,
        269,
        270,
        271,
        272,
        269,
        270,
        271,
        272,
        269,
        270,
        271,
        272,
        269,
        270,
        271,
        272,
        269,
        270,
        271,
        272,
        269,
        270,
        271,
        272,
        269,
        270,
        271,
        272,
        269,
        270,
        271,
        272,
        269,
        270,
        271,
        272,
        269,
        270,
        287,
        272,
        269,
        270,
        271,
        272,
        269,
        270,
        271,
        272,
        269,
        270,
        271,
        272,
        269,
        270,
        271,
        272,
        269,
        270,
        271,
        272,
        269,
        270,
        271,
        272,
        269,
        270,
        271,
        272,
        269,
        270,
        271,
        272,
        269,
        270,
        271,
        272,
        269,
        270,
        303,
        1168,
        1037,
        1038,
        1039,
        1040,
        1037,
        1038,
        1039,
        1056,
        1037,
        1038,
        1039,
        1040,
        1037,
        1038,
        1039,
        1072,
        397,
        270,
        271,
        272,
        269,
        270,
        271,
        272,
        269,
        270,
        271,
        272,
        269,
        270,
        271,
        272,
        269,
        270,
        271,
        272,
        269,
        270,
        271,
        272,
        269,
        270,
        271,
        272,
        269,
        270,
        271,
        272,
        269,
        270,
        271,
        272,
        269,
        270,
        271,
        272,
        269,
        270,
        271,
        272,
        269,
        270,
        271,
        272,
        269,
        270,
        271,
        272,
        269,
        270,
        271,
        272,
        269,
        270,
        271,
        272,
        269,
        270,
        271,
        272,
        269,
        270,
        271,
        272,
        269,
        270,
        287,
        288,
        285,
        286,
        303,
        144,
        13,
        14,
        15,
        16,
        13,
        14,
        15,
        16,
        45,
        910,
        783,
        816,
        897,
        770,
        803,
        132,
        1,
        2,
        3,
        4,
        1,
        2,
        3,
        4,
        1,
        34,
        387,
        260,
        257,
        258,
        259,
        260,
        257,
        258,
        291,
        1156,
        1025,
        1026,
        1027,
        1028,
        1025,
        1026,
        1027,
        1028,
        1025,
        1026,
        1027,
        1028,
        1025,
        1026,
        1027,
        1060,
        385,
        258,
        259,
        260,
        257,
        258,
        259,
        260,
        257,
        258,
        259,
        260,
        257,
        258,
        259,
        260,
        257,
        258,
        259,
        260,
        257,
        258,
        259,
        260,
        257,
        258,
        259,
        260,
        257,
        258,
        259,
        260,
        257,
        258,
        259,
        260,
        257,
        258,
        259,
        260,
        257,
        258,
        259,
        260,
        257,
        258,
        259,
        260,
        257,
        258,
        259,
        260,
        257,
        258,
        259,
        260,
        257,
        258,
        259,
        260,
        257,
        258,
        259,
        260,
        257,
        258,
        259,
        260,
        257,
        258,
        259,
        260,
        257,
        258,
        259,
        260,
        257,
        258,
        259,
        260,
        257,
        258,
        259,
        260,
        257,
        258,
        259,
        260,
        257,
        258,
        259,
        260,
        257,
        258,
        259,
        260,
        257,
        258,
        259,
        260,
        257,
        258,
        259,
        260,
        257,
        258,
        259,
        260,
        257,
        258,
        291,
        1156,
        1025,
        1026,
        1027,
        1028,
        1025,
        1026,
        1027,
        1028,
        1025,
        1026,
        1027,
        1028,
        1025,
        1026,
        1027,
        1060,
        385,
        258,
        259,
        260,
        257,
        258,
        259,
        260,
        257,
        258,
        259,
        260,
        257,
        258,
        259,
        260,
        257,
        258,
        259,
        260,
        257,
        258,
        259,
        260,
        257,
        258,
        259,
        260,
        257,
        258,
        259,
        260,
        257,
        258,
        259,
        260,
        257,
        258,
        259,
        260,
        257,
        258,
        259,
        260,
        257,
        258,
        259,
        260,
        257,
        258,
        259,
        260,
        257,
        258,
        259,
        260,
        257,
        258,
        259,
        260,
        257,
        258,
        259,
        260,
        257,
        258,
        259,
        260,
        257,
        258,
        259,
        260,
        257,
        258,
        291,
        132,
        1,
        2,
        3,
        4,
        1,
        2,
        3,
        4,
        33,
        898,
        771,
        804,
        901,
        774,
        807,
        136,
        5,
        6,
        7,
        8,
        5,
        6,
        7,
        8,
        5,
        38,
        391,
        264,
        261,
        262,
        263,
        264,
        261,
        262,
        295,
        1160,
        1029,
        1030,
        1031,
        1032,
        1029,
        1030,
        1031,
        1032,
        1029,
        1030,
        1031,
        1032,
        1029,
        1030,
        1031,
        1064,
        389,
        262,
        263,
        264,
        261,
        262,
        263,
        264,
        261,
        262,
        263,
        264,
        261,
        262,
        263,
        264,
        261,
        262,
        263,
        264,
        261,
        262,
        263,
        264,
        261,
        262,
        263,
        264,
        261,
        262,
        263,
        264,
        261,
        262,
        263,
        264,
        261,
        262,
        263,
        264,
        261,
        262,
        263,
        264,
        261,
        262,
        263,
        264,
        261,
        262,
        263,
        264,
        261,
        262,
        263,
        264,
        261,
        262,
        263,
        264,
        261,
        262,
        263,
        264,
        261,
        262,
        263,
        264,
        261,
        262,
        263,
        264,
        261,
        262,
        263,
        264,
        261,
        262,
        263,
        264,
        261,
        262,
        263,
        264,
        261,
        262,
        263,
        264,
        261,
        262,
        263,
        264,
        261,
        262,
        263,
        264,
        261,
        262,
        263,
        264,
        261,
        262,
        263,
        264,
        261,
        262,
        263,
        264,
        261,
        262,
        295,
        1160,
        1029,
        1030,
        1031,
        1032,
        1029,
        1030,
        1031,
        1032,
        1029,
        1030,
        1031,
        1032,
        1029,
        1030,
        1031,
        1064,
        389,
        262,
        263,
        264,
        261,
        262,
        263,
        264,
        261,
        262,
        263,
        264,
        261,
        262,
        263,
        264,
        261,
        262,
        263,
        264,
        261,
        262,
        263,
        264,
        261,
        262,
        263,
        264,
        261,
        262,
        263,
        264,
        261,
        262,
        263,
        264,
        261,
        262,
        263,
        264,
        261,
        262,
        263,
        264,
        261,
        262,
        263,
        264,
        261,
        262,
        263,
        264,
        261,
        262,
        263,
        264,
        261,
        262,
        263,
        264,
        261,
        262,
        263,
        264,
        261,
        262,
        263,
        264,
        261,
        262,
        263,
        264,
        261,
        262,
        295,
        136,
        5,
        6,
        7,
        8,
        5,
        6,
        7,
        8,
        37,
        902,
        775,
        808,
        905,
        778,
        811,
        140,
        9,
        10,
        11,
        12,
        9,
        10,
        11,
        12,
        9,
        42,
        395,
        268,
        265,
        266,
        267,
        268,
        329,
        330,
        363,
        1228,
        1033,
        1034,
        1035,
        1036,
        1033,
        1034,
        1035,
        1036,
        1033,
        1034,
        1035,
        1036,
        1033,
        1034,
        1035,
        1132,
        457,
        330,
        331,
        332,
        329,
        330,
        331,
        332,
        329,
        330,
        331,
        332,
        329,
        330,
        331,
        332,
        329,
        330,
        331,
        332,
        329,
        266,
        267,
        268,
        265,
        266,
        267,
        332,
        329,
        330,
        331,
        332,
        329,
        330,
        331,
        332,
        329,
        330,
        331,
        332,
        329,
        330,
        331,
        332,
        329,
        330,
        331,
        332,
        329,
        330,
        331,
        332,
        329,
        330,
        331,
        332,
        329,
        330,
        331,
        332,
        329,
        330,
        331,
        332,
        329,
        330,
        331,
        332,
        329,
        266,
        267,
        268,
        265,
        266,
        267,
        332,
        329,
        330,
        331,
        332,
        329,
        330,
        331,
        332,
        329,
        330,
        331,
        332,
        329,
        330,
        331,
        332,
        329,
        330,
        331,
        332,
        329,
        330,
        331,
        332,
        329,
        330,
        267,
        268,
        265,
        266,
        267,
        268,
        329,
        330,
        363,
        1228,
        1033,
        1034,
        1035,
        1036,
        1033,
        1034,
        1035,
        1036,
        1033,
        1034,
        1035,
        1036,
        1033,
        1034,
        1035,
        1132,
        457,
        330,
        331,
        332,
        329,
        330,
        331,
        332,
        329,
        330,
        331,
        332,
        329,
        330,
        331,
        332,
        329,
        330,
        331,
        332,
        329,
        266,
        267,
        268,
        265,
        266,
        267,
        332,
        329,
        330,
        331,
        332,
        329,
        330,
        331,
        332,
        329,
        330,
        331,
        332,
        329,
        330,
        331,
        332,
        329,
        330,
        331,
        332,
        329,
        330,
        331,
        332,
        329,
        330,
        331,
        332,
        329,
        330,
        331,
        332,
        329,
        330,
        331,
        332,
        329,
        330,
        331,
        332,
        329,
        266,
        267,
        268,
        265,
        266,
        299,
        140,
        9,
        10,
        11,
        12,
        9,
        10,
        11,
        12,
        41,
        906,
        779,
        812,
        909,
        782,
        815,
        144,
        13,
        14,
        15,
        16,
        13,
        14,
        15,
        16,
        13,
        46,
        399,
        272,
        269,
        270,
        271,
        304,
        157,
        30,
        31,
        64,
        1229,
        1102,
        1103,
        1104,
        1101,
        1102,
        1103,
        1104,
        1101,
        1102,
        1103,
        1104,
        1101,
        1102,
        1135,
        160,
        29,
        30,
        31,
        32,
        29,
        30,
        31,
        32,
        29,
        30,
        31,
        32,
        29,
        30,
        31,
        32,
        29,
        30,
        31,
        32,
        61,
        398,
        271,
        272,
        269,
        270,
        303,
        160,
        29,
        30,
        31,
        32,
        29,
        30,
        31,
        32,
        29,
        30,
        31,
        32,
        29,
        30,
        31,
        32,
        29,
        30,
        31,
        32,
        29,
        30,
        31,
        32,
        29,
        30,
        31,
        32,
        29,
        30,
        31,
        32,
        29,
        30,
        31,
        32,
        29,
        30,
        31,
        32,
        61,
        398,
        271,
        272,
        269,
        270,
        303,
        160,
        29,
        30,
        31,
        32,
        29,
        30,
        31,
        32,
        29,
        30,
        31,
        32,
        29,
        30,
        31,
        32,
        29,
        30,
        31,
        32,
        29,
        30,
        31,
        32,
        29,
        62,
        399,
        272,
        269,
        270,
        271,
        304,
        157,
        30,
        31,
        64,
        1229,
        1102,
        1103,
        1104,
        1101,
        1102,
        1103,
        1104,
        1101,
        1102,
        1103,
        1104,
        1101,
        1102,
        1135,
        160,
        29,
        30,
        31,
        32,
        29,
        30,
        31,
        32,
        29,
        30,
        31,
        32,
        29,
        30,
        31,
        32,
        29,
        30,
        31,
        32,
        61,
        398,
        271,
        272,
        269,
        270,
        303,
        160,
        29,
        30,
        31,
        32,
        29,
        30,
        31,
        32,
        29,
        30,
        31,
        32,
        29,
        30,
        31,
        32,
        29,
        30,
        31,
        32,
        29,
        30,
        31,
        32,
        29,
        30,
        31,
        32,
        29,
        30,
        31,
        32,
        29,
        30,
        31,
        32,
        29,
        30,
        31,
        32,
        61,
        398,
        271,
        272,
        269,
        270,
        303,
        144,
        13,
        14,
        15,
        16,
        13,
        14,
        15,
        16,
        45,
        910,
        783,
        816,
        897,
        770,
        803,
        132,
        1,
        2,
        3,
        4,
        1,
        2,
        3,
        4,
        1,
        34,
        387,
        260,
        257,
        258,
        259,
        292,
        129,
        2,
        3,
        4,
        17,
        18,
        19,
        20,
        17,
        18,
        19,
        20,
        17,
        18,
        19,
        20,
        17,
        18,
        19,
        4,
        1,
        2,
        3,
        4,
        1,
        2,
        3,
        4,
        1,
        2,
        3,
        4,
        1,
        2,
        3,
        4,
        1,
        2,
        3,
        4,
        33,
        386,
        259,
        260,
        257,
        258,
        291,
        132,
        1,
        2,
        3,
        4,
        1,
        2,
        3,
        4,
        1,
        2,
        3,
        4,
        1,
        2,
        3,
        4,
        1,
        2,
        3,
        4,
        1,
        2,
        3,
        4,
        1,
        2,
        3,
        4,
        1,
        2,
        3,
        4,
        1,
        2,
        3,
        4,
        1,
        2,
        3,
        4,
        33,
        386,
        259,
        260,
        257,
        258,
        291,
        132,
        1,
        2,
        3,
        4,
        1,
        2,
        3,
        4,
        1,
        2,
        3,
        4,
        1,
        2,
        3,
        4,
        1,
        2,
        3,
        4,
        1,
        2,
        3,
        4,
        1,
        34,
        387,
        260,
        257,
        258,
        259,
        292,
        129,
        2,
        3,
        4,
        17,
        18,
        19,
        20,
        17,
        18,
        19,
        20,
        17,
        18,
        19,
        20,
        17,
        18,
        19,
        4,
        1,
        2,
        3,
        4,
        1,
        2,
        3,
        4,
        1,
        2,
        3,
        4,
        1,
        2,
        3,
        4,
        1,
        2,
        3,
        4,
        33,
        386,
        259,
        260,
        257,
        258,
        291,
        132,
        1,
        2,
        3,
        4,
        1,
        2,
        3,
        4,
        1,
        2,
        3,
        4,
        1,
        2,
        3,
        4,
        1,
        2,
        3,
        4,
        1,
        2,
        3,
        4,
        1,
        2,
        3,
        4,
        1,
        2,
        3,
        4,
        1,
        2,
        3,
        4,
        1,
        2,
        3,
        4,
        33,
        386,
        259,
        260,
        257,
        258,
        291,
        132,
        1,
        2,
        3,
        4,
        1,
        2,
        3,
        4,
        33,
        898,
        771,
        804,
        901,
        774,
        807,
        136,
        5,
        6,
        7,
        8,
        5,
        6,
        7,
        8,
        5,
        38,
        391,
        264,
        261,
        262,
        263,
        296,
        133,
        6,
        7,
        8,
        5,
        6,
        7,
        8,
        5,
        6,
        7,
        8,
        5,
        6,
        7,
        8,
        5,
        6,
        7,
        8,
        5,
        6,
        7,
        8,
        5,
        6,
        7,
        8,
        5,
        6,
        7,
        8,
        5,
        6,
        7,
        8,
        5,
        6,
        7,
        8,
        37,
        390,
        263,
        264,
        261,
        262,
        295,
        136,
        5,
        6,
        7,
        8,
        5,
        6,
        7,
        8,
        5,
        6,
        7,
        8,
        5,
        6,
        7,
        8,
        5,
        6,
        7,
        8,
        5,
        6,
        7,
        8,
        5,
        6,
        7,
        8,
        5,
        6,
        7,
        8,
        5,
        6,
        7,
        8,
        5,
        6,
        7,
        8,
        37,
        390,
        263,
        264,
        261,
        262,
        295,
        136,
        5,
        6,
        7,
        8,
        5,
        6,
        7,
        8,
        5,
        6,
        7,
        8,
        5,
        6,
        7,
        8,
        5,
        6,
        7,
        8,
        5,
        6,
        7,
        8,
        5,
        38,
        391,
        264,
        261,
        262,
        263,
        296,
        133,
        6,
        7,
        8,
        5,
        6,
        7,
        8,
        5,
        6,
        7,
        8,
        5,
        6,
        7,
        8,
        5,
        6,
        7,
        8,
        5,
        6,
        7,
        8,
        5,
        6,
        7,
        8,
        5,
        6,
        7,
        8,
        5,
        6,
        7,
        8,
        5,
        6,
        7,
        8,
        37,
        390,
        263,
        264,
        261,
        262,
        295,
        136,
        5,
        6,
        7,
        8,
        5,
        6,
        7,
        8,
        5,
        6,
        7,
        8,
        5,
        6,
        7,
        8,
        5,
        6,
        7,
        8,
        5,
        6,
        7,
        8,
        5,
        6,
        7,
        8,
        5,
        6,
        7,
        8,
        5,
        6,
        7,
        8,
        5,
        6,
        7,
        8,
        37,
        390,
        263,
        264,
        261,
        262,
        295,
        136,
        5,
        6,
        7,
        8,
        5,
        6,
        7,
        8,
        37,
        902,
        775,
        808,
        905,
        778,
        811,
        140,
        9,
        10,
        11,
        12,
        9,
        10,
        11,
        12,
        9,
        42,
        459,
        268,
        265,
        266,
        267,
        300,
        201,
        10,
        11,
        12,
        9,
        10,
        11,
        12,
        9,
        10,
        11,
        12,
        9,
        10,
        11,
        12,
        9,
        10,
        11,
        12,
        9,
        10,
        11,
        12,
        9,
        10,
        11,
        12,
        9,
        10,
        11,
        12,
        9,
        10,
        11,
        12,
        9,
        10,
        11,
        12,
        41,
        394,
        267,
        268,
        265,
        266,
        299,
        140,
        9,
        10,
        11,
        12,
        9,
        10,
        11,
        12,
        9,
        10,
        11,
        12,
        9,
        10,
        11,
        12,
        9,
        10,
        11,
        12,
        9,
        10,
        11,
        12,
        9,
        10,
        11,
        12,
        9,
        10,
        11,
        12,
        9,
        10,
        11,
        12,
        9,
        10,
        11,
        12,
        105,
        394,
        267,
        268,
        265,
        266,
        363,
        140,
        9,
        10,
        11,
        12,
        9,
        10,
        11,
        12,
        9,
        10,
        11,
        12,
        9,
        10,
        11,
        12,
        9,
        10,
        11,
        12,
        9,
        10,
        11,
        12,
        9,
        42,
        459,
        268,
        265,
        266,
        267,
        300,
        201,
        10,
        11,
        12,
        9,
        10,
        11,
        12,
        9,
        10,
        11,
        12,
        9,
        10,
        11,
        12,
        9,
        10,
        11,
        12,
        9,
        10,
        11,
        12,
        9,
        10,
        11,
        12,
        9,
        10,
        11,
        12,
        9,
        10,
        11,
        12,
        9,
        10,
        11,
        12,
        41,
        394,
        267,
        268,
        265,
        266,
        299,
        140,
        9,
        10,
        11,
        12,
        9,
        10,
        11,
        12,
        9,
        10,
        11,
        12,
        9,
        10,
        11,
        12,
        9,
        10,
        11,
        12,
        9,
        10,
        11,
        12,
        9,
        10,
        11,
        12,
        9,
        10,
        11,
        12,
        9,
        10,
        11,
        12,
        9,
        10,
        11,
        12,
        105,
        394,
        267,
        268,
        265,
        266,
        363,
        140,
        9,
        10,
        11,
        12,
        9,
        10,
        11,
        12,
        41,
        906,
        779,
        812,
        909,
        782,
        815,
        144,
        13,
        14,
        15,
        16,
        13,
        14,
        15,
        16,
        13,
        14,
        63,
        400,
        269,
        270,
        271,
        272,
        317,
        142,
        15,
        16,
        13,
        14,
        15,
        16,
        13,
        14,
        15,
        16,
        13,
        14,
        15,
        16,
        13,
        14,
        15,
        16,
        13,
        14,
        15,
        16,
        13,
        14,
        15,
        16,
        13,
        14,
        15,
        16,
        13,
        14,
        15,
        16,
        13,
        14,
        15,
        16,
        45,
        398,
        271,
        272,
        269,
        270,
        303,
        144,
        13,
        14,
        15,
        16,
        13,
        14,
        15,
        16,
        13,
        14,
        15,
        16,
        13,
        14,
        15,
        16,
        13,
        14,
        15,
        16,
        13,
        14,
        15,
        16,
        13,
        14,
        15,
        16,
        13,
        14,
        15,
        16,
        13,
        14,
        15,
        16,
        13,
        14,
        15,
        48,
        413,
        270,
        271,
        272,
        269,
        302,
        159,
        16,
        13,
        14,
        15,
        16,
        13,
        14,
        15,
        16,
        13,
        14,
        15,
        16,
        13,
        14,
        15,
        16,
        13,
        14,
        15,
        16,
        13,
        14,
        15,
        16,
        13,
        14,
        63,
        400,
        269,
        270,
        271,
        272,
        317,
        142,
        15,
        16,
        13,
        14,
        15,
        16,
        13,
        14,
        15,
        16,
        13,
        14,
        15,
        16,
        13,
        14,
        15,
        16,
        13,
        14,
        15,
        16,
        13,
        14,
        15,
        16,
        13,
        14,
        15,
        16,
        13,
        14,
        15,
        16,
        13,
        14,
        15,
        16,
        45,
        398,
        271,
        272,
        269,
        270,
        303,
        144,
        13,
        14,
        15,
        16,
        13,
        14,
        15,
        16,
        13,
        14,
        15,
        16,
        13,
        14,
        15,
        16,
        13,
        14,
        15,
        16,
        13,
        14,
        15,
        16,
        13,
        14,
        15,
        16,
        13,
        14,
        15,
        16,
        13,
        14,
        15,
        16,
        13,
        14,
        15,
        48,
        413,
        270,
        271,
        272,
        269,
        302,
        159,
        16,
        13,
        14,
        15,
        16,
        13,
        14,
        15,
        16,
        45,
        910,
        783,
        816,
        897,
        770,
        803,
        132,
        1,
        2,
        3,
        4,
        1,
        2,
        3,
        4,
        1,
        2,
        35,
        388,
        257,
        258,
        259,
        260,
        289,
        194,
        3,
        4,
        1,
        2,
        3,
        4,
        1,
        2,
        3,
        4,
        1,
        2,
        3,
        4,
        1,
        2,
        3,
        4,
        1,
        2,
        3,
        4,
        1,
        2,
        3,
        4,
        1,
        2,
        3,
        4,
        1,
        2,
        3,
        4,
        1,
        2,
        3,
        4,
        33,
        386,
        259,
        260,
        257,
        258,
        291,
        132,
        1,
        2,
        3,
        4,
        1,
        2,
        3,
        4,
        1,
        2,
        3,
        4,
        1,
        2,
        3,
        4,
        1,
        2,
        3,
        4,
        1,
        2,
        3,
        4,
        1,
        2,
        3,
        4,
        1,
        2,
        3,
        4,
        1,
        2,
        3,
        4,
        1,
        2,
        3,
        100,
        385,
        258,
        259,
        260,
        257,
        290,
        131,
        4,
        1,
        2,
        3,
        4,
        1,
        2,
        3,
        4,
        1,
        2,
        3,
        4,
        1,
        2,
        3,
        4,
        1,
        2,
        3,
        4,
        1,
        2,
        3,
        4,
        1,
        2,
        35,
        388,
        257,
        258,
        259,
        260,
        289,
        194,
        3,
        4,
        1,
        2,
        3,
        4,
        1,
        2,
        3,
        4,
        1,
        2,
        3,
        4,
        1,
        2,
        3,
        4,
        1,
        2,
        3,
        4,
        1,
        2,
        3,
        4,
        1,
        2,
        3,
        4,
        1,
        2,
        3,
        4,
        1,
        2,
        3,
        4,
        33,
        386,
        259,
        260,
        257,
        258,
        291,
        132,
        1,
        2,
        3,
        4,
        1,
        2,
        3,
        4,
        1,
        2,
        3,
        4,
        1,
        2,
        3,
        4,
        1,
        2,
        3,
        4,
        1,
        2,
        3,
        4,
        1,
        2,
        3,
        4,
        1,
        2,
        3,
        4,
        1,
        2,
        3,
        4,
        1,
        2,
        3,
        100,
        385,
        258,
        259,
        260,
        257,
        290,
        131,
        4,
        1,
        2,
        3,
        4,
        1,
        2,
        3,
        4,
        33,
        898,
        771,
        804,
        901,
        774,
        807,
        136,
        5,
        6,
        7,
        8,
        5,
        6,
        7,
        8,
        5,
        6,
        39,
        456,
        261,
        262,
        263,
        264,
        261,
        310,
        199,
        8,
        5,
        6,
        7,
        8,
        5,
        6,
        7,
        8,
        5,
        6,
        7,
        8,
        5,
        6,
        7,
        8,
        5,
        6,
        7,
        8,
        5,
        6,
        7,
        8,
        5,
        6,
        7,
        8,
        5,
        6,
        7,
        8,
        5,
        6,
        7,
        8,
        37,
        390,
        263,
        264,
        261,
        262,
        295,
        136,
        5,
        6,
        7,
        8,
        5,
        6,
        7,
        8,
        5,
        6,
        7,
        8,
        5,
        6,
        7,
        8,
        5,
        6,
        7,
        8,
        5,
        6,
        7,
        8,
        5,
        6,
        7,
        8,
        5,
        6,
        7,
        8,
        5,
        6,
        7,
        8,
        5,
        6,
        103,
        408,
        261,
        262,
        263,
        264,
        261,
        358,
        135,
        8,
        5,
        6,
        7,
        8,
        5,
        6,
        7,
        8,
        5,
        6,
        7,
        8,
        5,
        6,
        7,
        8,
        5,
        6,
        7,
        8,
        5,
        6,
        7,
        8,
        5,
        6,
        39,
        456,
        261,
        262,
        263,
        264,
        261,
        310,
        199,
        8,
        5,
        6,
        7,
        8,
        5,
        6,
        7,
        8,
        5,
        6,
        7,
        8,
        5,
        6,
        7,
        8,
        5,
        6,
        7,
        8,
        5,
        6,
        7,
        8,
        5,
        6,
        7,
        8,
        5,
        6,
        7,
        8,
        5,
        6,
        7,
        8,
        37,
        390,
        263,
        264,
        261,
        262,
        295,
        136,
        5,
        6,
        7,
        8,
        5,
        6,
        7,
        8,
        5,
        6,
        7,
        8,
        5,
        6,
        7,
        8,
        5,
        6,
        7,
        8,
        5,
        6,
        7,
        8,
        5,
        6,
        7,
        8,
        5,
        6,
        7,
        8,
        5,
        6,
        7,
        8,
        5,
        6,
        103,
        408,
        261,
        262,
        263,
        264,
        261,
        358,
        135,
        8,
        5,
        6,
        7,
        8,
        5,
        6,
        7,
        8,
        37,
        902,
        775,
        808,
        905,
        778,
        811,
        140,
        9,
        10,
        11,
        12,
        9,
        10,
        11,
        12,
        9,
        10,
        11,
        60,
        393,
        266,
        267,
        268,
        265,
        266,
        315,
        204,
        9,
        10,
        11,
        12,
        9,
        10,
        11,
        12,
        9,
        10,
        11,
        12,
        9,
        10,
        11,
        12,
        9,
        10,
        11,
        12,
        9,
        10,
        11,
        12,
        9,
        10,
        11,
        12,
        9,
        10,
        11,
        12,
        9,
        10,
        11,
        12,
        41,
        394,
        267,
        268,
        265,
        266,
        299,
        140,
        9,
        10,
        11,
        12,
        9,
        10,
        11,
        12,
        9,
        10,
        11,
        12,
        9,
        10,
        11,
        12,
        9,
        10,
        11,
        12,
        9,
        10,
        11,
        12,
        9,
        10,
        11,
        12,
        9,
        10,
        11,
        12,
        9,
        10,
        11,
        12,
        9,
        106,
        411,
        268,
        265,
        266,
        267,
        268,
        297,
        154,
        11,
        12,
        9,
        10,
        11,
        12,
        9,
        10,
        11,
        12,
        9,
        10,
        11,
        12,
        9,
        10,
        11,
        12,
        9,
        10,
        11,
        12,
        9,
        10,
        11,
        12,
        9,
        10,
        11,
        60,
        393,
        266,
        267,
        268,
        265,
        266,
        315,
        204,
        9,
        10,
        11,
        12,
        9,
        10,
        11,
        12,
        9,
        10,
        11,
        12,
        9,
        10,
        11,
        12,
        9,
        10,
        11,
        12,
        9,
        10,
        11,
        12,
        9,
        10,
        11,
        12,
        9,
        10,
        11,
        12,
        9,
        10,
        11,
        12,
        41,
        394,
        267,
        268,
        265,
        266,
        299,
        140,
        9,
        10,
        11,
        12,
        9,
        10,
        11,
        12,
        9,
        10,
        11,
        12,
        9,
        10,
        11,
        12,
        9,
        10,
        11,
        12,
        9,
        10,
        11,
        12,
        9,
        10,
        11,
        12,
        9,
        10,
        11,
        12,
        9,
        10,
        11,
        12,
        9,
        106,
        411,
        268,
        265,
        266,
        267,
        268,
        297,
        154,
        11,
        12,
        9,
        10,
        11,
        12,
        9,
        10,
        11,
        12,
        41,
        906,
        779,
        812,
        909,
        782,
        815,
        144,
        13,
        14,
        15,
        16,
        13,
        14,
        15,
        16,
        13,
        14,
        15,
        48,
        461,
        270,
        271,
        272,
        269,
        270,
        271,
        320,
        205,
        78,
        15,
        16,
        13,
        14,
        15,
        16,
        13,
        14,
        15,
        16,
        13,
        14,
        15,
        16,
        13,
        14,
        15,
        16,
        13,
        14,
        15,
        16,
        13,
        14,
        15,
        16,
        13,
        14,
        15,
        16,
        13,
        14,
        15,
        16,
        45,
        398,
        271,
        272,
        269,
        270,
        303,
        144,
        13,
        14,
        15,
        16,
        13,
        14,
        15,
        16,
        13,
        14,
        15,
        16,
        13,
        14,
        15,
        16,
        13,
        14,
        15,
        16,
        13,
        14,
        15,
        16,
        13,
        14,
        15,
        16,
        13,
        14,
        15,
        16,
        13,
        14,
        15,
        80,
        109,
        414,
        271,
        272,
        269,
        270,
        271,
        272,
        365,
        142,
        15,
        16,
        13,
        14,
        15,
        16,
        13,
        14,
        15,
        16,
        13,
        14,
        15,
        16,
        13,
        14,
        15,
        16,
        13,
        14,
        15,
        16,
        13,
        14,
        15,
        16,
        13,
        14,
        15,
        48,
        461,
        270,
        271,
        272,
        269,
        270,
        271,
        320,
        205,
        78,
        15,
        16,
        13,
        14,
        15,
        16,
        13,
        14,
        15,
        16,
        13,
        14,
        15,
        16,
        13,
        14,
        15,
        16,
        13,
        14,
        15,
        16,
        13,
        14,
        15,
        16,
        13,
        14,
        15,
        16,
        13,
        14,
        15,
        16,
        45,
        398,
        271,
        272,
        269,
        270,
        303,
        144,
        13,
        14,
        15,
        16,
        13,
        14,
        15,
        16,
        13,
        14,
        15,
        16,
        13,
        14,
        15,
        16,
        13,
        14,
        15,
        16,
        13,
        14,
        15,
        16,
        13,
        14,
        15,
        16,
        13,
        14,
        15,
        16,
        13,
        14,
        15,
        80,
        109,
        414,
        271,
        272,
        269,
        270,
        271,
        272,
        365,
        142,
        15,
        16,
        13,
        14,
        15,
        16,
        13,
        14,
        15,
        16,
        45,
        910,
        783,
        816,
        897,
        770,
        803,
        132,
        1,
        2,
        3,
        4,
        1,
        2,
        3,
        4,
        1,
        2,
        3,
        4,
        49,
        450,
        259,
        260,
        257,
        258,
        259,
        260,
        273,
        306,
        195,
        68,
        65,
        66,
        67,
        68,
        65,
        66,
        67,
        68,
        65,
        66,
        67,
        68,
        65,
        66,
        67,
        68,
        65,
        66,
        67,
        68,
        65,
        66,
        67,
        68,
        65,
        66,
        67,
        68,
        65,
        66,
        67,
        68,
        97,
        386,
        259,
        260,
        257,
        258,
        291,
        196,
        65,
        66,
        67,
        68,
        65,
        66,
        67,
        68,
        65,
        66,
        67,
        68,
        65,
        66,
        67,
        68,
        65,
        66,
        67,
        68,
        65,
        66,
        67,
        68,
        65,
        66,
        67,
        68,
        65,
        66,
        67,
        68,
        65,
        66,
        99,
        404,
        273,
        258,
        259,
        260,
        257,
        258,
        259,
        356,
        145,
        2,
        3,
        4,
        1,
        2,
        3,
        4,
        1,
        2,
        3,
        4,
        1,
        2,
        3,
        4,
        1,
        2,
        3,
        4,
        1,
        2,
        3,
        4,
        1,
        2,
        3,
        4,
        1,
        2,
        3,
        4,
        49,
        450,
        259,
        260,
        257,
        258,
        259,
        260,
        273,
        306,
        195,
        68,
        65,
        66,
        67,
        68,
        65,
        66,
        67,
        68,
        65,
        66,
        67,
        68,
        65,
        66,
        67,
        68,
        65,
        66,
        67,
        68,
        65,
        66,
        67,
        68,
        65,
        66,
        67,
        68,
        65,
        66,
        67,
        68,
        97,
        386,
        259,
        260,
        257,
        258,
        291,
        196,
        65,
        66,
        67,
        68,
        65,
        66,
        67,
        68,
        65,
        66,
        67,
        68,
        65,
        66,
        67,
        68,
        65,
        66,
        67,
        68,
        65,
        66,
        67,
        68,
        65,
        66,
        67,
        68,
        65,
        66,
        67,
        68,
        65,
        66,
        99,
        404,
        273,
        258,
        259,
        260,
        257,
        258,
        259,
        356,
        145,
        2,
        3,
        4,
        1,
        2,
        3,
        4,
        1,
        2,
        3,
        4,
        33,
        898,
        771,
        804,
        901,
        774,
        807,
        136,
        5,
        6,
        7,
        8,
        5,
        6,
        7,
        8,
        5,
        6,
        7,
        8,
        5,
        54,
        455,
        264,
        261,
        262,
        263,
        264,
        261,
        262,
        279,
        280,
        277,
        278,
        279,
        280,
        277,
        278,
        279,
        280,
        277,
        278,
        279,
        280,
        277,
        278,
        279,
        280,
        277,
        278,
        279,
        280,
        277,
        278,
        279,
        280,
        277,
        278,
        279,
        280,
        277,
        278,
        279,
        280,
        277,
        262,
        263,
        264,
        261,
        262,
        263,
        280,
        277,
        278,
        279,
        280,
        277,
        278,
        279,
        280,
        277,
        278,
        279,
        280,
        277,
        278,
        279,
        280,
        277,
        278,
        279,
        280,
        277,
        278,
        279,
        280,
        277,
        278,
        279,
        280,
        277,
        278,
        279,
        280,
        277,
        278,
        279,
        264,
        261,
        262,
        263,
        264,
        261,
        262,
        359,
        152,
        5,
        6,
        7,
        8,
        5,
        6,
        7,
        8,
        5,
        6,
        7,
        8,
        5,
        6,
        7,
        8,
        5,
        6,
        7,
        8,
        5,
        6,
        7,
        8,
        5,
        6,
        7,
        8,
        5,
        6,
        7,
        8,
        5,
        54,
        455,
        264,
        261,
        262,
        263,
        264,
        261,
        262,
        279,
        280,
        277,
        278,
        279,
        280,
        277,
        278,
        279,
        280,
        277,
        278,
        279,
        280,
        277,
        278,
        279,
        280,
        277,
        278,
        279,
        280,
        277,
        278,
        279,
        280,
        277,
        278,
        279,
        280,
        277,
        278,
        279,
        280,
        277,
        262,
        263,
        264,
        261,
        262,
        263,
        280,
        277,
        278,
        279,
        280,
        277,
        278,
        279,
        280,
        277,
        278,
        279,
        280,
        277,
        278,
        279,
        280,
        277,
        278,
        279,
        280,
        277,
        278,
        279,
        280,
        277,
        278,
        279,
        280,
        277,
        278,
        279,
        280,
        277,
        278,
        279,
        264,
        261,
        262,
        263,
        264,
        261,
        262,
        359,
        152,
        5,
        6,
        7,
        8,
        5,
        6,
        7,
        8,
        5,
        6,
        7,
        8,
        37,
        902,
        775,
        808,
        905,
        778,
        811,
        140,
        9,
        10,
        11,
        12,
        9,
        10,
        11,
        12,
        9,
        10,
        11,
        12,
        9,
        10,
        59,
        460,
        265,
        266,
        267,
        268,
        265,
        266,
        267,
        268,
        265,
        266,
        267,
        268,
        265,
        266,
        267,
        268,
        265,
        266,
        267,
        268,
        265,
        266,
        267,
        268,
        265,
        266,
        267,
        268,
        265,
        266,
        267,
        268,
        265,
        266,
        267,
        268,
        265,
        266,
        267,
        268,
        265,
        266,
        267,
        268,
        265,
        266,
        267,
        268,
        265,
        266,
        267,
        268,
        265,
        266,
        267,
        268,
        265,
        266,
        267,
        268,
        265,
        266,
        267,
        268,
        265,
        266,
        267,
        268,
        265,
        266,
        267,
        268,
        265,
        266,
        267,
        268,
        265,
        266,
        267,
        268,
        265,
        266,
        267,
        268,
        265,
        266,
        267,
        268,
        265,
        362,
        155,
        12,
        9,
        10,
        11,
        12,
        9,
        10,
        11,
        12,
        9,
        10,
        11,
        12,
        9,
        10,
        11,
        12,
        9,
        10,
        11,
        12,
        9,
        10,
        11,
        12,
        9,
        10,
        11,
        12,
        9,
        10,
        11,
        12,
        9,
        10,
        59,
        460,
        265,
        266,
        267,
        268,
        265,
        266,
        267,
        268,
        265,
        266,
        267,
        268,
        265,
        266,
        267,
        268,
        265,
        266,
        267,
        268,
        265,
        266,
        267,
        268,
        265,
        266,
        267,
        268,
        265,
        266,
        267,
        268,
        265,
        266,
        267,
        268,
        265,
        266,
        267,
        268,
        265,
        266,
        267,
        268,
        265,
        266,
        267,
        268,
        265,
        266,
        267,
        268,
        265,
        266,
        267,
        268,
        265,
        266,
        267,
        268,
        265,
        266,
        267,
        268,
        265,
        266,
        267,
        268,
        265,
        266,
        267,
        268,
        265,
        266,
        267,
        268,
        265,
        266,
        267,
        268,
        265,
        266,
        267,
        268,
        265,
        266,
        267,
        268,
        265,
        362,
        155,
        12,
        9,
        10,
        11,
        12,
        9,
        10,
        11,
        12,
        9,
        10,
        11,
        12,
        41,
        906,
        779,
        812,
        909,
        782,
        815,
        144,
        13,
        14,
        15,
        16,
        13,
        14,
        15,
        16,
        13,
        14,
        15,
        16,
        13,
        14,
        15,
        64,
        461,
        270,
        271,
        272,
        269,
        270,
        271,
        272,
        269,
        270,
        271,
        272,
        269,
        270,
        271,
        272,
        269,
        270,
        271,
        272,
        269,
        270,
        271,
        272,
        269,
        270,
        271,
        272,
        269,
        270,
        271,
        272,
        269,
        270,
        271,
        272,
        269,
        270,
        271,
        272,
        269,
        270,
        271,
        272,
        269,
        270,
        271,
        272,
        269,
        270,
        271,
        272,
        269,
        270,
        271,
        272,
        269,
        270,
        271,
        272,
        269,
        270,
        271,
        272,
        269,
        270,
        271,
        272,
        269,
        270,
        271,
        272,
        269,
        270,
        271,
        272,
        269,
        270,
        271,
        272,
        269,
        270,
        271,
        272,
        269,
        270,
        271,
        272,
        365,
        158,
        15,
        16,
        13,
        14,
        15,
        16,
        13,
        14,
        15,
        16,
        13,
        14,
        15,
        16,
        13,
        14,
        15,
        16,
        13,
        14,
        15,
        16,
        13,
        14,
        15,
        16,
        13,
        14,
        15,
        16,
        13,
        14,
        15,
        16,
        13,
        14,
        15,
        64,
        461,
        270,
        271,
        272,
        269,
        270,
        271,
        272,
        269,
        270,
        271,
        272,
        269,
        270,
        271,
        272,
        269,
        270,
        271,
        272,
        269,
        270,
        271,
        272,
        269,
        270,
        271,
        272,
        269,
        270,
        271,
        272,
        269,
        270,
        271,
        272,
        269,
        270,
        271,
        272,
        269,
        270,
        271,
        272,
        269,
        270,
        271,
        272,
        269,
        270,
        271,
        272,
        269,
        270,
        271,
        272,
        269,
        270,
        271,
        272,
        269,
        270,
        271,
        272,
        269,
        270,
        271,
        272,
        269,
        270,
        271,
        272,
        269,
        270,
        271,
        272,
        269,
        270,
        271,
        272,
        269,
        270,
        271,
        272,
        269,
        270,
        271,
        272,
        365,
        158,
        15,
        16,
        13,
        14,
        15,
        16,
        13,
        14,
        15,
        16,
        13,
        14,
        15,
        16,
        45,
        910,
        783,
        816,
        897,
        770,
        803,
        132,
        1,
        2,
        3,
        4,
        1,
        2,
        3,
        4,
        1,
        2,
        3,
        4,
        1,
        2,
        3,
        4,
        49,
        450,
        323,
        260,
        257,
        258,
        259,
        260,
        257,
        258,
        259,
        260,
        257,
        258,
        259,
        260,
        257,
        258,
        259,
        260,
        257,
        258,
        259,
        260,
        257,
        258,
        259,
        260,
        257,
        258,
        259,
        260,
        257,
        258,
        259,
        260,
        257,
        258,
        259,
        260,
        257,
        258,
        259,
        260,
        257,
        258,
        259,
        260,
        257,
        258,
        259,
        260,
        257,
        258,
        259,
        260,
        257,
        258,
        259,
        260,
        257,
        258,
        259,
        260,
        257,
        258,
        259,
        260,
        257,
        258,
        259,
        260,
        257,
        258,
        259,
        260,
        257,
        258,
        259,
        260,
        257,
        258,
        259,
        260,
        257,
        258,
        323,
        356,
        145,
        2,
        3,
        4,
        1,
        2,
        3,
        4,
        1,
        2,
        3,
        4,
        1,
        2,
        3,
        4,
        1,
        2,
        3,
        4,
        1,
        2,
        3,
        4,
        1,
        2,
        3,
        4,
        1,
        2,
        3,
        4,
        1,
        2,
        3,
        4,
        1,
        2,
        3,
        4,
        49,
        450,
        323,
        260,
        257,
        258,
        259,
        260,
        257,
        258,
        259,
        260,
        257,
        258,
        259,
        260,
        257,
        258,
        259,
        260,
        257,
        258,
        259,
        260,
        257,
        258,
        259,
        260,
        257,
        258,
        259,
        260,
        257,
        258,
        259,
        260,
        257,
        258,
        259,
        260,
        257,
        258,
        259,
        260,
        257,
        258,
        259,
        260,
        257,
        258,
        259,
        260,
        257,
        258,
        259,
        260,
        257,
        258,
        259,
        260,
        257,
        258,
        259,
        260,
        257,
        258,
        259,
        260,
        257,
        258,
        259,
        260,
        257,
        258,
        259,
        260,
        257,
        258,
        259,
        260,
        257,
        258,
        259,
        260,
        257,
        258,
        323,
        356,
        145,
        2,
        3,
        4,
        1,
        2,
        3,
        4,
        1,
        2,
        3,
        4,
        1,
        2,
        3,
        4,
        33,
        898,
        771,
        804,
        901,
        774,
        807,
        136,
        5,
        6,
        7,
        8,
        5,
        6,
        7,
        8,
        5,
        6,
        7,
        8,
        5,
        6,
        7,
        8,
        5,
        22,
        55,
        456,
        325,
        326,
        263,
        264,
        261,
        262,
        263,
        264,
        261,
        262,
        263,
        264,
        261,
        262,
        263,
        264,
        261,
        262,
        263,
        264,
        261,
        262,
        263,
        264,
        261,
        262,
        263,
        264,
        261,
        262,
        263,
        264,
        261,
        262,
        263,
        264,
        261,
        262,
        263,
        264,
        261,
        262,
        263,
        264,
        261,
        262,
        263,
        264,
        261,
        262,
        263,
        264,
        261,
        262,
        263,
        264,
        261,
        262,
        263,
        264,
        261,
        262,
        263,
        264,
        261,
        262,
        263,
        264,
        261,
        262,
        263,
        264,
        261,
        262,
        263,
        264,
        261,
        262,
        263,
        328,
        325,
        358,
        151,
        24,
        5,
        6,
        7,
        8,
        5,
        6,
        7,
        8,
        5,
        6,
        7,
        8,
        5,
        6,
        7,
        8,
        5,
        6,
        7,
        8,
        5,
        6,
        7,
        8,
        5,
        6,
        7,
        8,
        5,
        6,
        7,
        8,
        5,
        6,
        7,
        8,
        5,
        6,
        7,
        8,
        5,
        22,
        55,
        456,
        325,
        326,
        263,
        264,
        261,
        262,
        263,
        264,
        261,
        262,
        263,
        264,
        261,
        262,
        263,
        264,
        261,
        262,
        263,
        264,
        261,
        262,
        263,
        264,
        261,
        262,
        263,
        264,
        261,
        262,
        263,
        264,
        261,
        262,
        263,
        264,
        261,
        262,
        263,
        264,
        261,
        262,
        263,
        264,
        261,
        262,
        263,
        264,
        261,
        262,
        263,
        264,
        261,
        262,
        263,
        264,
        261,
        262,
        263,
        264,
        261,
        262,
        263,
        264,
        261,
        262,
        263,
        264,
        261,
        262,
        263,
        264,
        261,
        262,
        263,
        264,
        261,
        262,
        263,
        328,
        325,
        358,
        151,
        24,
        5,
        6,
        7,
        8,
        5,
        6,
        7,
        8,
        5,
        6,
        7,
        8,
        5,
        6,
        7,
        8,
        37,
        902,
        775,
        808,
        905,
        778,
        811,
        140,
        9,
        10,
        11,
        12,
        9,
        10,
        11,
        12,
        9,
        10,
        11,
        12,
        9,
        10,
        11,
        12,
        9,
        10,
        11,
        28,
        25,
        58,
        459,
        332,
        329,
        330,
        331,
        332,
        329,
        330,
        331,
        332,
        329,
        330,
        331,
        332,
        329,
        330,
        331,
        332,
        329,
        330,
        331,
        332,
        329,
        330,
        331,
        332,
        329,
        330,
        331,
        332,
        329,
        330,
        331,
        332,
        329,
        266,
        267,
        268,
        265,
        266,
        267,
        332,
        329,
        330,
        331,
        332,
        329,
        330,
        331,
        332,
        329,
        330,
        331,
        332,
        329,
        330,
        331,
        332,
        329,
        330,
        331,
        332,
        329,
        330,
        331,
        332,
        329,
        330,
        331,
        332,
        329,
        330,
        331,
        332,
        329,
        330,
        363,
        156,
        25,
        26,
        11,
        12,
        9,
        10,
        11,
        12,
        9,
        10,
        11,
        12,
        9,
        10,
        11,
        12,
        9,
        10,
        11,
        12,
        9,
        10,
        11,
        12,
        9,
        10,
        11,
        12,
        9,
        10,
        11,
        12,
        9,
        10,
        11,
        12,
        9,
        10,
        11,
        12,
        9,
        10,
        11,
        12,
        9,
        10,
        11,
        28,
        25,
        58,
        459,
        332,
        329,
        330,
        331,
        332,
        329,
        330,
        331,
        332,
        329,
        330,
        331,
        332,
        329,
        330,
        331,
        332,
        329,
        330,
        331,
        332,
        329,
        330,
        331,
        332,
        329,
        330,
        331,
        332,
        329,
        330,
        331,
        332,
        329,
        266,
        267,
        268,
        265,
        266,
        267,
        332,
        329,
        330,
        331,
        332,
        329,
        330,
        331,
        332,
        329,
        330,
        331,
        332,
        329,
        330,
        331,
        332,
        329,
        330,
        331,
        332,
        329,
        330,
        331,
        332,
        329,
        330,
        331,
        332,
        329,
        330,
        331,
        332,
        329,
        330,
        363,
        156,
        25,
        26,
        11,
        12,
        9,
        10,
        11,
        12,
        9,
        10,
        11,
        12,
        9,
        10,
        11,
        12,
        9,
        10,
        11,
        12,
        41,
        906,
        779,
        812,
        909,
        782,
        815,
        144,
        13,
        14,
        15,
        16,
        13,
        14,
        15,
        16,
        13,
        14,
        15,
        16,
        13,
        14,
        15,
        16,
        13,
        14,
        15,
        16,
        13,
        14,
        31,
        32,
        29,
        30,
        31,
        32,
        29,
        30,
        31,
        32,
        29,
        30,
        31,
        32,
        29,
        30,
        31,
        32,
        29,
        30,
        31,
        32,
        29,
        30,
        31,
        32,
        29,
        30,
        31,
        32,
        29,
        30,
        31,
        32,
        61,
        398,
        271,
        272,
        269,
        270,
        303,
        160,
        29,
        30,
        31,
        32,
        29,
        30,
        31,
        32,
        29,
        30,
        31,
        32,
        29,
        30,
        31,
        32,
        29,
        30,
        31,
        32,
        29,
        30,
        31,
        32,
        29,
        30,
        31,
        32,
        29,
        30,
        31,
        32,
        29,
        30,
        31,
        16,
        13,
        14,
        15,
        16,
        13,
        14,
        15,
        16,
        13,
        14,
        15,
        16,
        13,
        14,
        15,
        16,
        13,
        14,
        15,
        16,
        13,
        14,
        15,
        16,
        13,
        14,
        15,
        16,
        13,
        14,
        15,
        16,
        13,
        14,
        15,
        16,
        13,
        14,
        15,
        16,
        13,
        14,
        15,
        16,
        13,
        14,
        15,
        16,
        13,
        14,
        31,
        32,
        29,
        30,
        31,
        32,
        29,
        30,
        31,
        32,
        29,
        30,
        31,
        32,
        29,
        30,
        31,
        32,
        29,
        30,
        31,
        32,
        29,
        30,
        31,
        32,
        29,
        30,
        31,
        32,
        29,
        30,
        31,
        32,
        61,
        398,
        271,
        272,
        269,
        270,
        303,
        160,
        29,
        30,
        31,
        32,
        29,
        30,
        31,
        32,
        29,
        30,
        31,
        32,
        29,
        30,
        31,
        32,
        29,
        30,
        31,
        32,
        29,
        30,
        31,
        32,
        29,
        30,
        31,
        32,
        29,
        30,
        31,
        32,
        29,
        30,
        31,
        16,
        13,
        14,
        15,
        16,
        13,
        14,
        15,
        16,
        13,
        14,
        15,
        16,
        13,
        14,
        15,
        16,
        13,
        14,
        15,
        16,
        45,
        910,
        783,
        816,
        897,
        770,
        803,
        132,
        1,
        2,
        3,
        4,
        1,
        2,
        3,
        4,
        1,
        2,
        3,
        4,
        1,
        2,
        3,
        4,
        1,
        2,
        3,
        4,
        1,
        2,
        3,
        4,
        1,
        2,
        3,
        4,
        1,
        2,
        3,
        4,
        1,
        2,
        3,
        4,
        1,
        2,
        3,
        4,
        1,
        2,
        3,
        4,
        1,
        2,
        3,
        4,
        1,
        2,
        3,
        4,
        1,
        2,
        3,
        4,
        33,
        386,
        259,
        260,
        257,
        258,
        291,
        132,
        1,
        2,
        3,
        4,
        1,
        2,
        3,
        4,
        1,
        2,
        3,
        4,
        1,
        2,
        3,
        4,
        1,
        2,
        3,
        4,
        1,
        2,
        3,
        4,
        1,
        2,
        3,
        4,
        1,
        2,
        3,
        4,
        1,
        2,
        3,
        4,
        1,
        2,
        3,
        4,
        1,
        2,
        3,
        4,
        1,
        2,
        3,
        4,
        1,
        2,
        3,
        4,
        1,
        2,
        3,
        4,
        1,
        2,
        3,
        4,
        1,
        2,
        3,
        4,
        1,
        2,
        3,
        4,
        1,
        2,
        3,
        4,
        1,
        2,
        3,
        4,
        1,
        2,
        3,
        4,
        1,
        2,
        3,
        4,
        1,
        2,
        3,
        4,
        1,
        2,
        3,
        4,
        1,
        2,
        3,
        4,
        1,
        2,
        3,
        4,
        1,
        2,
        3,
        4,
        1,
        2,
        3,
        4,
        1,
        2,
        3,
        4,
        1,
        2,
        3,
        4,
        1,
        2,
        3,
        4,
        33,
        386,
        259,
        260,
        257,
        258,
        291,
        132,
        1,
        2,
        3,
        4,
        1,
        2,
        3,
        4,
        1,
        2,
        3,
        4,
        1,
        2,
        3,
        4,
        1,
        2,
        3,
        4,
        1,
        2,
        3,
        4,
        1,
        2,
        3,
        4,
        1,
        2,
        3,
        4,
        1,
        2,
        3,
        4,
        1,
        2,
        3,
        4,
        1,
        2,
        3,
        4,
        1,
        2,
        3,
        4,
        1,
        2,
        3,
        4,
        1,
        2,
        3,
        4,
        33,
        898,
        771,
        804,
        901,
        774,
        807,
        136,
        5,
        6,
        7,
        8,
        5,
        6,
        7,
        8,
        5,
        6,
        7,
        8,
        5,
        6,
        7,
        8,
        5,
        6,
        7,
        8,
        5,
        6,
        7,
        8,
        5,
        6,
        7,
        8,
        5,
        6,
        7,
        8,
        5,
        6,
        7,
        8,
        5,
        6,
        7,
        8,
        5,
        6,
        7,
        8,
        5,
        6,
        7,
        8,
        5,
        6,
        7,
        8,
        5,
        6,
        7,
        8,
        37,
        390,
        263,
        264,
        261,
        262,
        295,
        136,
        5,
        6,
        7,
        8,
        5,
        6,
        7,
        8,
        5,
        6,
        7,
        8,
        5,
        6,
        7,
        8,
        5,
        6,
        7,
        8,
        5,
        6,
        7,
        8,
        5,
        6,
        7,
        8,
        5,
        6,
        7,
        8,
        5,
        6,
        7,
        8,
        5,
        6,
        7,
        8,
        5,
        6,
        7,
        8,
        5,
        6,
        7,
        8,
        5,
        6,
        7,
        8,
        5,
        6,
        7,
        8,
        5,
        6,
        7,
        8,
        5,
        6,
        7,
        8,
        5,
        6,
        7,
        8,
        5,
        6,
        7,
        8,
        5,
        6,
        7,
        8,
        5,
        6,
        7,
        8,
        5,
        6,
        7,
        8,
        5,
        6,
        7,
        8,
        5,
        6,
        7,
        8,
        5,
        6,
        7,
        8,
        5,
        6,
        7,
        8,
        5,
        6,
        7,
        8,
        5,
        6,
        7,
        8,
        5,
        6,
        7,
        8,
        5,
        6,
        7,
        8,
        5,
        6,
        7,
        8,
        37,
        390,
        263,
        264,
        261,
        262,
        295,
        136,
        5,
        6,
        7,
        8,
        5,
        6,
        7,
        8,
        5,
        6,
        7,
        8,
        5,
        6,
        7,
        8,
        5,
        6,
        7,
        8,
        5,
        6,
        7,
        8,
        5,
        6,
        7,
        8,
        5,
        6,
        7,
        8,
        5,
        6,
        7,
        8,
        5,
        6,
        7,
        8,
        5,
        6,
        7,
        8,
        5,
        6,
        7,
        8,
        5,
        6,
        7,
        8,
        5,
        6,
        7,
        8,
        37,
        902,
        775,
        808,
        905,
        778,
        811,
        140,
        9,
        10,
        11,
        12,
        9,
        10,
        11,
        12,
        9,
        10,
        11,
        12,
        9,
        10,
        11,
        12,
        9,
        10,
        11,
        12,
        9,
        10,
        11,
        12,
        9,
        10,
        11,
        12,
        9,
        10,
        11,
        12,
        9,
        10,
        11,
        12,
        9,
        10,
        11,
        12,
        9,
        10,
        11,
        12,
        9,
        10,
        11,
        12,
        9,
        10,
        11,
        12,
        9,
        10,
        11,
        12,
        41,
        394,
        267,
        268,
        265,
        266,
        299,
        140,
        9,
        10,
        11,
        12,
        9,
        10,
        11,
        12,
        9,
        10,
        11,
        12,
        9,
        10,
        11,
        12,
        9,
        10,
        11,
        12,
        9,
        10,
        11,
        12,
        9,
        10,
        11,
        12,
        9,
        10,
        11,
        12,
        9,
        10,
        11,
        12,
        9,
        10,
        11,
        12,
        9,
        10,
        11,
        12,
        9,
        10,
        11,
        12,
        9,
        10,
        11,
        12,
        9,
        10,
        11,
        12,
        9,
        10,
        11,
        12,
        9,
        10,
        11,
        12,
        9,
        10,
        11,
        12,
        9,
        10,
        11,
        12,
        9,
        10,
        11,
        12,
        9,
        10,
        11,
        12,
        9,
        10,
        11,
        12,
        9,
        10,
        11,
        12,
        9,
        10,
        11,
        12,
        9,
        10,
        11,
        12,
        9,
        10,
        11,
        12,
        9,
        10,
        11,
        12,
        9,
        10,
        11,
        12,
        9,
        10,
        11,
        12,
        9,
        10,
        11,
        12,
        9,
        10,
        11,
        12,
        41,
        394,
        267,
        268,
        265,
        266,
        299,
        140,
        9,
        10,
        11,
        12,
        9,
        10,
        11,
        12,
        9,
        10,
        11,
        12,
        9,
        10,
        11,
        12,
        9,
        10,
        11,
        12,
        9,
        10,
        11,
        12,
        9,
        10,
        11,
        12,
        9,
        10,
        11,
        12,
        9,
        10,
        11,
        12,
        9,
        10,
        11,
        12,
        9,
        10,
        11,
        12,
        9,
        10,
        11,
        12,
        9,
        10,
        11,
        12,
        9,
        10,
        11,
        12,
        41,
        906,
        779,
        812,
        909,
        782,
        815,
        144,
        13,
        14,
        15,
        16,
        13,
        14,
        15,
        16,
        13,
        14,
        15,
        16,
        13,
        14,
        15,
        16,
        13,
        14,
        15,
        16,
        13,
        14,
        15,
        16,
        13,
        14,
        15,
        16,
        13,
        14,
        15,
        16,
        13,
        14,
        15,
        16,
        13,
        14,
        15,
        16,
        13,
        14,
        15,
        16,
        13,
        14,
        15,
        16,
        13,
        14,
        15,
        16,
        13,
        14,
        15,
        16,
        45,
        398,
        271,
        272,
        269,
        270,
        303,
        144,
        13,
        14,
        15,
        16,
        13,
        14,
        15,
        16,
        13,
        14,
        15,
        16,
        13,
        14,
        15,
        16,
        13,
        14,
        15,
        16,
        13,
        14,
        15,
        16,
        13,
        14,
        15,
        16,
        13,
        14,
        15,
        16,
        13,
        14,
        15,
        16,
        13,
        14,
        15,
        16,
        13,
        14,
        15,
        16,
        13,
        14,
        15,
        16,
        13,
        14,
        15,
        16,
        13,
        14,
        15,
        16,
        13,
        14,
        15,
        16,
        13,
        14,
        15,
        16,
        13,
        14,
        15,
        16,
        13,
        14,
        15,
        16,
        13,
        14,
        15,
        16,
        13,
        14,
        15,
        16,
        13,
        14,
        15,
        16,
        13,
        14,
        15,
        16,
        13,
        14,
        15,
        16,
        13,
        14,
        15,
        16,
        13,
        14,
        15,
        16,
        13,
        14,
        15,
        16,
        13,
        14,
        15,
        16,
        13,
        14,
        15,
        16,
        13,
        14,
        15,
        16,
        13,
        14,
        15,
        16,
        45,
        398,
        271,
        272,
        269,
        270,
        303,
        144,
        13,
        14,
        15,
        16,
        13,
        14,
        15,
        16,
        13,
        14,
        15,
        16,
        13,
        14,
        15,
        16,
        13,
        14,
        15,
        16,
        13,
        14,
        15,
        16,
        13,
        14,
        15,
        16,
        13,
        14,
        15,
        16,
        13,
        14,
        15,
        16,
        13,
        14,
        15,
        16,
        13,
        14,
        15,
        16,
        13,
        14,
        15,
        16,
        13,
        14,
        15,
        16,
        13,
        14,
        15,
        16,
        45,
        910,
        783,
        816,
        897,
        770,
        803,
        132,
        1,
        2,
        3,
        4,
        1,
        2,
        3,
        4,
        1,
        2,
        3,
        4,
        1,
        2,
        3,
        4,
        1,
        2,
        3,
        4,
        1,
        2,
        3,
        4,
        1,
        2,
        3,
        4,
        1,
        2,
        3,
        4,
        1,
        2,
        3,
        4,
        1,
        2,
        3,
        4,
        1,
        2,
        3,
        4,
        1,
        2,
        3,
        4,
        1,
        2,
        3,
        4,
        1,
        2,
        3,
        4,
        33,
        386,
        259,
        260,
        257,
        258,
        291,
        132,
        1,
        2,
        3,
        4,
        1,
        2,
        3,
        4,
        1,
        2,
        3,
        4,
        1,
        2,
        3,
        4,
        1,
        2,
        3,
        4,
        1,
        2,
        3,
        4,
        1,
        2,
        3,
        4,
        1,
        2,
        3,
        4,
        1,
        2,
        3,
        4,
        1,
        2,
        3,
        4,
        1,
        2,
        3,
        4,
        1,
        2,
        3,
        4,
        1,
        2,
        3,
        4,
        1,
        2,
        3,
        4,
        1,
        2,
        3,
        4,
        1,
        2,
        3,
        4,
        1,
        2,
        3,
        4,
        1,
        2,
        3,
        4,
        1,
        2,
        3,
        4,
        1,
        2,
        3,
        4,
        1,
        2,
        3,
        4,
        1,
        2,
        3,
        4,
        1,
        2,
        3,
        4,
        1,
        2,
        3,
        4,
        1,
        2,
        3,
        4,
        1,
        2,
        3,
        4,
        1,
        2,
        3,
        4,
        1,
        2,
        3,
        4,
        1,
        2,
        3,
        4,
        1,
        2,
        3,
        4,
        33,
        386,
        259,
        260,
        257,
        258,
        291,
        132,
        1,
        2,
        3,
        4,
        1,
        2,
        3,
        4,
        1,
        2,
        3,
        4,
        1,
        2,
        3,
        4,
        1,
        2,
        3,
        4,
        1,
        2,
        3,
        4,
        1,
        2,
        3,
        4,
        1,
        2,
        3,
        4,
        1,
        2,
        3,
        4,
        1,
        2,
        3,
        4,
        1,
        2,
        3,
        4,
        1,
        2,
        3,
        4,
        1,
        2,
        3,
        4,
        1,
        2,
        3,
        4,
        33,
        898,
        771,
        804,
        901,
        774,
        807,
        136,
        5,
        6,
        7,
        8,
        5,
        6,
        7,
        8,
        5,
        6,
        7,
        8,
        5,
        6,
        7,
        8,
        5,
        6,
        7,
        8,
        5,
        6,
        7,
        8,
        5,
        6,
        7,
        8,
        5,
        6,
        7,
        8,
        5,
        6,
        7,
        8,
        5,
        6,
        7,
        8,
        5,
        6,
        7,
        8,
        5,
        6,
        7,
        8,
        5,
        6,
        7,
        8,
        5,
        6,
        7,
        8,
        37,
        390,
        263,
        264,
        261,
        262,
        295,
        136,
        5,
        6,
        7,
        8,
        5,
        6,
        7,
        8,
        5,
        6,
        7,
        8,
        5,
        6,
        7,
        8,
        5,
        6,
        7,
        8,
        5,
        6,
        7,
        8,
        5,
        6,
        7,
        8,
        5,
        6,
        7,
        8,
        5,
        6,
        7,
        8,
        5,
        6,
        7,
        8,
        5,
        6,
        7,
        8,
        5,
        6,
        7,
        8,
        5,
        6,
        7,
        8,
        5,
        6,
        7,
        8,
        5,
        6,
        7,
        8,
        5,
        6,
        7,
        8,
        5,
        6,
        7,
        8,
        5,
        6,
        7,
        8,
        5,
        6,
        7,
        8,
        5,
        6,
        7,
        8,
        5,
        6,
        7,
        8,
        5,
        6,
        7,
        8,
        5,
        6,
        7,
        8,
        5,
        6,
        7,
        8,
        5,
        6,
        7,
        8,
        5,
        6,
        7,
        8,
        5,
        6,
        7,
        8,
        5,
        6,
        7,
        8,
        5,
        6,
        7,
        8,
        5,
        6,
        7,
        8,
        37,
        390,
        263,
        264,
        261,
        262,
        295,
        136,
        5,
        6,
        7,
        8,
        5,
        6,
        7,
        8,
        5,
        6,
        7,
        8,
        5,
        6,
        7,
        8,
        5,
        6,
        7,
        8,
        5,
        6,
        7,
        8,
        5,
        6,
        7,
        8,
        5,
        6,
        7,
        8,
        5,
        6,
        7,
        8,
        5,
        6,
        7,
        8,
        5,
        6,
        7,
        8,
        5,
        6,
        7,
        8,
        5,
        6,
        7,
        8,
        5,
        6,
        7,
        8,
        37,
        902,
        775,
        808,
        905,
        778,
        811,
        140,
        9,
        10,
        11,
        12,
        9,
        10,
        11,
        12,
        9,
        10,
        11,
        12,
        9,
        10,
        11,
        12,
        9,
        10,
        11,
        12,
        9,
        10,
        11,
        12,
        9,
        10,
        11,
        12,
        9,
        10,
        11,
        12,
        9,
        10,
        11,
        12,
        9,
        10,
        11,
        12,
        9,
        10,
        11,
        12,
        9,
        10,
        11,
        12,
        9,
        10,
        11,
        12,
        9,
        10,
        11,
        12,
        41,
        394,
        267,
        268,
        265,
        266,
        299,
        140,
        9,
        10,
        11,
        12,
        9,
        10,
        11,
        12,
        9,
        10,
        11,
        12,
        9,
        10,
        11,
        12,
        9,
        10,
        11,
        12,
        9,
        10,
        11,
        12,
        9,
        10,
        11,
        12,
        9,
        10,
        11,
        12,
        9,
        10,
        11,
        12,
        9,
        10,
        11,
        12,
        9,
        10,
        11,
        12,
        9,
        10,
        11,
        12,
        9,
        10,
        11,
        12,
        9,
        10,
        11,
        12,
        9,
        10,
        11,
        12,
        9,
        10,
        11,
        12,
        9,
        10,
        11,
        12,
        9,
        10,
        11,
        12,
        9,
        10,
        11,
        12,
        9,
        10,
        11,
        12,
        9,
        10,
        11,
        12,
        9,
        10,
        11,
        12,
        9,
        10,
        11,
        12,
        9,
        10,
        11,
        12,
        9,
        10,
        11,
        12,
        9,
        10,
        11,
        12,
        9,
        10,
        11,
        12,
        9,
        10,
        11,
        12,
        9,
        10,
        11,
        12,
        9,
        10,
        11,
        12,
        41,
        394,
        267,
        268,
        265,
        266,
        299,
        140,
        9,
        10,
        11,
        12,
        9,
        10,
        11,
        12,
        9,
        10,
        11,
        12,
        9,
        10,
        11,
        12,
        9,
        10,
        11,
        12,
        9,
        10,
        11,
        12,
        9,
        10,
        11,
        12,
        9,
        10,
        11,
        12,
        9,
        10,
        11,
        12,
        9,
        10,
        11,
        12,
        9,
        10,
        11,
        12,
        9,
        10,
        11,
        12,
        9,
        10,
        11,
        12,
        9,
        10,
        11,
        12,
        41,
        906,
        779,
        812,
        909,
        782,
        815,
        144,
        13,
        14,
        15,
        16,
        13,
        14,
        15,
        16,
        13,
        14,
        15,
        16,
        13,
        14,
        15,
        16,
        13,
        14,
        15,
        16,
        13,
        14,
        15,
        16,
        13,
        14,
        15,
        16,
        13,
        14,
        15,
        16,
        13,
        14,
        15,
        16,
        13,
        14,
        15,
        16,
        13,
        14,
        15,
        16,
        13,
        14,
        15,
        16,
        13,
        14,
        15,
        16,
        13,
        14,
        15,
        16,
        45,
        398,
        271,
        272,
        269,
        270,
        303,
        144,
        13,
        14,
        15,
        16,
        13,
        14,
        15,
        16,
        13,
        14,
        15,
        16,
        13,
        14,
        15,
        16,
        13,
        14,
        15,
        16,
        13,
        14,
        15,
        16,
        13,
        14,
        15,
        16,
        13,
        14,
        15,
        16,
        13,
        14,
        15,
        16,
        13,
        14,
        15,
        16,
        13,
        14,
        15,
        16,
        13,
        14,
        15,
        16,
        13,
        14,
        15,
        16,
        13,
        14,
        15,
        16,
        13,
        14,
        15,
        16,
        13,
        14,
        15,
        16,
        13,
        14,
        15,
        16,
        13,
        14,
        15,
        16,
        13,
        14,
        15,
        16,
        13,
        14,
        15,
        16,
        13,
        14,
        15,
        16,
        13,
        14,
        15,
        16,
        13,
        14,
        15,
        16,
        13,
        14,
        15,
        16,
        13,
        14,
        15,
        16,
        13,
        14,
        15,
        16,
        13,
        14,
        15,
        16,
        13,
        14,
        15,
        16,
        13,
        14,
        15,
        16,
        13,
        14,
        15,
        16,
        45,
        398,
        271,
        272,
        269,
        270,
        303,
        144,
        13,
        14,
        15,
        16,
        13,
        14,
        15,
        16,
        13,
        14,
        15,
        16,
        13,
        14,
        15,
        16,
        13,
        14,
        15,
        16,
        13,
        14,
        15,
        16,
        13,
        14,
        15,
        16,
        13,
        14,
        15,
        16,
        13,
        14,
        15,
        16,
        13,
        14,
        15,
        16,
        13,
        14,
        15,
        16,
        13,
        14,
        15,
        16,
        13,
        14,
        15,
        16,
        13,
        14,
        15,
        16,
        45,
        910,
        783,
        816,
        897,
        770,
        803,
        132,
        1,
        2,
        3,
        4,
        1,
        2,
        3,
        4,
        1,
        2,
        3,
        4,
        1,
        2,
        3,
        4,
        1,
        2,
        3,
        4,
        1,
        2,
        3,
        4,
        1,
        2,
        3,
        4,
        1,
        2,
        3,
        4,
        1,
        2,
        3,
        4,
        1,
        2,
        3,
        4,
        1,
        2,
        3,
        4,
        1,
        2,
        3,
        4,
        1,
        2,
        3,
        4,
        1,
        2,
        3,
        4,
        33,
        386,
        259,
        260,
        257,
        258,
        291,
        132,
        1,
        2,
        3,
        4,
        1,
        2,
        3,
        4,
        1,
        2,
        3,
        4,
        1,
        2,
        3,
        4,
        1,
        2,
        3,
        4,
        1,
        2,
        3,
        4,
        1,
        2,
        3,
        4,
        1,
        2,
        3,
        4,
        1,
        2,
        3,
        4,
        1,
        2,
        3,
        4,
        1,
        2,
        3,
        4,
        1,
        2,
        3,
        4,
        1,
        2,
        3,
        4,
        1,
        2,
        3,
        4,
        1,
        2,
        3,
        4,
        1,
        2,
        3,
        4,
        1,
        2,
        3,
        4,
        1,
        2,
        3,
        4,
        1,
        2,
        3,
        4,
        1,
        2,
        3,
        4,
        1,
        2,
        3,
        4,
        1,
        2,
        3,
        4,
        1,
        2,
        3,
        4,
        1,
        2,
        3,
        4,
        1,
        2,
        3,
        4,
        1,
        2,
        3,
        4,
        1,
        2,
        3,
        4,
        1,
        2,
        3,
        4,
        1,
        2,
        3,
        4,
        1,
        2,
        3,
        4,
        33,
        386,
        259,
        260,
        257,
        258,
        291,
        132,
        1,
        2,
        3,
        4,
        1,
        2,
        3,
        4,
        1,
        2,
        3,
        4,
        1,
        2,
        3,
        4,
        1,
        2,
        3,
        4,
        1,
        2,
        3,
        4,
        1,
        2,
        3,
        4,
        1,
        2,
        3,
        4,
        1,
        2,
        3,
        4,
        1,
        2,
        3,
        4,
        1,
        2,
        3,
        4,
        1,
        2,
        3,
        4,
        1,
        2,
        3,
        4,
        1,
        2,
        3,
        4,
        33,
        898,
        771,
        804,
        901,
        774,
        807,
        136,
        5,
        6,
        7,
        8,
        5,
        6,
        7,
        8,
        5,
        6,
        7,
        8,
        5,
        6,
        7,
        8,
        5,
        6,
        7,
        8,
        5,
        6,
        7,
        8,
        5,
        6,
        7,
        8,
        5,
        6,
        7,
        8,
        5,
        6,
        7,
        8,
        5,
        6,
        7,
        8,
        5,
        6,
        7,
        8,
        5,
        6,
        7,
        8,
        5,
        6,
        7,
        8,
        5,
        6,
        7,
        8,
        37,
        390,
        263,
        264,
        261,
        262,
        295,
        136,
        5,
        6,
        7,
        8,
        5,
        6,
        7,
        8,
        5,
        6,
        7,
        8,
        5,
        6,
        7,
        8,
        5,
        6,
        7,
        8,
        5,
        6,
        7,
        8,
        5,
        6,
        7,
        8,
        5,
        6,
        7,
        8,
        5,
        6,
        7,
        8,
        5,
        6,
        7,
        8,
        5,
        6,
        7,
        8,
        5,
        6,
        7,
        8,
        5,
        6,
        7,
        8,
        5,
        6,
        7,
        8,
        5,
        6,
        7,
        8,
        5,
        6,
        7,
        8,
        5,
        6,
        7,
        8,
        5,
        6,
        7,
        8,
        5,
        6,
        7,
        8,
        5,
        6,
        7,
        8,
        5,
        6,
        7,
        8,
        5,
        6,
        7,
        8,
        5,
        6,
        7,
        8,
        5,
        6,
        7,
        8,
        5,
        6,
        7,
        8,
        5,
        6,
        7,
        8,
        5,
        6,
        7,
        8,
        5,
        6,
        7,
        8,
        5,
        6,
        7,
        8,
        5,
        6,
        7,
        8,
        37,
        390,
        263,
        264,
        261,
        262,
        295,
        136,
        5,
        6,
        7,
        8,
        5,
        6,
        7,
        8,
        5,
        6,
        7,
        8,
        5,
        6,
        7,
        8,
        5,
        6,
        7,
        8,
        5,
        6,
        7,
        8,
        5,
        6,
        7,
        8,
        5,
        6,
        7,
        8,
        5,
        6,
        7,
        8,
        5,
        6,
        7,
        8,
        5,
        6,
        7,
        8,
        5,
        6,
        7,
        8,
        5,
        6,
        7,
        8,
        5,
        6,
        7,
        8,
        37,
        902,
        775,
        808,
        905,
        778,
        811,
        140,
        9,
        10,
        11,
        12,
        9,
        10,
        11,
        12,
        9,
        10,
        11,
        12,
        9,
        10,
        11,
        12,
        9,
        10,
        11,
        12,
        9,
        10,
        11,
        12,
        9,
        10,
        11,
        12,
        9,
        10,
        11,
        12,
        9,
        10,
        11,
        12,
        9,
        10,
        11,
        12,
        9,
        10,
        11,
        12,
        9,
        10,
        11,
        12,
        9,
        10,
        11,
        12,
        9,
        10,
        11,
        12,
        41,
        394,
        267,
        268,
        265,
        266,
        299,
        140,
        9,
        10,
        11,
        12,
        9,
        10,
        11,
        12,
        9,
        10,
        11,
        12,
        9,
        10,
        11,
        12,
        9,
        10,
        11,
        12,
        9,
        10,
        11,
        12,
        9,
        10,
        11,
        12,
        9,
        10,
        11,
        12,
        9,
        10,
        11,
        12,
        9,
        10,
        11,
        12,
        9,
        10,
        11,
        12,
        9,
        10,
        11,
        12,
        9,
        10,
        11,
        12,
        9,
        10,
        11,
        12,
        9,
        10,
        11,
        12,
        9,
        10,
        11,
        12,
        9,
        10,
        11,
        12,
        9,
        10,
        11,
        12,
        9,
        10,
        11,
        12,
        9,
        10,
        11,
        12,
        9,
        10,
        11,
        12,
        9,
        10,
        11,
        12,
        9,
        10,
        11,
        12,
        9,
        10,
        11,
        12,
        9,
        10,
        11,
        12,
        9,
        10,
        11,
        12,
        9,
        10,
        11,
        12,
        9,
        10,
        11,
        12,
        9,
        10,
        11,
        12,
        9,
        10,
        11,
        12,
        41,
        394,
        267,
        268,
        265,
        266,
        299,
        140,
        9,
        10,
        11,
        12,
        9,
        10,
        11,
        12,
        9,
        10,
        11,
        12,
        9,
        10,
        11,
        12,
        9,
        10,
        11,
        12,
        9,
        10,
        11,
        12,
        9,
        10,
        11,
        12,
        9,
        10,
        11,
        12,
        9,
        10,
        11,
        12,
        9,
        10,
        11,
        12,
        9,
        10,
        11,
        12,
        9,
        10,
        11,
        12,
        9,
        10,
        11,
        12,
        9,
        10,
        11,
        12,
        41,
        906,
        779,
        812,
        973,
        846,
        815,
        144,
        13,
        14,
        15,
        16,
        13,
        14,
        15,
        16,
        13,
        14,
        15,
        16,
        13,
        14,
        15,
        16,
        13,
        14,
        15,
        16,
        13,
        14,
        15,
        16,
        13,
        14,
        15,
        16,
        13,
        14,
        15,
        16,
        13,
        14,
        15,
        16,
        13,
        14,
        15,
        16,
        13,
        14,
        15,
        16,
        13,
        14,
        15,
        16,
        13,
        14,
        15,
        16,
        13,
        14,
        15,
        16,
        45,
        398,
        271,
        272,
        269,
        270,
        303,
        144,
        13,
        14,
        15,
        16,
        13,
        14,
        15,
        16,
        13,
        14,
        15,
        16,
        13,
        14,
        15,
        16,
        13,
        14,
        15,
        16,
        13,
        14,
        15,
        16,
        13,
        14,
        15,
        16,
        13,
        14,
        15,
        16,
        13,
        14,
        15,
        16,
        13,
        14,
        15,
        16,
        13,
        14,
        15,
        16,
        13,
        14,
        15,
        16,
        13,
        14,
        15,
        16,
        13,
        14,
        15,
        16,
        13,
        14,
        15,
        16,
        13,
        14,
        15,
        16,
        13,
        14,
        15,
        16,
        13,
        14,
        15,
        16,
        13,
        14,
        15,
        16,
        13,
        14,
        15,
        16,
        13,
        14,
        15,
        16,
        13,
        14,
        15,
        16,
        13,
        14,
        15,
        16,
        13,
        14,
        15,
        16,
        13,
        14,
        15,
        16,
        13,
        14,
        15,
        16,
        13,
        14,
        15,
        16,
        13,
        14,
        15,
        16,
        13,
        14,
        15,
        16,
        13,
        14,
        15,
        16,
        45,
        398,
        271,
        272,
        269,
        270,
        303,
        144,
        13,
        14,
        15,
        16,
        13,
        14,
        15,
        16,
        13,
        14,
        15,
        16,
        13,
        14,
        15,
        16,
        13,
        14,
        15,
        16,
        13,
        14,
        15,
        16,
        13,
        14,
        15,
        16,
        13,
        14,
        15,
        16,
        13,
        14,
        15,
        16,
        13,
        14,
        15,
        16,
        13,
        14,
        15,
        16,
        13,
        14,
        15,
        16,
        13,
        14,
        15,
        16,
        13,
        14,
        15,
        16,
        45,
        910,
        847,
        880,
        913,
        786,
        803,
        132,
        1,
        2,
        3,
        4,
        1,
        2,
        3,
        4,
        1,
        2,
        3,
        4,
        1,
        2,
        3,
        4,
        1,
        2,
        3,
        4,
        1,
        2,
        3,
        4,
        1,
        2,
        3,
        4,
        1,
        2,
        3,
        4,
        1,
        2,
        3,
        4,
        1,
        2,
        3,
        4,
        1,
        2,
        3,
        4,
        1,
        2,
        3,
        4,
        1,
        2,
        3,
        4,
        1,
        2,
        3,
        4,
        33,
        386,
        259,
        260,
        257,
        258,
        291,
        132,
        1,
        2,
        3,
        4,
        1,
        2,
        3,
        4,
        1,
        2,
        3,
        4,
        1,
        2,
        3,
        4,
        1,
        2,
        3,
        4,
        1,
        2,
        3,
        4,
        1,
        2,
        3,
        4,
        1,
        2,
        3,
        4,
        1,
        2,
        3,
        4,
        1,
        2,
        3,
        4,
        1,
        2,
        3,
        4,
        1,
        2,
        3,
        4,
        1,
        2,
        3,
        4,
        1,
        2,
        3,
        4,
        1,
        2,
        3,
        4,
        1,
        2,
        3,
        4,
        1,
        2,
        3,
        4,
        1,
        2,
        3,
        4,
        1,
        2,
        3,
        4,
        1,
        2,
        3,
        4,
        1,
        2,
        3,
        4,
        1,
        2,
        3,
        4,
        1,
        2,
        3,
        4,
        1,
        2,
        3,
        4,
        1,
        2,
        3,
        4,
        1,
        2,
        3,
        4,
        1,
        2,
        3,
        4,
        1,
        2,
        3,
        4,
        1,
        2,
        3,
        4,
        1,
        2,
        3,
        4,
        33,
        386,
        259,
        260,
        257,
        258,
        291,
        132,
        1,
        2,
        3,
        4,
        1,
        2,
        3,
        4,
        1,
        2,
        3,
        4,
        1,
        2,
        3,
        4,
        1,
        2,
        3,
        4,
        1,
        2,
        3,
        4,
        1,
        2,
        3,
        4,
        1,
        2,
        3,
        4,
        1,
        2,
        3,
        4,
        1,
        2,
        3,
        4,
        1,
        2,
        3,
        4,
        1,
        2,
        3,
        4,
        1,
        2,
        3,
        4,
        1,
        2,
        3,
        4,
        33,
        898,
        787,
        820,
        901,
        774,
        807,
        136,
        5,
        6,
        7,
        8,
        5,
        6,
        7,
        8,
        5,
        6,
        7,
        8,
        5,
        6,
        7,
        8,
        5,
        6,
        7,
        8,
        5,
        6,
        7,
        8,
        5,
        6,
        7,
        8,
        5,
        6,
        7,
        8,
        5,
        6,
        7,
        8,
        5,
        6,
        7,
        8,
        5,
        6,
        7,
        8,
        5,
        6,
        7,
        8,
        5,
        6,
        7,
        8,
        5,
        6,
        7,
        8,
        37,
        390,
        263,
        264,
        261,
        262,
        295,
        136,
        5,
        6,
        7,
        8,
        5,
        6,
        7,
        8,
        5,
        6,
        7,
        8,
        5,
        6,
        7,
        8,
        5,
        6,
        7,
        8,
        5,
        6,
        7,
        8,
        5,
        6,
        7,
        8,
        5,
        6,
        7,
        8,
        5,
        6,
        7,
        8,
        5,
        6,
        7,
        8,
        5,
        6,
        7,
        8,
        5,
        6,
        7,
        8,
        5,
        6,
        7,
        8,
        5,
        6,
        7,
        8,
        5,
        6,
        7,
        8,
        5,
        6,
        7,
        8,
        5,
        6,
        7,
        8,
        5,
        6,
        7,
        8,
        5,
        6,
        7,
        8,
        5,
        6,
        7,
        8,
        5,
        6,
        7,
        8,
        5,
        6,
        7,
        8,
        5,
        6,
        7,
        8,
        5,
        6,
        7,
        8,
        5,
        6,
        7,
        8,
        5,
        6,
        7,
        8,
        5,
        6,
        7,
        8,
        5,
        6,
        7,
        8,
        5,
        6,
        7,
        8,
        5,
        6,
        7,
        8,
        37,
        390,
        263,
        264,
        261,
        262,
        295,
        136,
        5,
        6,
        7,
        8,
        5,
        6,
        7,
        8,
        5,
        6,
        7,
        8,
        5,
        6,
        7,
        8,
        5,
        6,
        7,
        8,
        5,
        6,
        7,
        8,
        5,
        6,
        7,
        8,
        5,
        6,
        7,
        8,
        5,
        6,
        7,
        8,
        5,
        6,
        7,
        8,
        5,
        6,
        7,
        8,
        5,
        6,
        7,
        8,
        5,
        6,
        7,
        8,
        5,
        6,
        7,
        8,
        37,
        902,
        775,
        808,
        905,
        778,
        811,
        140,
        9,
        10,
        11,
        12,
        9,
        10,
        11,
        12,
        9,
        10,
        11,
        12,
        9,
        10,
        11,
        12,
        9,
        10,
        11,
        12,
        9,
        10,
        11,
        12,
        9,
        10,
        11,
        12,
        9,
        10,
        11,
        12,
        9,
        10,
        11,
        12,
        9,
        10,
        11,
        12,
        9,
        10,
        11,
        12,
        9,
        10,
        11,
        12,
        9,
        10,
        11,
        12,
        9,
        10,
        11,
        12,
        41,
        394,
        267,
        268,
        265,
        266,
        299,
        140,
        9,
        10,
        11,
        12,
        9,
        10,
        11,
        12,
        9,
        10,
        11,
        12,
        9,
        10,
        11,
        12,
        9,
        10,
        11,
        12,
        9,
        10,
        11,
        12,
        9,
        10,
        11,
        12,
        9,
        10,
        11,
        12,
        9,
        10,
        11,
        12,
        9,
        10,
        11,
        12,
        9,
        10,
        11,
        12,
        9,
        10,
        11,
        12,
        9,
        10,
        11,
        12,
        9,
        10,
        11,
        12,
        9,
        10,
        11,
        12,
        9,
        10,
        11,
        12,
        9,
        10,
        11,
        12,
        9,
        10,
        11,
        12,
        9,
        10,
        11,
        12,
        9,
        10,
        11,
        12,
        9,
        10,
        11,
        12,
        9,
        10,
        11,
        12,
        9,
        10,
        11,
        12,
        9,
        10,
        11,
        12,
        9,
        10,
        11,
        12,
        9,
        10,
        11,
        12,
        9,
        10,
        11,
        12,
        9,
        10,
        11,
        12,
        9,
        10,
        11,
        12,
        9,
        10,
        11,
        12,
        41,
        394,
        267,
        268,
        265,
        266,
        299,
        140,
        9,
        10,
        11,
        12,
        9,
        10,
        11,
        12,
        9,
        10,
        11,
        12,
        9,
        10,
        11,
        12,
        9,
        10,
        11,
        12,
        9,
        10,
        11,
        12,
        9,
        10,
        11,
        12,
        9,
        10,
        11,
        12,
        9,
        10,
        11,
        12,
        9,
        10,
        11,
        12,
        9,
        10,
        11,
        12,
        9,
        10,
        11,
        12,
        9,
        10,
        11,
        12,
        9,
        10,
        11,
        12,
        41,
        906,
        779,
        812,
        909,
        782,
        815,
        144,
        13,
        14,
        15,
        16,
        13,
        14,
        15,
        16,
        13,
        14,
        15,
        16,
        13,
        14,
        15,
        16,
        13,
        14,
        15,
        16,
        13,
        14,
        15,
        16,
        13,
        14,
        15,
        16,
        13,
        14,
        15,
        16,
        13,
        14,
        15,
        16,
        13,
        14,
        15,
        16,
        13,
        14,
        15,
        16,
        13,
        14,
        15,
        16,
        13,
        14,
        15,
        16,
        13,
        14,
        15,
        16,
        45,
        398,
        271,
        272,
        269,
        270,
        303,
        144,
        13,
        14,
        15,
        16,
        13,
        14,
        15,
        16,
        13,
        14,
        15,
        16,
        13,
        14,
        15,
        16,
        13,
        14,
        15,
        16,
        13,
        14,
        15,
        16,
        13,
        14,
        15,
        16,
        13,
        14,
        15,
        16,
        13,
        14,
        15,
        16,
        13,
        14,
        15,
        16,
        13,
        14,
        15,
        16,
        13,
        14,
        15,
        16,
        13,
        14,
        15,
        16,
        13,
        14,
        15,
        16,
        13,
        14,
        15,
        16,
        13,
        14,
        15,
        16,
        13,
        14,
        15,
        16,
        13,
        14,
        15,
        16,
        13,
        14,
        15,
        16,
        13,
        14,
        15,
        16,
        13,
        14,
        15,
        16,
        13,
        14,
        15,
        16,
        13,
        14,
        15,
        16,
        13,
        14,
        15,
        16,
        13,
        14,
        15,
        16,
        13,
        14,
        15,
        16,
        13,
        14,
        15,
        16,
        13,
        14,
        15,
        16,
        13,
        14,
        15,
        16,
        13,
        14,
        15,
        16,
        45,
        398,
        271,
        272,
        269,
        270,
        303,
        144,
        13,
        14,
        15,
        16,
        13,
        14,
        15,
        16,
        13,
        14,
        15,
        16,
        13,
        14,
        15,
        16,
        13,
        14,
        15,
        16,
        13,
        14,
        15,
        16,
        13,
        14,
        15,
        16,
        13,
        14,
        15,
        16,
        13,
        14,
        15,
        16,
        13,
        14,
        15,
        16,
        13,
        14,
        15,
        16,
        13,
        14,
        15,
        16,
        13,
        14,
        15,
        16,
        13,
        14,
        15,
        16,
        45,
        910,
        783,
        816,
        897,
        770,
        803,
        132,
        1,
        2,
        3,
        4,
        1,
        2,
        3,
        4,
        1,
        2,
        3,
        4,
        1,
        2,
        3,
        4,
        1,
        2,
        3,
        4,
        1,
        2,
        3,
        4,
        1,
        2,
        3,
        4,
        1,
        2,
        3,
        4,
        1,
        2,
        3,
        4,
        1,
        2,
        3,
        4,
        1,
        2,
        3,
        4,
        1,
        2,
        3,
        4,
        1,
        2,
        3,
        4,
        1,
        2,
        3,
        4,
        33,
        386,
        259,
        260,
        257,
        258,
        291,
        132,
        1,
        2,
        3,
        4,
        1,
        2,
        3,
        4,
        1,
        2,
        3,
        4,
        1,
        2,
        3,
        4,
        1,
        2,
        3,
        4,
        1,
        2,
        3,
        4,
        1,
        2,
        3,
        4,
        1,
        2,
        3,
        4,
        1,
        2,
        3,
        4,
        1,
        2,
        3,
        4,
        1,
        2,
        3,
        4,
        1,
        2,
        3,
        4,
        1,
        2,
        3,
        4,
        1,
        2,
        3,
        4,
        1,
        2,
        3,
        4,
        1,
        2,
        3,
        4,
        1,
        2,
        3,
        4,
        1,
        2,
        3,
        4,
        1,
        2,
        3,
        4,
        1,
        2,
        3,
        4,
        1,
        2,
        3,
        4,
        1,
        2,
        3,
        4,
        1,
        2,
        3,
        4,
        1,
        2,
        3,
        4,
        1,
        2,
        3,
        4,
        1,
        2,
        3,
        4,
        1,
        2,
        3,
        4,
        1,
        2,
        3,
        4,
        1,
        2,
        3,
        4,
        1,
        2,
        3,
        4,
        33,
        386,
        259,
        260,
        257,
        258,
        291,
        132,
        1,
        2,
        3,
        4,
        1,
        2,
        3,
        4,
        1,
        2,
        3,
        4,
        1,
        2,
        3,
        4,
        1,
        2,
        3,
        4,
        1,
        2,
        3,
        4,
        1,
        2,
        3,
        4,
        1,
        2,
        3,
        4,
        1,
        2,
        3,
        4,
        1,
        2,
        3,
        4,
        1,
        2,
        3,
        4,
        1,
        2,
        3,
        4,
        1,
        2,
        3,
        4,
        1,
        2,
        3,
        4,
        33,
        898,
        771,
        804,
        901,
        774,
        807,
        136,
        5,
        6,
        7,
        8,
        5,
        6,
        7,
        8,
        5,
        6,
        7,
        8,
        5,
        6,
        7,
        8,
        5,
        6,
        7,
        8,
        5,
        6,
        7,
        8,
        5,
        6,
        7,
        8,
        5,
        6,
        7,
        8,
        5,
        6,
        7,
        8,
        5,
        6,
        7,
        8,
        5,
        6,
        7,
        8,
        5,
        6,
        7,
        8,
        5,
        6,
        7,
        8,
        5,
        6,
        7,
        8,
        37,
        390,
        263,
        264,
        261,
        262,
        295,
        136,
        5,
        6,
        7,
        8,
        5,
        6,
        7,
        8,
        5,
        6,
        7,
        8,
        5,
        6,
        7,
        8,
        5,
        6,
        7,
        8,
        5,
        6,
        7,
        8,
        5,
        6,
        7,
        8,
        5,
        6,
        7,
        8,
        5,
        6,
        7,
        8,
        5,
        6,
        7,
        8,
        5,
        6,
        7,
        8,
        5,
        6,
        7,
        8,
        5,
        6,
        7,
        8,
        5,
        6,
        7,
        8,
        5,
        6,
        7,
        8,
        5,
        6,
        7,
        8,
        5,
        6,
        7,
        8,
        5,
        6,
        7,
        8,
        5,
        6,
        7,
        8,
        5,
        6,
        7,
        8,
        5,
        6,
        7,
        8,
        5,
        6,
        7,
        8,
        5,
        6,
        7,
        8,
        5,
        6,
        7,
        8,
        5,
        6,
        7,
        8,
        5,
        6,
        7,
        8,
        5,
        6,
        7,
        8,
        5,
        6,
        7,
        8,
        5,
        6,
        7,
        8,
        5,
        6,
        7,
        8,
        37,
        390,
        263,
        264,
        261,
        262,
        295,
        136,
        5,
        6,
        7,
        8,
        5,
        6,
        7,
        8,
        5,
        6,
        7,
        8,
        5,
        6,
        7,
        8,
        5,
        6,
        7,
        8,
        5,
        6,
        7,
        8,
        5,
        6,
        7,
        8,
        5,
        6,
        7,
        8,
        5,
        6,
        7,
        8,
        5,
        6,
        7,
        8,
        5,
        6,
        7,
        8,
        5,
        6,
        7,
        8,
        5,
        6,
        7,
        8,
        5,
        6,
        7,
        8,
        37,
        902,
        775,
        808,
        905,
        778,
        811,
        140,
        9,
        10,
        11,
        12,
        9,
        10,
        11,
        12,
        9,
        10,
        11,
        12,
        9,
        10,
        11,
        12,
        9,
        10,
        11,
        12,
        9,
        10,
        11,
        12,
        9,
        10,
        11,
        12,
        9,
        10,
        11,
        12,
        9,
        10,
        11,
        12,
        9,
        10,
        11,
        12,
        9,
        10,
        11,
        12,
        9,
        10,
        11,
        12,
        9,
        10,
        11,
        12,
        9,
        10,
        11,
        12,
        41,
        394,
        267,
        268,
        265,
        266,
        299,
        140,
        9,
        10,
        11,
        12,
        9,
        10,
        11,
        12,
        9,
        10,
        11,
        12,
        9,
        10,
        11,
        12,
        9,
        10,
        11,
        12,
        9,
        10,
        11,
        12,
        9,
        10,
        11,
        12,
        9,
        10,
        11,
        12,
        9,
        10,
        11,
        12,
        9,
        10,
        11,
        12,
        9,
        10,
        11,
        12,
        9,
        10,
        11,
        12,
        9,
        10,
        11,
        12,
        9,
        10,
        11,
        12,
        9,
        10,
        11,
        12,
        9,
        10,
        11,
        12,
        9,
        10,
        11,
        12,
        9,
        10,
        11,
        12,
        9,
        10,
        11,
        12,
        9,
        10,
        11,
        12,
        9,
        10,
        11,
        12,
        9,
        10,
        11,
        12,
        9,
        10,
        11,
        12,
        9,
        10,
        11,
        12,
        9,
        10,
        11,
        12,
        9,
        10,
        11,
        12,
        9,
        10,
        11,
        12,
        9,
        10,
        11,
        12,
        9,
        10,
        11,
        12,
        9,
        10,
        11,
        12,
        41,
        394,
        267,
        268,
        265,
        266,
        299,
        140,
        9,
        10,
        11,
        12,
        9,
        10,
        11,
        12,
        9,
        10,
        11,
        12,
        9,
        10,
        11,
        12,
        9,
        10,
        11,
        12,
        9,
        10,
        11,
        12,
        9,
        10,
        11,
        12,
        9,
        10,
        11,
        12,
        9,
        10,
        11,
        12,
        9,
        10,
        11,
        12,
        9,
        10,
        11,
        12,
        9,
        10,
        11,
        12,
        9,
        10,
        11,
        12,
        9,
        10,
        11,
        12,
        41,
        906,
        779,
        812,
        909,
        782,
        815,
        144,
        13,
        14,
        15,
        16,
        13,
        14,
        15,
        16,
        13,
        14,
        15,
        16,
        13,
        14,
        15,
        16,
        13,
        14,
        15,
        16,
        13,
        14,
        15,
        16,
        13,
        14,
        15,
        16,
        13,
        14,
        15,
        16,
        13,
        14,
        15,
        16,
        13,
        14,
        15,
        16,
        13,
        14,
        15,
        16,
        13,
        14,
        15,
        16,
        13,
        14,
        15,
        16,
        13,
        14,
        15,
        16,
        45,
        398,
        271,
        272,
        269,
        270,
        303,
        144,
        13,
        14,
        15,
        16,
        13,
        14,
        15,
        16,
        13,
        14,
        15,
        16,
        13,
        14,
        15,
        16,
        13,
        14,
        15,
        16,
        13,
        14,
        15,
        16,
        13,
        14,
        15,
        16,
        13,
        14,
        15,
        16,
        13,
        14,
        15,
        16,
        13,
        14,
        15,
        16,
        13,
        14,
        15,
        16,
        13,
        14,
        15,
        16,
        13,
        14,
        15,
        16,
        13,
        14,
        15,
        16,
        13,
        14,
        15,
        16,
        13,
        14,
        15,
        16,
        13,
        14,
        15,
        16,
        13,
        14,
        15,
        16,
        13,
        14,
        15,
        16,
        13,
        14,
        15,
        16,
        13,
        14,
        15,
        16,
        13,
        14,
        15,
        16,
        13,
        14,
        15,
        16,
        13,
        14,
        15,
        16,
        13,
        14,
        15,
        16,
        13,
        14,
        15,
        16,
        13,
        14,
        15,
        16,
        13,
        14,
        15,
        16,
        13,
        14,
        15,
        16,
        13,
        14,
        15,
        16,
        45,
        398,
        271,
        272,
        269,
        270,
        303,
        144,
        13,
        14,
        15,
        16,
        13,
        14,
        15,
        16,
        13,
        14,
        15,
        16,
        13,
        14,
        15,
        16,
        13,
        14,
        15,
        16,
        13,
        14,
        15,
        16,
        13,
        14,
        15,
        16,
        13,
        14,
        15,
        16,
        13,
        14,
        15,
        16,
        13,
        14,
        15,
        16,
        13,
        14,
        15,
        16,
        13,
        14,
        15,
        16,
        13,
        14,
        15,
        16,
        13,
        14,
        15,
        16,
        45,
        910,
        783,
        816,
        897,
        770,
        803,
        132,
        1,
        2,
        3,
        4,
        1,
        2,
        3,
        4,
        1,
        2,
        3,
        4,
        1,
        2,
        3,
        4,
        1,
        2,
        3,
        4,
        1,
        2,
        3,
        4,
        1,
        2,
        3,
        4,
        1,
        2,
        3,
        4,
        1,
        2,
        3,
        4,
        1,
        2,
        3,
        4,
        1,
        2,
        3,
        4,
        1,
        2,
        3,
        4,
        1,
        2,
        3,
        4,
        1,
        2,
        3,
        4,
        33,
        386,
        259,
        260,
        257,
        258,
        291,
        132,
        1,
        2,
        3,
        4,
        1,
        2,
        3,
        4,
        1,
        2,
        3,
        4,
        1,
        2,
        3,
        4,
        1,
        2,
        3,
        4,
        1,
        2,
        3,
        4,
        1,
        2,
        3,
        4,
        1,
        2,
        3,
        4,
        1,
        2,
        3,
        4,
        1,
        2,
        3,
        4,
        1,
        2,
        3,
        4,
        1,
        2,
        3,
        4,
        1,
        2,
        3,
        4,
        1,
        2,
        3,
        4,
        1,
        2,
        3,
        4,
        1,
        2,
        3,
        4,
        1,
        2,
        3,
        4,
        1,
        2,
        3,
        4,
        1,
        2,
        3,
        4,
        1,
        2,
        3,
        4,
        1,
        2,
        3,
        4,
        1,
        2,
        3,
        4,
        1,
        2,
        3,
        4,
        1,
        2,
        3,
        4,
        1,
        2,
        3,
        4,
        1,
        2,
        3,
        4,
        1,
        2,
        3,
        4,
        1,
        2,
        3,
        4,
        1,
        2,
        3,
        4,
        1,
        2,
        3,
        4,
        33,
        386,
        259,
        260,
        257,
        258,
        291,
        132,
        1,
        2,
        3,
        4,
        1,
        2,
        3,
        4,
        1,
        2,
        3,
        4,
        1,
        2,
        3,
        4,
        1,
        2,
        3,
        4,
        1,
        2,
        3,
        4,
        1,
        2,
        3,
        4,
        1,
        2,
        3,
        4,
        1,
        2,
        3,
        4,
        1,
        2,
        3,
        4,
        1,
        2,
        3,
        4,
        1,
        2,
        3,
        4,
        1,
        2,
        3,
        4,
        1,
        2,
        3,
        4,
        33,
        898,
        771,
        804,
        901,
        774,
        807,
        136,
        5,
        6,
        7,
        8,
        5,
        6,
        7,
        8,
        5,
        6,
        7,
        8,
        5,
        6,
        7,
        8,
        5,
        6,
        7,
        8,
        5,
        6,
        7,
        8,
        5,
        6,
        7,
        8,
        5,
        6,
        7,
        8,
        5,
        6,
        7,
        8,
        5,
        6,
        7,
        8,
        5,
        6,
        7,
        8,
        5,
        6,
        7,
        8,
        5,
        6,
        7,
        8,
        5,
        6,
        7,
        8,
        37,
        390,
        263,
        264,
        261,
        262,
        295,
        136,
        5,
        6,
        7,
        8,
        5,
        6,
        7,
        8,
        5,
        6,
        7,
        8,
        5,
        6,
        7,
        8,
        5,
        6,
        7,
        8,
        5,
        6,
        7,
        8,
        5,
        6,
        7,
        8,
        5,
        6,
        7,
        8,
        5,
        6,
        7,
        8,
        5,
        6,
        7,
        8,
        5,
        6,
        7,
        8,
        5,
        6,
        7,
        8,
        5,
        6,
        7,
        8,
        5,
        6,
        7,
        8,
        5,
        6,
        7,
        8,
        5,
        6,
        7,
        8,
        5,
        6,
        7,
        8,
        5,
        6,
        7,
        8,
        5,
        6,
        7,
        8,
        5,
        6,
        7,
        8,
        5,
        6,
        7,
        8,
        5,
        6,
        7,
        8,
        5,
        6,
        7,
        8,
        5,
        6,
        7,
        8,
        5,
        6,
        7,
        8,
        5,
        6,
        7,
        8,
        5,
        6,
        7,
        8,
        5,
        6,
        7,
        8,
        5,
        6,
        7,
        8,
        5,
        6,
        7,
        8,
        37,
        390,
        263,
        264,
        261,
        262,
        295,
        136,
        5,
        6,
        7,
        8,
        5,
        6,
        7,
        8,
        5,
        6,
        7,
        8,
        5,
        6,
        7,
        8,
        5,
        6,
        7,
        8,
        5,
        6,
        7,
        8,
        5,
        6,
        7,
        8,
        5,
        6,
        7,
        8,
        5,
        6,
        7,
        8,
        5,
        6,
        7,
        8,
        5,
        6,
        7,
        8,
        5,
        6,
        7,
        8,
        5,
        6,
        7,
        8,
        5,
        6,
        7,
        8,
        37,
        902,
        775,
        808,
        905,
        778,
        811,
        140,
        9,
        10,
        11,
        12,
        9,
        10,
        11,
        12,
        9,
        10,
        11,
        12,
        9,
        10,
        11,
        12,
        9,
        10,
        11,
        12,
        9,
        10,
        11,
        12,
        9,
        10,
        11,
        12,
        9,
        10,
        11,
        12,
        9,
        10,
        11,
        12,
        9,
        10,
        11,
        12,
        9,
        10,
        11,
        12,
        9,
        10,
        11,
        12,
        9,
        10,
        11,
        12,
        9,
        10,
        11,
        12,
        41,
        394,
        267,
        268,
        265,
        266,
        299,
        140,
        9,
        10,
        11,
        12,
        9,
        10,
        11,
        12,
        9,
        10,
        11,
        12,
        9,
        10,
        11,
        12,
        9,
        10,
        11,
        12,
        9,
        10,
        11,
        12,
        9,
        10,
        11,
        12,
        9,
        10,
        11,
        12,
        9,
        10,
        11,
        12,
        9,
        10,
        11,
        12,
        9,
        10,
        11,
        12,
        9,
        10,
        11,
        12,
        9,
        10,
        11,
        12,
        9,
        10,
        11,
        12,
        9,
        10,
        11,
        12,
        9,
        10,
        11,
        12,
        9,
        10,
        11,
        12,
        9,
        10,
        11,
        12,
        9,
        10,
        11,
        12,
        9,
        10,
        11,
        12,
        9,
        10,
        11,
        12,
        9,
        10,
        11,
        12,
        9,
        10,
        11,
        12,
        9,
        10,
        11,
        12,
        9,
        10,
        11,
        12,
        9,
        10,
        11,
        12,
        9,
        10,
        11,
        12,
        9,
        10,
        11,
        12,
        9,
        10,
        11,
        12,
        9,
        10,
        11,
        12,
        41,
        394,
        267,
        268,
        265,
        266,
        299,
        140,
        9,
        10,
        11,
        12,
        9,
        10,
        11,
        12,
        9,
        10,
        11,
        12,
        9,
        10,
        11,
        12,
        9,
        10,
        11,
        12,
        9,
        10,
        11,
        12,
        9,
        10,
        11,
        12,
        9,
        10,
        11,
        12,
        9,
        10,
        11,
        12,
        9,
        10,
        11,
        12,
        9,
        10,
        11,
        12,
        9,
        10,
        11,
        12,
        9,
        10,
        11,
        12,
        9,
        10,
        11,
        12,
        41,
        906,
        779,
        812,
        909,
        782,
        815,
        144,
        13,
        14,
        15,
        16,
        13,
        14,
        15,
        16,
        13,
        14,
        15,
        16,
        13,
        14,
        15,
        16,
        13,
        14,
        15,
        16,
        13,
        14,
        15,
        16,
        13,
        14,
        15,
        16,
        13,
        14,
        15,
        16,
        13,
        14,
        15,
        16,
        13,
        14,
        15,
        16,
        13,
        14,
        15,
        16,
        13,
        14,
        15,
        16,
        13,
        14,
        15,
        16,
        13,
        14,
        15,
        16,
        45,
        398,
        271,
        272,
        269,
        270,
        303,
        144,
        13,
        14,
        15,
        16,
        13,
        14,
        15,
        16,
        13,
        14,
        15,
        16,
        13,
        14,
        15,
        16,
        13,
        14,
        15,
        16,
        13,
        14,
        15,
        16,
        13,
        14,
        15,
        16,
        13,
        14,
        15,
        16,
        13,
        14,
        15,
        16,
        13,
        14,
        15,
        16,
        13,
        14,
        15,
        16,
        13,
        14,
        15,
        16,
        13,
        14,
        15,
        16,
        13,
        14,
        15,
        16,
        13,
        14,
        15,
        16,
        13,
        14,
        15,
        16,
        13,
        14,
        15,
        16,
        13,
        14,
        15,
        16,
        13,
        14,
        15,
        16,
        13,
        14,
        15,
        16,
        13,
        14,
        15,
        16,
        13,
        14,
        15,
        16,
        13,
        14,
        15,
        16,
        13,
        14,
        15,
        16,
        13,
        14,
        15,
        16,
        13,
        14,
        15,
        16,
        13,
        14,
        15,
        16,
        13,
        14,
        15,
        16,
        13,
        14,
        15,
        16,
        13,
        14,
        15,
        16,
        45,
        398,
        271,
        272,
        269,
        270,
        303,
        144,
        13,
        14,
        15,
        16,
        13,
        14,
        15,
        16,
        13,
        14,
        15,
        16,
        13,
        14,
        15,
        16,
        13,
        14,
        15,
        16,
        13,
        14,
        15,
        16,
        13,
        14,
        15,
        16,
        13,
        14,
        15,
        16,
        13,
        14,
        15,
        16,
        13,
        14,
        15,
        16,
        13,
        14,
        15,
        16,
        13,
        14,
        15,
        16,
        13,
        14,
        15,
        16,
        13,
        14,
        15,
        16,
        45,
        910,
        783,
        816,
        897,
        770,
        803,
        132,
        1,
        2,
        3,
        4,
        1,
        2,
        3,
        4,
        1,
        2,
        3,
        4,
        1,
        2,
        3,
        4,
        1,
        2,
        3,
        4,
        1,
        2,
        3,
        4,
        1,
        2,
        3,
        4,
        1,
        2,
        3,
        4,
        1,
        2,
        3,
        4,
        1,
        2,
        3,
        4,
        1,
        2,
        3,
        4,
        1,
        2,
        3,
        4,
        1,
        2,
        3,
        4,
        1,
        2,
        3,
        4,
        33,
        386,
        259,
        260,
        257,
        258,
        291,
        132,
        1,
        2,
        3,
        4,
        1,
        2,
        3,
        4,
        1,
        2,
        3,
        4,
        1,
        2,
        3,
        4,
        1,
        2,
        3,
        4,
        1,
        2,
        3,
        4,
        1,
        2,
        3,
        4,
        1,
        2,
        3,
        4,
        1,
        2,
        3,
        4,
        1,
        2,
        3,
        4,
        1,
        2,
        3,
        4,
        1,
        2,
        3,
        4,
        1,
        2,
        3,
        4,
        1,
        2,
        3,
        4,
        1,
        2,
        3,
        4,
        1,
        2,
        3,
        4,
        1,
        2,
        3,
        4,
        1,
        2,
        3,
        4,
        1,
        2,
        3,
        4,
        1,
        2,
        3,
        4,
        1,
        2,
        3,
        4,
        1,
        2,
        3,
        4,
        1,
        2,
        3,
        4,
        1,
        2,
        3,
        4,
        1,
        2,
        3,
        4,
        1,
        2,
        3,
        4,
        1,
        2,
        3,
        4,
        1,
        2,
        3,
        4,
        1,
        2,
        3,
        4,
        1,
        2,
        3,
        4,
        33,
        386,
        259,
        260,
        257,
        258,
        291,
        132,
        1,
        2,
        3,
        4,
        1,
        2,
        3,
        4,
        1,
        2,
        3,
        4,
        1,
        2,
        3,
        4,
        1,
        2,
        3,
        4,
        1,
        2,
        3,
        4,
        1,
        2,
        3,
        4,
        1,
        2,
        3,
        4,
        1,
        2,
        3,
        4,
        1,
        2,
        3,
        4,
        1,
        2,
        3,
        4,
        1,
        2,
        3,
        4,
        1,
        2,
        3,
        4,
        1,
        2,
        3,
        4,
        33,
        898,
        771,
        804,
        901,
        774,
        807,
        136,
        5,
        6,
        7,
        8,
        5,
        6,
        7,
        8,
        5,
        6,
        7,
        8,
        5,
        6,
        7,
        8,
        5,
        6,
        7,
        8,
        5,
        6,
        71,
        72,
        69,
        70,
        71,
        72,
        69,
        70,
        71,
        72,
        69,
        70,
        71,
        72,
        69,
        70,
        71,
        72,
        69,
        70,
        71,
        72,
        69,
        70,
        71,
        72,
        69,
        70,
        71,
        72,
        69,
        70,
        71,
        72,
        101,
        390,
        263,
        264,
        261,
        262,
        295,
        200,
        69,
        70,
        71,
        72,
        69,
        70,
        71,
        72,
        69,
        70,
        71,
        72,
        69,
        70,
        71,
        72,
        69,
        70,
        71,
        72,
        69,
        70,
        71,
        72,
        69,
        70,
        71,
        72,
        69,
        70,
        71,
        72,
        69,
        70,
        71,
        8,
        5,
        6,
        7,
        8,
        5,
        6,
        7,
        8,
        5,
        6,
        7,
        8,
        5,
        6,
        7,
        8,
        5,
        6,
        7,
        8,
        5,
        6,
        7,
        8,
        5,
        6,
        7,
        8,
        5,
        6,
        7,
        8,
        5,
        6,
        7,
        8,
        5,
        6,
        7,
        8,
        5,
        6,
        7,
        8,
        5,
        6,
        7,
        8,
        5,
        6,
        71,
        72,
        69,
        70,
        71,
        72,
        69,
        70,
        71,
        72,
        69,
        70,
        71,
        72,
        69,
        70,
        71,
        72,
        69,
        70,
        71,
        72,
        69,
        70,
        71,
        72,
        69,
        70,
        71,
        72,
        69,
        70,
        71,
        72,
        101,
        390,
        263,
        264,
        261,
        262,
        295,
        200,
        69,
        70,
        71,
        72,
        69,
        70,
        71,
        72,
        69,
        70,
        71,
        72,
        69,
        70,
        71,
        72,
        69,
        70,
        71,
        72,
        69,
        70,
        71,
        72,
        69,
        70,
        71,
        72,
        69,
        70,
        71,
        72,
        69,
        70,
        71,
        8,
        5,
        6,
        7,
        8,
        5,
        6,
        7,
        8,
        5,
        6,
        7,
        8,
        5,
        6,
        7,
        8,
        5,
        6,
        7,
        8,
        37,
        902,
        775,
        808,
        905,
        778,
        811,
        140,
        9,
        10,
        11,
        12,
        9,
        10,
        11,
        12,
        9,
        10,
        11,
        12,
        9,
        10,
        11,
        12,
        9,
        10,
        11,
        76,
        73,
        106,
        411,
        284,
        281,
        282,
        283,
        284,
        281,
        282,
        283,
        284,
        281,
        282,
        283,
        284,
        281,
        282,
        283,
        284,
        281,
        282,
        283,
        284,
        281,
        282,
        283,
        284,
        281,
        282,
        283,
        284,
        281,
        282,
        283,
        284,
        281,
        266,
        267,
        268,
        265,
        266,
        267,
        284,
        281,
        282,
        283,
        284,
        281,
        282,
        283,
        284,
        281,
        282,
        283,
        284,
        281,
        282,
        283,
        284,
        281,
        282,
        283,
        284,
        281,
        282,
        283,
        284,
        281,
        282,
        283,
        284,
        281,
        282,
        283,
        284,
        281,
        282,
        315,
        204,
        73,
        74,
        11,
        12,
        9,
        10,
        11,
        12,
        9,
        10,
        11,
        12,
        9,
        10,
        11,
        12,
        9,
        10,
        11,
        12,
        9,
        10,
        11,
        12,
        9,
        10,
        11,
        12,
        9,
        10,
        11,
        12,
        9,
        10,
        11,
        12,
        9,
        10,
        11,
        12,
        9,
        10,
        11,
        12,
        9,
        10,
        11,
        76,
        73,
        106,
        411,
        284,
        281,
        282,
        283,
        284,
        281,
        282,
        283,
        284,
        281,
        282,
        283,
        284,
        281,
        282,
        283,
        284,
        281,
        282,
        283,
        284,
        281,
        282,
        283,
        284,
        281,
        282,
        283,
        284,
        281,
        282,
        283,
        284,
        281,
        266,
        267,
        268,
        265,
        266,
        267,
        284,
        281,
        282,
        283,
        284,
        281,
        282,
        283,
        284,
        281,
        282,
        283,
        284,
        281,
        282,
        283,
        284,
        281,
        282,
        283,
        284,
        281,
        282,
        283,
        284,
        281,
        282,
        283,
        284,
        281,
        282,
        283,
        284,
        281,
        282,
        315,
        204,
        73,
        74,
        11,
        12,
        9,
        10,
        11,
        12,
        9,
        10,
        11,
        12,
        9,
        10,
        11,
        12,
        9,
        10,
        11,
        12,
        41,
        906,
        779,
        812,
        909,
        782,
        815,
        144,
        13,
        14,
        15,
        16,
        13,
        14,
        15,
        16,
        13,
        14,
        15,
        16,
        13,
        14,
        15,
        16,
        13,
        78,
        111,
        416,
        285,
        286,
        271,
        272,
        269,
        270,
        271,
        272,
        269,
        270,
        271,
        272,
        269,
        270,
        271,
        272,
        269,
        270,
        271,
        272,
        269,
        270,
        271,
        272,
        269,
        270,
        271,
        272,
        269,
        270,
        271,
        272,
        269,
        270,
        271,
        272,
        269,
        270,
        271,
        272,
        269,
        270,
        271,
        272,
        269,
        270,
        271,
        272,
        269,
        270,
        271,
        272,
        269,
        270,
        271,
        272,
        269,
        270,
        271,
        272,
        269,
        270,
        271,
        272,
        269,
        270,
        271,
        272,
        269,
        270,
        271,
        272,
        269,
        270,
        271,
        272,
        269,
        270,
        271,
        288,
        285,
        318,
        207,
        80,
        13,
        14,
        15,
        16,
        13,
        14,
        15,
        16,
        13,
        14,
        15,
        16,
        13,
        14,
        15,
        16,
        13,
        14,
        15,
        16,
        13,
        14,
        15,
        16,
        13,
        14,
        15,
        16,
        13,
        14,
        15,
        16,
        13,
        14,
        15,
        16,
        13,
        14,
        15,
        16,
        13,
        78,
        111,
        416,
        285,
        286,
        271,
        272,
        269,
        270,
        271,
        272,
        269,
        270,
        271,
        272,
        269,
        270,
        271,
        272,
        269,
        270,
        271,
        272,
        269,
        270,
        271,
        272,
        269,
        270,
        271,
        272,
        269,
        270,
        271,
        272,
        269,
        270,
        271,
        272,
        269,
        270,
        271,
        272,
        269,
        270,
        271,
        272,
        269,
        270,
        271,
        272,
        269,
        270,
        271,
        272,
        269,
        270,
        271,
        272,
        269,
        270,
        271,
        272,
        269,
        270,
        271,
        272,
        269,
        270,
        271,
        272,
        269,
        270,
        271,
        272,
        269,
        270,
        271,
        272,
        269,
        270,
        271,
        288,
        285,
        318,
        207,
        80,
        13,
        14,
        15,
        16,
        13,
        14,
        15,
        16,
        13,
        14,
        15,
        16,
        13,
        14,
        15,
        16,
        45,
        910,
        783,
        816,
        897,
        770,
        803,
        132,
        1,
        2,
        3,
        4,
        1,
        2,
        3,
        4,
        1,
        2,
        3,
        4,
        1,
        2,
        3,
        4,
        97,
        402,
        275,
        260,
        257,
        258,
        259,
        260,
        257,
        258,
        259,
        260,
        257,
        258,
        259,
        260,
        257,
        258,
        259,
        260,
        257,
        258,
        259,
        260,
        257,
        258,
        259,
        260,
        257,
        258,
        259,
        260,
        257,
        258,
        259,
        260,
        257,
        258,
        259,
        260,
        257,
        258,
        259,
        260,
        257,
        258,
        259,
        260,
        257,
        258,
        259,
        260,
        257,
        258,
        259,
        260,
        257,
        258,
        259,
        260,
        257,
        258,
        259,
        260,
        257,
        258,
        259,
        260,
        257,
        258,
        259,
        260,
        257,
        258,
        259,
        260,
        257,
        258,
        259,
        260,
        257,
        258,
        259,
        260,
        257,
        258,
        275,
        308,
        193,
        2,
        3,
        4,
        1,
        2,
        3,
        4,
        1,
        2,
        3,
        4,
        1,
        2,
        3,
        4,
        1,
        2,
        3,
        4,
        1,
        2,
        3,
        4,
        1,
        2,
        3,
        4,
        1,
        2,
        3,
        4,
        1,
        2,
        3,
        4,
        1,
        2,
        3,
        4,
        97,
        402,
        275,
        260,
        257,
        258,
        259,
        260,
        257,
        258,
        259,
        260,
        257,
        258,
        259,
        260,
        257,
        258,
        259,
        260,
        257,
        258,
        259,
        260,
        257,
        258,
        259,
        260,
        257,
        258,
        259,
        260,
        257,
        258,
        259,
        260,
        257,
        258,
        259,
        260,
        257,
        258,
        259,
        260,
        257,
        258,
        259,
        260,
        257,
        258,
        259,
        260,
        257,
        258,
        259,
        260,
        257,
        258,
        259,
        260,
        257,
        258,
        259,
        260,
        257,
        258,
        259,
        260,
        257,
        258,
        259,
        260,
        257,
        258,
        259,
        260,
        257,
        258,
        259,
        260,
        257,
        258,
        259,
        260,
        257,
        258,
        275,
        308,
        193,
        2,
        3,
        4,
        1,
        2,
        3,
        4,
        1,
        2,
        3,
        4,
        1,
        2,
        3,
        4,
        33,
        898,
        771,
        804,
        901,
        774,
        807,
        136,
        5,
        6,
        7,
        8,
        5,
        6,
        7,
        8,
        5,
        6,
        7,
        8,
        5,
        6,
        7,
        104,
        405,
        262,
        263,
        264,
        261,
        262,
        263,
        264,
        261,
        262,
        263,
        264,
        261,
        262,
        263,
        264,
        261,
        262,
        263,
        264,
        261,
        262,
        263,
        264,
        261,
        262,
        263,
        264,
        261,
        262,
        263,
        264,
        261,
        262,
        263,
        264,
        261,
        262,
        263,
        264,
        261,
        262,
        263,
        264,
        261,
        262,
        263,
        264,
        261,
        262,
        263,
        264,
        261,
        262,
        263,
        264,
        261,
        262,
        263,
        264,
        261,
        262,
        263,
        264,
        261,
        262,
        263,
        264,
        261,
        262,
        263,
        264,
        261,
        262,
        263,
        264,
        261,
        262,
        263,
        264,
        261,
        262,
        263,
        264,
        261,
        262,
        263,
        264,
        309,
        198,
        7,
        8,
        5,
        6,
        7,
        8,
        5,
        6,
        7,
        8,
        5,
        6,
        7,
        8,
        5,
        6,
        7,
        8,
        5,
        6,
        7,
        8,
        5,
        6,
        7,
        8,
        5,
        6,
        7,
        8,
        5,
        6,
        7,
        8,
        5,
        6,
        7,
        104,
        405,
        262,
        263,
        264,
        261,
        262,
        263,
        264,
        261,
        262,
        263,
        264,
        261,
        262,
        263,
        264,
        261,
        262,
        263,
        264,
        261,
        262,
        263,
        264,
        261,
        262,
        263,
        264,
        261,
        262,
        263,
        264,
        261,
        262,
        263,
        264,
        261,
        262,
        263,
        264,
        261,
        262,
        263,
        264,
        261,
        262,
        263,
        264,
        261,
        262,
        263,
        264,
        261,
        262,
        263,
        264,
        261,
        262,
        263,
        264,
        261,
        262,
        263,
        264,
        261,
        262,
        263,
        264,
        261,
        262,
        263,
        264,
        261,
        262,
        263,
        264,
        261,
        262,
        263,
        264,
        261,
        262,
        263,
        264,
        261,
        262,
        263,
        264,
        309,
        198,
        7,
        8,
        5,
        6,
        7,
        8,
        5,
        6,
        7,
        8,
        5,
        6,
        7,
        8,
        37,
        902,
        775,
        808,
        905,
        778,
        811,
        140,
        9,
        10,
        11,
        12,
        9,
        10,
        11,
        12,
        9,
        10,
        11,
        12,
        9,
        10,
        107,
        412,
        265,
        266,
        267,
        268,
        265,
        266,
        267,
        268,
        265,
        266,
        267,
        268,
        265,
        266,
        267,
        268,
        265,
        266,
        267,
        268,
        265,
        266,
        267,
        268,
        265,
        266,
        267,
        268,
        265,
        266,
        267,
        268,
        265,
        266,
        267,
        268,
        265,
        266,
        267,
        268,
        265,
        266,
        267,
        268,
        265,
        266,
        267,
        268,
        265,
        266,
        267,
        268,
        265,
        266,
        267,
        268,
        265,
        266,
        267,
        268,
        265,
        266,
        267,
        268,
        265,
        266,
        267,
        268,
        265,
        266,
        267,
        268,
        265,
        266,
        267,
        268,
        265,
        266,
        267,
        268,
        265,
        266,
        267,
        268,
        265,
        266,
        267,
        268,
        265,
        314,
        203,
        12,
        9,
        10,
        11,
        12,
        9,
        10,
        11,
        12,
        9,
        10,
        11,
        12,
        9,
        10,
        11,
        12,
        9,
        10,
        11,
        12,
        9,
        10,
        11,
        12,
        9,
        10,
        11,
        12,
        9,
        10,
        11,
        12,
        9,
        10,
        107,
        412,
        265,
        266,
        267,
        268,
        265,
        266,
        267,
        268,
        265,
        266,
        267,
        268,
        265,
        266,
        267,
        268,
        265,
        266,
        267,
        268,
        265,
        266,
        267,
        268,
        265,
        266,
        267,
        268,
        265,
        266,
        267,
        268,
        265,
        266,
        267,
        268,
        265,
        266,
        267,
        268,
        265,
        266,
        267,
        268,
        265,
        266,
        267,
        268,
        265,
        266,
        267,
        268,
        265,
        266,
        267,
        268,
        265,
        266,
        267,
        268,
        265,
        266,
        267,
        268,
        265,
        266,
        267,
        268,
        265,
        266,
        267,
        268,
        265,
        266,
        267,
        268,
        265,
        266,
        267,
        268,
        265,
        266,
        267,
        268,
        265,
        266,
        267,
        268,
        265,
        314,
        203,
        12,
        9,
        10,
        11,
        12,
        9,
        10,
        11,
        12,
        9,
        10,
        11,
        12,
        41,
        906,
        779,
        812,
        909,
        782,
        815,
        144,
        13,
        14,
        15,
        16,
        13,
        14,
        15,
        16,
        13,
        14,
        15,
        16,
        13,
        110,
        415,
        272,
        269,
        270,
        271,
        272,
        269,
        270,
        335,
        336,
        333,
        334,
        335,
        336,
        333,
        334,
        335,
        336,
        333,
        334,
        335,
        336,
        333,
        334,
        335,
        336,
        333,
        334,
        335,
        336,
        333,
        334,
        335,
        336,
        333,
        334,
        335,
        336,
        333,
        334,
        335,
        336,
        333,
        270,
        271,
        272,
        269,
        270,
        271,
        336,
        333,
        334,
        335,
        336,
        333,
        334,
        335,
        336,
        333,
        334,
        335,
        336,
        333,
        334,
        335,
        336,
        333,
        334,
        335,
        336,
        333,
        334,
        335,
        336,
        333,
        334,
        335,
        336,
        333,
        334,
        335,
        336,
        333,
        334,
        335,
        272,
        269,
        270,
        271,
        272,
        269,
        270,
        319,
        208,
        13,
        14,
        15,
        16,
        13,
        14,
        15,
        16,
        13,
        14,
        15,
        16,
        13,
        14,
        15,
        16,
        13,
        14,
        15,
        16,
        13,
        14,
        15,
        16,
        13,
        14,
        15,
        16,
        13,
        14,
        15,
        16,
        13,
        110,
        415,
        272,
        269,
        270,
        271,
        272,
        269,
        270,
        335,
        336,
        333,
        334,
        335,
        336,
        333,
        334,
        335,
        336,
        333,
        334,
        335,
        336,
        333,
        334,
        335,
        336,
        333,
        334,
        335,
        336,
        333,
        334,
        335,
        336,
        333,
        334,
        335,
        336,
        333,
        334,
        335,
        336,
        333,
        270,
        271,
        272,
        269,
        270,
        271,
        336,
        333,
        334,
        335,
        336,
        333,
        334,
        335,
        336,
        333,
        334,
        335,
        336,
        333,
        334,
        335,
        336,
        333,
        334,
        335,
        336,
        333,
        334,
        335,
        336,
        333,
        334,
        335,
        336,
        333,
        334,
        335,
        336,
        333,
        334,
        335,
        272,
        269,
        270,
        271,
        272,
        269,
        270,
        319,
        208,
        13,
        14,
        15,
        16,
        13,
        14,
        15,
        16,
        13,
        14,
        15,
        16,
        45,
        910,
        783,
        816,
        897,
        770,
        803,
        132,
        1,
        2,
        3,
        4,
        1,
        2,
        3,
        4,
        1,
        2,
        3,
        4,
        97,
        402,
        259,
        260,
        257,
        258,
        259,
        260,
        321,
        354,
        147,
        20,
        17,
        18,
        19,
        20,
        17,
        18,
        19,
        20,
        17,
        18,
        19,
        20,
        17,
        18,
        19,
        20,
        17,
        18,
        19,
        20,
        17,
        18,
        19,
        20,
        17,
        18,
        19,
        20,
        17,
        18,
        19,
        20,
        49,
        386,
        259,
        260,
        257,
        258,
        291,
        148,
        17,
        18,
        19,
        20,
        17,
        18,
        19,
        20,
        17,
        18,
        19,
        20,
        17,
        18,
        19,
        20,
        17,
        18,
        19,
        20,
        17,
        18,
        19,
        20,
        17,
        18,
        19,
        20,
        17,
        18,
        19,
        20,
        17,
        18,
        51,
        452,
        321,
        258,
        259,
        260,
        257,
        258,
        259,
        308,
        193,
        2,
        3,
        4,
        1,
        2,
        3,
        4,
        1,
        2,
        3,
        4,
        1,
        2,
        3,
        4,
        1,
        2,
        3,
        4,
        1,
        2,
        3,
        4,
        1,
        2,
        3,
        4,
        1,
        2,
        3,
        4,
        97,
        402,
        259,
        260,
        257,
        258,
        259,
        260,
        321,
        354,
        147,
        20,
        17,
        18,
        19,
        20,
        17,
        18,
        19,
        20,
        17,
        18,
        19,
        20,
        17,
        18,
        19,
        20,
        17,
        18,
        19,
        20,
        17,
        18,
        19,
        20,
        17,
        18,
        19,
        20,
        17,
        18,
        19,
        20,
        49,
        386,
        259,
        260,
        257,
        258,
        291,
        148,
        17,
        18,
        19,
        20,
        17,
        18,
        19,
        20,
        17,
        18,
        19,
        20,
        17,
        18,
        19,
        20,
        17,
        18,
        19,
        20,
        17,
        18,
        19,
        20,
        17,
        18,
        19,
        20,
        17,
        18,
        19,
        20,
        17,
        18,
        51,
        452,
        321,
        258,
        259,
        260,
        257,
        258,
        259,
        308,
        193,
        2,
        3,
        4,
        1,
        2,
        3,
        4,
        1,
        2,
        3,
        4,
        33,
        898,
        771,
        804,
        901,
        774,
        807,
        136,
        5,
        6,
        7,
        8,
        5,
        6,
        7,
        8,
        5,
        6,
        7,
        40,
        405,
        262,
        263,
        264,
        261,
        262,
        263,
        360,
        149,
        22,
        7,
        8,
        5,
        6,
        7,
        8,
        5,
        6,
        7,
        8,
        5,
        6,
        7,
        8,
        5,
        6,
        7,
        8,
        5,
        6,
        7,
        8,
        5,
        6,
        7,
        8,
        5,
        6,
        7,
        8,
        5,
        6,
        7,
        8,
        37,
        390,
        263,
        264,
        261,
        262,
        295,
        136,
        5,
        6,
        7,
        8,
        5,
        6,
        7,
        8,
        5,
        6,
        7,
        8,
        5,
        6,
        7,
        8,
        5,
        6,
        7,
        8,
        5,
        6,
        7,
        8,
        5,
        6,
        7,
        8,
        5,
        6,
        7,
        8,
        5,
        6,
        7,
        24,
        53,
        454,
        263,
        264,
        261,
        262,
        263,
        264,
        309,
        134,
        7,
        8,
        5,
        6,
        7,
        8,
        5,
        6,
        7,
        8,
        5,
        6,
        7,
        8,
        5,
        6,
        7,
        8,
        5,
        6,
        7,
        8,
        5,
        6,
        7,
        8,
        5,
        6,
        7,
        40,
        405,
        262,
        263,
        264,
        261,
        262,
        263,
        360,
        149,
        22,
        7,
        8,
        5,
        6,
        7,
        8,
        5,
        6,
        7,
        8,
        5,
        6,
        7,
        8,
        5,
        6,
        7,
        8,
        5,
        6,
        7,
        8,
        5,
        6,
        7,
        8,
        5,
        6,
        7,
        8,
        5,
        6,
        7,
        8,
        37,
        390,
        263,
        264,
        261,
        262,
        295,
        136,
        5,
        6,
        7,
        8,
        5,
        6,
        7,
        8,
        5,
        6,
        7,
        8,
        5,
        6,
        7,
        8,
        5,
        6,
        7,
        8,
        5,
        6,
        7,
        8,
        5,
        6,
        7,
        8,
        5,
        6,
        7,
        8,
        5,
        6,
        7,
        24,
        53,
        454,
        263,
        264,
        261,
        262,
        263,
        264,
        309,
        134,
        7,
        8,
        5,
        6,
        7,
        8,
        5,
        6,
        7,
        8,
        37,
        902,
        775,
        808,
        905,
        778,
        811,
        140,
        9,
        10,
        11,
        12,
        9,
        10,
        11,
        12,
        9,
        10,
        11,
        108,
        393,
        266,
        267,
        268,
        265,
        266,
        363,
        156,
        9,
        10,
        11,
        12,
        9,
        10,
        11,
        12,
        9,
        10,
        11,
        12,
        9,
        10,
        11,
        12,
        9,
        10,
        11,
        12,
        9,
        10,
        11,
        12,
        9,
        10,
        11,
        12,
        9,
        10,
        11,
        12,
        9,
        10,
        11,
        12,
        41,
        394,
        267,
        268,
        265,
        266,
        299,
        140,
        9,
        10,
        11,
        12,
        9,
        10,
        11,
        12,
        9,
        10,
        11,
        12,
        9,
        10,
        11,
        12,
        9,
        10,
        11,
        12,
        9,
        10,
        11,
        12,
        9,
        10,
        11,
        12,
        9,
        10,
        11,
        12,
        9,
        10,
        11,
        12,
        9,
        58,
        459,
        268,
        265,
        266,
        267,
        268,
        297,
        202,
        11,
        12,
        9,
        10,
        11,
        12,
        9,
        10,
        11,
        12,
        9,
        10,
        11,
        12,
        9,
        10,
        11,
        12,
        9,
        10,
        11,
        12,
        9,
        10,
        11,
        12,
        9,
        10,
        11,
        108,
        393,
        266,
        267,
        268,
        265,
        266,
        363,
        156,
        9,
        10,
        11,
        12,
        9,
        10,
        11,
        12,
        9,
        10,
        11,
        12,
        9,
        10,
        11,
        12,
        9,
        10,
        11,
        12,
        9,
        10,
        11,
        12,
        9,
        10,
        11,
        12,
        9,
        10,
        11,
        12,
        9,
        10,
        11,
        12,
        41,
        394,
        267,
        268,
        265,
        266,
        299,
        140,
        9,
        10,
        11,
        12,
        9,
        10,
        11,
        12,
        9,
        10,
        11,
        12,
        9,
        10,
        11,
        12,
        9,
        10,
        11,
        12,
        9,
        10,
        11,
        12,
        9,
        10,
        11,
        12,
        9,
        10,
        11,
        12,
        9,
        10,
        11,
        12,
        9,
        58,
        459,
        268,
        265,
        266,
        267,
        268,
        297,
        202,
        11,
        12,
        9,
        10,
        11,
        12,
        9,
        10,
        11,
        12,
        41,
        906,
        779,
        812,
        909,
        782,
        815,
        144,
        13,
        14,
        15,
        16,
        13,
        14,
        15,
        16,
        13,
        14,
        47,
        416,
        269,
        270,
        271,
        272,
        269,
        366,
        159,
        16,
        13,
        14,
        15,
        16,
        13,
        14,
        15,
        16,
        13,
        14,
        15,
        16,
        13,
        14,
        15,
        16,
        13,
        14,
        15,
        16,
        13,
        14,
        15,
        16,
        13,
        14,
        15,
        16,
        13,
        14,
        15,
        16,
        13,
        14,
        15,
        16,
        45,
        398,
        271,
        272,
        269,
        270,
        303,
        144,
        13,
        14,
        15,
        16,
        13,
        14,
        15,
        16,
        13,
        14,
        15,
        16,
        13,
        14,
        15,
        16,
        13,
        14,
        15,
        16,
        13,
        14,
        15,
        16,
        13,
        14,
        15,
        16,
        13,
        14,
        15,
        16,
        13,
        14,
        15,
        16,
        13,
        14,
        63,
        464,
        269,
        270,
        271,
        272,
        269,
        318,
        143,
        16,
        13,
        14,
        15,
        16,
        13,
        14,
        15,
        16,
        13,
        14,
        15,
        16,
        13,
        14,
        15,
        16,
        13,
        14,
        15,
        16,
        13,
        14,
        15,
        16,
        13,
        14,
        47,
        416,
        269,
        270,
        271,
        272,
        269,
        366,
        159,
        16,
        13,
        14,
        15,
        16,
        13,
        14,
        15,
        16,
        13,
        14,
        15,
        16,
        13,
        14,
        15,
        16,
        13,
        14,
        15,
        16,
        13,
        14,
        15,
        16,
        13,
        14,
        15,
        16,
        13,
        14,
        15,
        16,
        13,
        14,
        15,
        16,
        45,
        398,
        271,
        272,
        269,
        270,
        303,
        144,
        13,
        14,
        15,
        16,
        13,
        14,
        15,
        16,
        13,
        14,
        15,
        16,
        13,
        14,
        15,
        16,
        13,
        14,
        15,
        16,
        13,
        14,
        15,
        16,
        13,
        14,
        15,
        16,
        13,
        14,
        15,
        16,
        13,
        14,
        15,
        16,
        13,
        14,
        63,
        464,
        269,
        270,
        271,
        272,
        269,
        318,
        143,
        16,
        13,
        14,
        15,
        16,
        13,
        14,
        15,
        16,
        45,
        910,
        783,
        816,
        897,
        770,
        803,
        132,
        1,
        2,
        3,
        4,
        1,
        2,
        3,
        4,
        1,
        2,
        35,
        388,
        257,
        258,
        259,
        260,
        289,
        146,
        3,
        4,
        1,
        2,
        3,
        4,
        1,
        2,
        3,
        4,
        1,
        2,
        3,
        4,
        1,
        2,
        3,
        4,
        1,
        2,
        3,
        4,
        1,
        2,
        3,
        4,
        1,
        2,
        3,
        4,
        1,
        2,
        3,
        4,
        1,
        2,
        3,
        4,
        33,
        386,
        259,
        260,
        257,
        258,
        291,
        132,
        1,
        2,
        3,
        4,
        1,
        2,
        3,
        4,
        1,
        2,
        3,
        4,
        1,
        2,
        3,
        4,
        1,
        2,
        3,
        4,
        1,
        2,
        3,
        4,
        1,
        2,
        3,
        4,
        1,
        2,
        3,
        4,
        1,
        2,
        3,
        4,
        1,
        2,
        3,
        52,
        385,
        258,
        259,
        260,
        257,
        290,
        131,
        4,
        1,
        2,
        3,
        4,
        1,
        2,
        3,
        4,
        1,
        2,
        3,
        4,
        1,
        2,
        3,
        4,
        1,
        2,
        3,
        4,
        1,
        2,
        3,
        4,
        1,
        2,
        35,
        388,
        257,
        258,
        259,
        260,
        289,
        146,
        3,
        4,
        1,
        2,
        3,
        4,
        1,
        2,
        3,
        4,
        1,
        2,
        3,
        4,
        1,
        2,
        3,
        4,
        1,
        2,
        3,
        4,
        1,
        2,
        3,
        4,
        1,
        2,
        3,
        4,
        1,
        2,
        3,
        4,
        1,
        2,
        3,
        4,
        33,
        386,
        259,
        260,
        257,
        258,
        291,
        132,
        1,
        2,
        3,
        4,
        1,
        2,
        3,
        4,
        1,
        2,
        3,
        4,
        1,
        2,
        3,
        4,
        1,
        2,
        3,
        4,
        1,
        2,
        3,
        4,
        1,
        2,
        3,
        4,
        1,
        2,
        3,
        4,
        1,
        2,
        3,
        4,
        1,
        2,
        3,
        52,
        385,
        258,
        259,
        260,
        257,
        290,
        131,
        4,
        1,
        2,
        3,
        4,
        1,
        2,
        3,
        4,
        33,
        898,
        771,
        804,
        901,
        774,
        807,
        136,
        5,
        6,
        7,
        8,
        5,
        6,
        7,
        8,
        5,
        6,
        103,
        392,
        261,
        262,
        263,
        264,
        357,
        134,
        7,
        8,
        5,
        6,
        7,
        8,
        5,
        6,
        7,
        8,
        5,
        6,
        7,
        8,
        5,
        6,
        7,
        8,
        5,
        6,
        7,
        8,
        5,
        6,
        7,
        8,
        5,
        6,
        7,
        8,
        5,
        6,
        7,
        8,
        5,
        6,
        7,
        8,
        37,
        390,
        263,
        264,
        261,
        262,
        295,
        136,
        5,
        6,
        7,
        8,
        5,
        6,
        7,
        8,
        5,
        6,
        7,
        8,
        5,
        6,
        7,
        8,
        5,
        6,
        7,
        8,
        5,
        6,
        7,
        8,
        5,
        6,
        7,
        8,
        5,
        6,
        7,
        8,
        5,
        6,
        7,
        8,
        5,
        6,
        7,
        40,
        453,
        262,
        263,
        264,
        261,
        294,
        199,
        8,
        5,
        6,
        7,
        8,
        5,
        6,
        7,
        8,
        5,
        6,
        7,
        8,
        5,
        6,
        7,
        8,
        5,
        6,
        7,
        8,
        5,
        6,
        7,
        8,
        5,
        6,
        103,
        392,
        261,
        262,
        263,
        264,
        357,
        134,
        7,
        8,
        5,
        6,
        7,
        8,
        5,
        6,
        7,
        8,
        5,
        6,
        7,
        8,
        5,
        6,
        7,
        8,
        5,
        6,
        7,
        8,
        5,
        6,
        7,
        8,
        5,
        6,
        7,
        8,
        5,
        6,
        7,
        8,
        5,
        6,
        7,
        8,
        37,
        390,
        263,
        264,
        261,
        262,
        295,
        136,
        5,
        6,
        7,
        8,
        5,
        6,
        7,
        8,
        5,
        6,
        7,
        8,
        5,
        6,
        7,
        8,
        5,
        6,
        7,
        8,
        5,
        6,
        7,
        8,
        5,
        6,
        7,
        8,
        5,
        6,
        7,
        8,
        5,
        6,
        7,
        8,
        5,
        6,
        7,
        40,
        453,
        262,
        263,
        264,
        261,
        294,
        199,
        8,
        5,
        6,
        7,
        8,
        5,
        6,
        7,
        8,
        37,
        902,
        775,
        808,
        905,
        778,
        811,
        140,
        9,
        10,
        11,
        12,
        9,
        10,
        11,
        12,
        9,
        42,
        411,
        268,
        265,
        266,
        267,
        300,
        153,
        10,
        11,
        12,
        9,
        10,
        11,
        12,
        9,
        10,
        11,
        12,
        9,
        10,
        11,
        12,
        9,
        10,
        11,
        12,
        9,
        10,
        11,
        12,
        9,
        10,
        11,
        12,
        9,
        10,
        11,
        12,
        9,
        10,
        11,
        12,
        9,
        10,
        11,
        12,
        41,
        394,
        267,
        268,
        265,
        266,
        299,
        140,
        9,
        10,
        11,
        12,
        9,
        10,
        11,
        12,
        9,
        10,
        11,
        12,
        9,
        10,
        11,
        12,
        9,
        10,
        11,
        12,
        9,
        10,
        11,
        12,
        9,
        10,
        11,
        12,
        9,
        10,
        11,
        12,
        9,
        10,
        11,
        12,
        9,
        10,
        11,
        12,
        57,
        394,
        267,
        268,
        265,
        266,
        315,
        140,
        9,
        10,
        11,
        12,
        9,
        10,
        11,
        12,
        9,
        10,
        11,
        12,
        9,
        10,
        11,
        12,
        9,
        10,
        11,
        12,
        9,
        10,
        11,
        12,
        9,
        42,
        411,
        268,
        265,
        266,
        267,
        300,
        153,
        10,
        11,
        12,
        9,
        10,
        11,
        12,
        9,
        10,
        11,
        12,
        9,
        10,
        11,
        12,
        9,
        10,
        11,
        12,
        9,
        10,
        11,
        12,
        9,
        10,
        11,
        12,
        9,
        10,
        11,
        12,
        9,
        10,
        11,
        12,
        9,
        10,
        11,
        12,
        41,
        394,
        267,
        268,
        265,
        266,
        299,
        140,
        9,
        10,
        11,
        12,
        9,
        10,
        11,
        12,
        9,
        10,
        11,
        12,
        9,
        10,
        11,
        12,
        9,
        10,
        11,
        12,
        9,
        10,
        11,
        12,
        9,
        10,
        11,
        12,
        9,
        10,
        11,
        12,
        9,
        10,
        11,
        12,
        9,
        10,
        11,
        12,
        57,
        394,
        267,
        268,
        265,
        266,
        315,
        140,
        9,
        10,
        11,
        12,
        9,
        10,
        11,
        12,
        41,
        906,
        779,
        812,
        909,
        782,
        815,
        144,
        13,
        14,
        15,
        16,
        13,
        14,
        15,
        16,
        13,
        46,
        399,
        272,
        269,
        270,
        271,
        304,
        141,
        14,
        15,
        16,
        13,
        14,
        15,
        16,
        13,
        14,
        15,
        16,
        13,
        14,
        15,
        16,
        13,
        14,
        15,
        16,
        13,
        14,
        15,
        16,
        13,
        14,
        15,
        16,
        13,
        14,
        15,
        16,
        13,
        14,
        15,
        16,
        13,
        14,
        15,
        16,
        45,
        398,
        271,
        272,
        269,
        270,
        303,
        144,
        13,
        14,
        15,
        16,
        13,
        14,
        15,
        16,
        13,
        14,
        15,
        16,
        13,
        14,
        15,
        16,
        13,
        14,
        15,
        16,
        13,
        14,
        15,
        16,
        13,
        14,
        15,
        16,
        13,
        14,
        15,
        16,
        13,
        14,
        15,
        16,
        13,
        14,
        15,
        16,
        45,
        398,
        271,
        272,
        269,
        270,
        303,
        144,
        13,
        14,
        15,
        16,
        13,
        14,
        15,
        16,
        13,
        14,
        15,
        16,
        13,
        14,
        15,
        16,
        13,
        14,
        15,
        16,
        13,
        14,
        15,
        16,
        13,
        46,
        399,
        272,
        269,
        270,
        271,
        304,
        141,
        14,
        15,
        16,
        13,
        14,
        15,
        16,
        13,
        14,
        15,
        16,
        13,
        14,
        15,
        16,
        13,
        14,
        15,
        16,
        13,
        14,
        15,
        16,
        13,
        14,
        15,
        16,
        13,
        14,
        15,
        16,
        13,
        14,
        15,
        16,
        13,
        14,
        15,
        16,
        45,
        398,
        271,
        272,
        269,
        270,
        303,
        144,
        13,
        14,
        15,
        16,
        13,
        14,
        15,
        16,
        13,
        14,
        15,
        16,
        13,
        14,
        15,
        16,
        13,
        14,
        15,
        16,
        13,
        14,
        15,
        16,
        13,
        14,
        15,
        16,
        13,
        14,
        15,
        16,
        13,
        14,
        15,
        16,
        13,
        14,
        15,
        16,
        45,
        398,
        271,
        272,
        269,
        270,
        303,
        144,
        13,
        14,
        15,
        16,
        13,
        14,
        15,
        16,
        45,
        910,
        783,
        816,
        897,
        770,
        803,
        132,
        1,
        2,
        3,
        4,
        1,
        2,
        3,
        4,
        1,
        34,
        387,
        260,
        257,
        258,
        259,
        292,
        193,
        66,
        67,
        68,
        65,
        66,
        67,
        68,
        65,
        66,
        67,
        68,
        65,
        66,
        67,
        68,
        65,
        66,
        67,
        68,
        65,
        66,
        67,
        68,
        65,
        66,
        67,
        68,
        65,
        66,
        67,
        68,
        65,
        66,
        67,
        68,
        65,
        66,
        67,
        68,
        97,
        386,
        259,
        260,
        257,
        258,
        291,
        196,
        65,
        66,
        67,
        68,
        65,
        66,
        67,
        68,
        65,
        66,
        67,
        68,
        65,
        66,
        67,
        68,
        65,
        66,
        67,
        68,
        65,
        66,
        67,
        68,
        65,
        66,
        67,
        68,
        65,
        66,
        67,
        68,
        65,
        66,
        67,
        68,
        65,
        66,
        67,
        68,
        97,
        386,
        259,
        260,
        257,
        258,
        291,
        132,
        1,
        2,
        3,
        4,
        1,
        2,
        3,
        4,
        1,
        2,
        3,
        4,
        1,
        2,
        3,
        4,
        1,
        2,
        3,
        4,
        1,
        2,
        3,
        4,
        1,
        34,
        387,
        260,
        257,
        258,
        259,
        292,
        193,
        66,
        67,
        68,
        65,
        66,
        67,
        68,
        65,
        66,
        67,
        68,
        65,
        66,
        67,
        68,
        65,
        66,
        67,
        68,
        65,
        66,
        67,
        68,
        65,
        66,
        67,
        68,
        65,
        66,
        67,
        68,
        65,
        66,
        67,
        68,
        65,
        66,
        67,
        68,
        97,
        386,
        259,
        260,
        257,
        258,
        291,
        196,
        65,
        66,
        67,
        68,
        65,
        66,
        67,
        68,
        65,
        66,
        67,
        68,
        65,
        66,
        67,
        68,
        65,
        66,
        67,
        68,
        65,
        66,
        67,
        68,
        65,
        66,
        67,
        68,
        65,
        66,
        67,
        68,
        65,
        66,
        67,
        68,
        65,
        66,
        67,
        68,
        97,
        386,
        259,
        260,
        257,
        258,
        291,
        132,
        1,
        2,
        3,
        4,
        1,
        2,
        3,
        4,
        33,
        898,
        771,
        804,
        901,
        774,
        807,
        136,
        5,
        6,
        7,
        8,
        5,
        6,
        7,
        8,
        5,
        38,
        391,
        264,
        261,
        262,
        263,
        264,
        277,
        278,
        279,
        280,
        277,
        278,
        279,
        280,
        277,
        278,
        279,
        280,
        277,
        278,
        279,
        280,
        277,
        278,
        279,
        280,
        277,
        278,
        279,
        280,
        277,
        278,
        279,
        280,
        277,
        278,
        279,
        280,
        277,
        278,
        279,
        280,
        277,
        278,
        279,
        280,
        277,
        262,
        263,
        264,
        261,
        262,
        263,
        280,
        277,
        278,
        279,
        280,
        277,
        278,
        279,
        280,
        277,
        278,
        279,
        280,
        277,
        278,
        279,
        280,
        277,
        278,
        279,
        280,
        277,
        278,
        279,
        280,
        277,
        278,
        279,
        280,
        277,
        278,
        279,
        280,
        277,
        278,
        279,
        280,
        277,
        278,
        279,
        280,
        277,
        262,
        263,
        264,
        261,
        262,
        295,
        136,
        5,
        6,
        7,
        8,
        5,
        6,
        7,
        8,
        5,
        6,
        7,
        8,
        5,
        6,
        7,
        8,
        5,
        6,
        7,
        8,
        5,
        6,
        7,
        8,
        5,
        38,
        391,
        264,
        261,
        262,
        263,
        264,
        277,
        278,
        279,
        280,
        277,
        278,
        279,
        280,
        277,
        278,
        279,
        280,
        277,
        278,
        279,
        280,
        277,
        278,
        279,
        280,
        277,
        278,
        279,
        280,
        277,
        278,
        279,
        280,
        277,
        278,
        279,
        280,
        277,
        278,
        279,
        280,
        277,
        278,
        279,
        280,
        277,
        262,
        263,
        264,
        261,
        262,
        263,
        280,
        277,
        278,
        279,
        280,
        277,
        278,
        279,
        280,
        277,
        278,
        279,
        280,
        277,
        278,
        279,
        280,
        277,
        278,
        279,
        280,
        277,
        278,
        279,
        280,
        277,
        278,
        279,
        280,
        277,
        278,
        279,
        280,
        277,
        278,
        279,
        280,
        277,
        278,
        279,
        280,
        277,
        262,
        263,
        264,
        261,
        262,
        295,
        136,
        5,
        6,
        7,
        8,
        5,
        6,
        7,
        8,
        37,
        902,
        775,
        808,
        905,
        778,
        811,
        140,
        9,
        10,
        11,
        12,
        9,
        10,
        11,
        12,
        9,
        42,
        395,
        268,
        265,
        266,
        267,
        268,
        265,
        266,
        267,
        268,
        265,
        266,
        267,
        268,
        265,
        266,
        267,
        268,
        265,
        266,
        267,
        268,
        265,
        266,
        267,
        268,
        265,
        266,
        267,
        268,
        265,
        266,
        267,
        268,
        265,
        266,
        267,
        268,
        265,
        266,
        267,
        268,
        265,
        266,
        267,
        268,
        265,
        266,
        267,
        268,
        265,
        266,
        267,
        268,
        265,
        266,
        267,
        268,
        265,
        266,
        267,
        268,
        265,
        266,
        267,
        268,
        265,
        266,
        267,
        268,
        265,
        266,
        267,
        268,
        265,
        266,
        267,
        268,
        265,
        266,
        267,
        268,
        265,
        266,
        267,
        268,
        265,
        266,
        267,
        268,
        265,
        266,
        267,
        268,
        265,
        266,
        267,
        268,
        265,
        266,
        299,
        140,
        9,
        10,
        11,
        12,
        9,
        10,
        11,
        12,
        9,
        10,
        11,
        12,
        9,
        10,
        11,
        12,
        9,
        10,
        11,
        12,
        9,
        10,
        11,
        12,
        9,
        42,
        395,
        268,
        265,
        266,
        267,
        268,
        265,
        266,
        267,
        268,
        265,
        266,
        267,
        268,
        265,
        266,
        267,
        268,
        265,
        266,
        267,
        268,
        265,
        266,
        267,
        268,
        265,
        266,
        267,
        268,
        265,
        266,
        267,
        268,
        265,
        266,
        267,
        268,
        265,
        266,
        267,
        268,
        265,
        266,
        267,
        268,
        265,
        266,
        267,
        268,
        265,
        266,
        267,
        268,
        265,
        266,
        267,
        268,
        265,
        266,
        267,
        268,
        265,
        266,
        267,
        268,
        265,
        266,
        267,
        268,
        265,
        266,
        267,
        268,
        265,
        266,
        267,
        268,
        265,
        266,
        267,
        268,
        265,
        266,
        267,
        268,
        265,
        266,
        267,
        268,
        265,
        266,
        267,
        268,
        265,
        266,
        267,
        268,
        265,
        266,
        299,
        140,
        9,
        10,
        11,
        12,
        9,
        10,
        11,
        12,
        41,
        906,
        779,
        812,
        909,
        782,
        815,
        144,
        13,
        14,
        15,
        16,
        13,
        14,
        15,
        16,
        13,
        46,
        399,
        272,
        269,
        270,
        271,
        272,
        269,
        270,
        271,
        272,
        269,
        270,
        271,
        272,
        269,
        270,
        271,
        272,
        269,
        270,
        271,
        272,
        269,
        270,
        271,
        272,
        269,
        270,
        271,
        272,
        269,
        270,
        271,
        272,
        269,
        270,
        271,
        272,
        269,
        270,
        271,
        272,
        269,
        270,
        271,
        272,
        269,
        270,
        271,
        272,
        269,
        270,
        271,
        272,
        269,
        270,
        271,
        272,
        269,
        270,
        271,
        272,
        269,
        270,
        271,
        272,
        269,
        270,
        271,
        272,
        269,
        270,
        271,
        272,
        269,
        270,
        271,
        272,
        269,
        270,
        271,
        272,
        269,
        270,
        271,
        272,
        269,
        270,
        271,
        272,
        269,
        270,
        271,
        272,
        269,
        270,
        271,
        272,
        269,
        270,
        303,
        144,
        13,
        14,
        15,
        16,
        13,
        14,
        15,
        16,
        13,
        14,
        15,
        16,
        13,
        14,
        15,
        16,
        13,
        14,
        15,
        16,
        13,
        14,
        15,
        16,
        13,
        46,
        399,
        272,
        269,
        270,
        271,
        272,
        269,
        270,
        271,
        272,
        269,
        270,
        271,
        272,
        269,
        270,
        271,
        272,
        269,
        270,
        271,
        272,
        269,
        270,
        271,
        272,
        269,
        270,
        271,
        272,
        269,
        270,
        271,
        272,
        269,
        270,
        271,
        272,
        269,
        270,
        271,
        272,
        269,
        270,
        271,
        272,
        269,
        270,
        271,
        272,
        269,
        270,
        271,
        272,
        269,
        270,
        271,
        272,
        269,
        270,
        271,
        272,
        269,
        270,
        271,
        272,
        269,
        270,
        271,
        272,
        269,
        270,
        271,
        272,
        269,
        270,
        271,
        272,
        269,
        270,
        271,
        272,
        269,
        270,
        271,
        272,
        269,
        270,
        271,
        272,
        269,
        270,
        271,
        272,
        269,
        270,
        271,
        272,
        269,
        270,
        303,
        144,
        13,
        14,
        15,
        16,
        13,
        14,
        15,
        16,
        45,
        910,
        783,
        816,
        897,
        770,
        803,
        132,
        1,
        2,
        3,
        4,
        1,
        2,
        3,
        4,
        1,
        34,
        387,
        260,
        257,
        258,
        259,
        260,
        257,
        258,
        259,
        260,
        257,
        258,
        259,
        260,
        257,
        258,
        259,
        260,
        257,
        258,
        259,
        260,
        257,
        258,
        259,
        260,
        257,
        258,
        259,
        260,
        257,
        258,
        259,
        260,
        257,
        258,
        259,
        260,
        257,
        258,
        259,
        260,
        257,
        258,
        259,
        260,
        257,
        258,
        259,
        260,
        257,
        258,
        259,
        260,
        257,
        258,
        259,
        260,
        257,
        258,
        259,
        260,
        257,
        258,
        259,
        260,
        257,
        258,
        259,
        260,
        257,
        258,
        259,
        260,
        257,
        258,
        259,
        260,
        257,
        258,
        259,
        260,
        257,
        258,
        259,
        260,
        257,
        258,
        259,
        260,
        257,
        258,
        259,
        260,
        257,
        258,
        259,
        260,
        257,
        258,
        291,
        132,
        1,
        2,
        3,
        4,
        1,
        2,
        3,
        4,
        1,
        2,
        3,
        4,
        1,
        2,
        3,
        4,
        1,
        2,
        3,
        4,
        1,
        2,
        3,
        4,
        1,
        34,
        387,
        260,
        257,
        258,
        259,
        260,
        257,
        258,
        259,
        260,
        257,
        258,
        259,
        260,
        257,
        258,
        259,
        260,
        257,
        258,
        259,
        260,
        257,
        258,
        259,
        260,
        257,
        258,
        259,
        260,
        257,
        258,
        259,
        260,
        257,
        258,
        259,
        260,
        257,
        258,
        259,
        260,
        257,
        258,
        259,
        260,
        257,
        258,
        259,
        260,
        257,
        258,
        259,
        260,
        257,
        258,
        259,
        260,
        257,
        258,
        259,
        260,
        257,
        258,
        259,
        260,
        257,
        258,
        259,
        260,
        257,
        258,
        259,
        260,
        257,
        258,
        259,
        260,
        257,
        258,
        259,
        260,
        257,
        258,
        259,
        260,
        257,
        258,
        259,
        260,
        257,
        258,
        259,
        260,
        257,
        258,
        259,
        260,
        257,
        258,
        291,
        132,
        1,
        2,
        3,
        4,
        1,
        2,
        3,
        4,
        33,
        898,
        771,
        804,
        901,
        774,
        807,
        136,
        5,
        6,
        7,
        8,
        5,
        6,
        7,
        8,
        5,
        38,
        391,
        264,
        261,
        262,
        263,
        264,
        261,
        262,
        263,
        264,
        261,
        262,
        263,
        264,
        261,
        262,
        263,
        264,
        261,
        262,
        263,
        264,
        261,
        262,
        263,
        264,
        261,
        262,
        263,
        264,
        261,
        262,
        263,
        264,
        261,
        262,
        263,
        264,
        261,
        262,
        263,
        264,
        261,
        262,
        263,
        264,
        261,
        262,
        263,
        264,
        261,
        262,
        263,
        264,
        261,
        262,
        263,
        264,
        261,
        262,
        263,
        264,
        261,
        262,
        263,
        264,
        261,
        262,
        263,
        264,
        261,
        262,
        263,
        264,
        261,
        262,
        263,
        264,
        261,
        262,
        263,
        264,
        261,
        262,
        263,
        264,
        261,
        262,
        263,
        264,
        261,
        262,
        263,
        264,
        261,
        262,
        263,
        264,
        261,
        262,
        295,
        136,
        5,
        6,
        7,
        8,
        5,
        6,
        7,
        8,
        5,
        6,
        7,
        8,
        5,
        6,
        7,
        8,
        5,
        6,
        7,
        8,
        5,
        6,
        7,
        8,
        5,
        38,
        391,
        264,
        261,
        262,
        263,
        264,
        261,
        262,
        263,
        264,
        261,
        262,
        263,
        264,
        261,
        262,
        263,
        264,
        261,
        262,
        263,
        264,
        261,
        262,
        263,
        264,
        261,
        262,
        263,
        264,
        261,
        262,
        263,
        264,
        261,
        262,
        263,
        264,
        261,
        262,
        263,
        264,
        261,
        262,
        263,
        264,
        261,
        262,
        263,
        264,
        261,
        262,
        263,
        264,
        261,
        262,
        263,
        264,
        261,
        262,
        263,
        264,
        261,
        262,
        263,
        264,
        261,
        262,
        263,
        264,
        261,
        262,
        263,
        264,
        261,
        262,
        263,
        264,
        261,
        262,
        263,
        264,
        261,
        262,
        263,
        264,
        261,
        262,
        263,
        264,
        261,
        262,
        263,
        264,
        261,
        262,
        263,
        264,
        261,
        262,
        295,
        136,
        5,
        6,
        7,
        8,
        5,
        6,
        7,
        8,
        37,
        902,
        775,
        808,
        905,
        778,
        811,
        140,
        9,
        10,
        11,
        12,
        9,
        10,
        11,
        12,
        9,
        42,
        395,
        268,
        265,
        266,
        267,
        268,
        329,
        330,
        331,
        332,
        329,
        330,
        331,
        332,
        329,
        330,
        331,
        332,
        329,
        330,
        331,
        332,
        329,
        330,
        331,
        332,
        329,
        330,
        331,
        332,
        329,
        330,
        331,
        332,
        329,
        330,
        331,
        332,
        329,
        330,
        331,
        332,
        329,
        330,
        331,
        332,
        329,
        266,
        267,
        268,
        265,
        266,
        267,
        332,
        329,
        330,
        331,
        332,
        329,
        330,
        331,
        332,
        329,
        330,
        331,
        332,
        329,
        330,
        331,
        332,
        329,
        330,
        331,
        332,
        329,
        330,
        331,
        332,
        329,
        330,
        331,
        332,
        329,
        330,
        331,
        332,
        329,
        330,
        331,
        332,
        329,
        330,
        331,
        332,
        329,
        266,
        267,
        268,
        265,
        266,
        299,
        140,
        9,
        10,
        11,
        12,
        9,
        10,
        11,
        12,
        9,
        10,
        11,
        12,
        9,
        10,
        11,
        12,
        9,
        10,
        11,
        12,
        9,
        10,
        11,
        12,
        9,
        42,
        395,
        268,
        265,
        266,
        267,
        268,
        329,
        330,
        331,
        332,
        329,
        330,
        331,
        332,
        329,
        330,
        331,
        332,
        329,
        330,
        331,
        332,
        329,
        330,
        331,
        332,
        329,
        330,
        331,
        332,
        329,
        330,
        331,
        332,
        329,
        330,
        331,
        332,
        329,
        330,
        331,
        332,
        329,
        330,
        331,
        332,
        329,
        266,
        267,
        268,
        265,
        266,
        267,
        332,
        329,
        330,
        331,
        332,
        329,
        330,
        331,
        332,
        329,
        330,
        331,
        332,
        329,
        330,
        331,
        332,
        329,
        330,
        331,
        332,
        329,
        330,
        331,
        332,
        329,
        330,
        331,
        332,
        329,
        330,
        331,
        332,
        329,
        330,
        331,
        332,
        329,
        330,
        331,
        332,
        329,
        266,
        267,
        268,
        265,
        266,
        299,
        140,
        9,
        10,
        11,
        12,
        9,
        10,
        11,
        12,
        41,
        906,
        779,
        812,
        909,
        782,
        815,
        144,
        13,
        14,
        15,
        16,
        13,
        14,
        15,
        16,
        13,
        46,
        399,
        272,
        269,
        270,
        271,
        304,
        157,
        30,
        31,
        32,
        29,
        30,
        31,
        32,
        29,
        30,
        31,
        32,
        29,
        30,
        31,
        32,
        29,
        30,
        31,
        32,
        29,
        30,
        31,
        32,
        29,
        30,
        31,
        32,
        29,
        30,
        31,
        32,
        29,
        30,
        31,
        32,
        29,
        30,
        31,
        32,
        61,
        398,
        271,
        272,
        269,
        270,
        303,
        160,
        29,
        30,
        31,
        32,
        29,
        30,
        31,
        32,
        29,
        30,
        31,
        32,
        29,
        30,
        31,
        32,
        29,
        30,
        31,
        32,
        29,
        30,
        31,
        32,
        29,
        30,
        31,
        32,
        29,
        30,
        31,
        32,
        29,
        30,
        31,
        32,
        29,
        30,
        31,
        32,
        61,
        398,
        271,
        272,
        269,
        270,
        303,
        144,
        13,
        14,
        15,
        16,
        13,
        14,
        15,
        16,
        13,
        14,
        15,
        16,
        13,
        14,
        15,
        16,
        13,
        14,
        15,
        16,
        13,
        14,
        15,
        16,
        13,
        46,
        399,
        272,
        269,
        270,
        271,
        304,
        157,
        30,
        31,
        32,
        29,
        30,
        31,
        32,
        29,
        30,
        31,
        32,
        29,
        30,
        31,
        32,
        29,
        30,
        31,
        32,
        29,
        30,
        31,
        32,
        29,
        30,
        31,
        32,
        29,
        30,
        31,
        32,
        29,
        30,
        31,
        32,
        29,
        30,
        31,
        32,
        61,
        398,
        271,
        272,
        269,
        270,
        303,
        160,
        29,
        30,
        31,
        32,
        29,
        30,
        31,
        32,
        29,
        30,
        31,
        32,
        29,
        30,
        31,
        32,
        29,
        30,
        31,
        32,
        29,
        30,
        31,
        32,
        29,
        30,
        31,
        32,
        29,
        30,
        31,
        32,
        29,
        30,
        31,
        32,
        29,
        30,
        31,
        32,
        61,
        398,
        271,
        272,
        269,
        270,
        303,
        144,
        13,
        14,
        15,
        16,
        13,
        14,
        15,
        16,
        45,
        910,
        783,
        816,
        897,
        770,
        803,
        132,
        1,
        2,
        3,
        4,
        1,
        2,
        3,
        4,
        1,
        34,
        387,
        260,
        257,
        258,
        259,
        292,
        129,
        2,
        3,
        4,
        1,
        2,
        3,
        4,
        1,
        2,
        3,
        4,
        1,
        2,
        3,
        4,
        1,
        2,
        3,
        4,
        1,
        2,
        3,
        4,
        1,
        2,
        3,
        4,
        1,
        2,
        3,
        4,
        1,
        2,
        3,
        4,
        1,
        2,
        3,
        4,
        33,
        386,
        259,
        260,
        257,
        258,
        291,
        132,
        1,
        2,
        3,
        4,
        1,
        2,
        3,
        4,
        1,
        2,
        3,
        4,
        1,
        2,
        3,
        4,
        1,
        2,
        3,
        4,
        1,
        2,
        3,
        4,
        1,
        2,
        3,
        4,
        1,
        2,
        3,
        4,
        1,
        2,
        3,
        4,
        1,
        2,
        3,
        4,
        33,
        386,
        259,
        260,
        257,
        258,
        291,
        132,
        1,
        2,
        3,
        4,
        1,
        2,
        3,
        4,
        1,
        2,
        3,
        4,
        1,
        2,
        3,
        4,
        1,
        2,
        3,
        4,
        1,
        2,
        3,
        4,
        1,
        34,
        387,
        260,
        257,
        258,
        259,
        292,
        129,
        2,
        3,
        4,
        1,
        2,
        3,
        4,
        1,
        2,
        3,
        4,
        1,
        2,
        3,
        4,
        1,
        2,
        3,
        4,
        1,
        2,
        3,
        4,
        1,
        2,
        3,
        4,
        1,
        2,
        3,
        4,
        1,
        2,
        3,
        4,
        1,
        2,
        3,
        4,
        33,
        386,
        259,
        260,
        257,
        258,
        291,
        132,
        1,
        2,
        3,
        4,
        1,
        2,
        3,
        4,
        1,
        2,
        3,
        4,
        1,
        2,
        3,
        4,
        1,
        2,
        3,
        4,
        1,
        2,
        3,
        4,
        1,
        2,
        3,
        4,
        1,
        2,
        3,
        4,
        1,
        2,
        3,
        4,
        1,
        2,
        3,
        4,
        33,
        386,
        259,
        260,
        257,
        258,
        291,
        132,
        1,
        2,
        3,
        4,
        1,
        2,
        3,
        4,
        33,
        898,
        771,
        804,
        901,
        774,
        807,
        136,
        5,
        6,
        7,
        8,
        5,
        6,
        7,
        8,
        5,
        38,
        391,
        264,
        261,
        262,
        263,
        296,
        133,
        6,
        7,
        8,
        5,
        6,
        7,
        8,
        5,
        6,
        7,
        8,
        5,
        6,
        7,
        8,
        5,
        6,
        7,
        8,
        5,
        6,
        7,
        8,
        5,
        6,
        7,
        8,
        5,
        6,
        7,
        8,
        5,
        6,
        7,
        8,
        5,
        6,
        7,
        8,
        37,
        390,
        263,
        264,
        261,
        262,
        295,
        136,
        5,
        6,
        7,
        8,
        5,
        6,
        7,
        8,
        5,
        6,
        7,
        8,
        5,
        6,
        7,
        8,
        5,
        6,
        7,
        8,
        5,
        6,
        7,
        8,
        5,
        6,
        7,
        8,
        5,
        6,
        7,
        8,
        5,
        6,
        7,
        8,
        5,
        6,
        7,
        8,
        37,
        390,
        263,
        264,
        261,
        262,
        295,
        136,
        5,
        6,
        7,
        8,
        5,
        6,
        7,
        8,
        5,
        6,
        7,
        8,
        5,
        6,
        7,
        8,
        5,
        6,
        7,
        8,
        5,
        6,
        7,
        8,
        5,
        38,
        391,
        264,
        261,
        262,
        263,
        296,
        133,
        6,
        7,
        8,
        5,
        6,
        7,
        8,
        5,
        6,
        7,
        8,
        5,
        6,
        7,
        8,
        5,
        6,
        7,
        8,
        5,
        6,
        7,
        8,
        5,
        6,
        7,
        8,
        5,
        6,
        7,
        8,
        5,
        6,
        7,
        8,
        5,
        6,
        7,
        8,
        37,
        390,
        263,
        264,
        261,
        262,
        295,
        136,
        5,
        6,
        7,
        8,
        5,
        6,
        7,
        8,
        5,
        6,
        7,
        8,
        5,
        6,
        7,
        8,
        5,
        6,
        7,
        8,
        5,
        6,
        7,
        8,
        5,
        6,
        7,
        8,
        5,
        6,
        7,
        8,
        5,
        6,
        7,
        8,
        5,
        6,
        7,
        8,
        37,
        390,
        263,
        264,
        261,
        262,
        295,
        136,
        5,
        6,
        7,
        8,
        5,
        6,
        7,
        8,
        37,
        902,
        775,
        808,
        905,
        778,
        811,
        140,
        9,
        10,
        11,
        12,
        9,
        10,
        11,
        12,
        9,
        42,
        395,
        268,
        265,
        266,
        267,
        300,
        137,
        10,
        11,
        12,
        9,
        10,
        11,
        12,
        9,
        10,
        11,
        12,
        9,
        10,
        11,
        12,
        9,
        10,
        11,
        12,
        9,
        10,
        11,
        12,
        9,
        10,
        11,
        12,
        9,
        10,
        11,
        12,
        9,
        10,
        11,
        12,
        9,
        10,
        11,
        12,
        41,
        394,
        267,
        268,
        265,
        266,
        299,
        140,
        9,
        10,
        11,
        12,
        9,
        10,
        11,
        12,
        9,
        10,
        11,
        12,
        9,
        10,
        11,
        12,
        9,
        10,
        11,
        12,
        9,
        10,
        11,
        12,
        9,
        10,
        11,
        12,
        9,
        10,
        11,
        12,
        9,
        10,
        11,
        12,
        9,
        10,
        11,
        12,
        41,
        394,
        267,
        268,
        265,
        266,
        299,
        140,
        9,
        10,
        11,
        12,
        9,
        10,
        11,
        12,
        9,
        10,
        11,
        12,
        9,
        10,
        11,
        12,
        9,
        10,
        11,
        12,
        9,
        10,
        11,
        12,
        9,
        42,
        395,
        268,
        265,
        266,
        267,
        300,
        137,
        10,
        11,
        12,
        9,
        10,
        11,
        12,
        9,
        10,
        11,
        12,
        9,
        10,
        11,
        12,
        9,
        10,
        11,
        12,
        9,
        10,
        11,
        12,
        9,
        10,
        11,
        12,
        9,
        10,
        11,
        12,
        9,
        10,
        11,
        12,
        9,
        10,
        11,
        12,
        41,
        394,
        267,
        268,
        265,
        266,
        299,
        140,
        9,
        10,
        11,
        12,
        9,
        10,
        11,
        12,
        9,
        10,
        11,
        12,
        9,
        10,
        11,
        12,
        9,
        10,
        11,
        12,
        9,
        10,
        11,
        12,
        9,
        10,
        11,
        12,
        9,
        10,
        11,
        12,
        9,
        10,
        11,
        12,
        9,
        10,
        11,
        12,
        41,
        394,
        267,
        268,
        265,
        266,
        299,
        140,
        9,
        10,
        11,
        12,
        9,
        10,
        11,
        12,
        41,
        906,
        779,
        812,
        909,
        782,
        815,
        144,
        13,
        14,
        15,
        16,
        13,
        14,
        15,
        16,
        13,
        46,
        399,
        272,
        269,
        270,
        271,
        304,
        141,
        14,
        15,
        16,
        13,
        14,
        15,
        16,
        13,
        14,
        15,
        16,
        13,
        14,
        15,
        16,
        13,
        14,
        15,
        16,
        13,
        14,
        15,
        16,
        13,
        14,
        15,
        16,
        13,
        14,
        15,
        16,
        13,
        14,
        15,
        16,
        13,
        14,
        15,
        16,
        45,
        398,
        271,
        272,
        269,
        270,
        303,
        144,
        13,
        14,
        15,
        16,
        13,
        14,
        15,
        16,
        13,
        14,
        15,
        16,
        13,
        14,
        15,
        16,
        13,
        14,
        15,
        16,
        13,
        14,
        15,
        16,
        13,
        14,
        15,
        16,
        13,
        14,
        15,
        16,
        13,
        14,
        15,
        16,
        13,
        14,
        15,
        16,
        45,
        398,
        271,
        272,
        269,
        270,
        303,
        144,
        13,
        14,
        15,
        16,
        13,
        14,
        15,
        16,
        13,
        14,
        15,
        16,
        13,
        14,
        15,
        16,
        13,
        14,
        15,
        16,
        13,
        14,
        15,
        16,
        13,
        46,
        399,
        272,
        269,
        270,
        271,
        304,
        141,
        14,
        15,
        16,
        13,
        14,
        15,
        16,
        13,
        14,
        15,
        16,
        13,
        14,
        15,
        16,
        13,
        14,
        15,
        16,
        13,
        14,
        15,
        16,
        13,
        14,
        15,
        16,
        13,
        14,
        15,
        16,
        13,
        14,
        15,
        16,
        13,
        14,
        15,
        16,
        45,
        398,
        271,
        272,
        269,
        270,
        303,
        144,
        13,
        14,
        15,
        16,
        13,
        14,
        15,
        16,
        13,
        14,
        15,
        16,
        13,
        14,
        15,
        16,
        13,
        14,
        15,
        16,
        13,
        14,
        15,
        16,
        13,
        14,
        15,
        16,
        13,
        14,
        15,
        16,
        13,
        14,
        15,
        16,
        13,
        14,
        15,
        16,
        45,
        398,
        271,
        272,
        269,
        270,
        303,
        144,
        13,
        14,
        15,
        16,
        13,
        14,
        15,
        16,
        45,
        910,
        783,
        816,
        897,
        770,
        803,
        132,
        1,
        2,
        3,
        4,
        1,
        2,
        3,
        4,
        1,
        34,
        387,
        260,
        257,
        258,
        259,
        292,
        129,
        2,
        3,
        4,
        1,
        2,
        3,
        4,
        1,
        2,
        3,
        4,
        1,
        2,
        3,
        4,
        1,
        2,
        3,
        4,
        1,
        2,
        3,
        4,
        1,
        2,
        3,
        4,
        1,
        2,
        3,
        4,
        1,
        2,
        3,
        4,
        1,
        2,
        3,
        4,
        33,
        386,
        259,
        260,
        257,
        258,
        291,
        132,
        1,
        2,
        3,
        4,
        1,
        2,
        3,
        4,
        1,
        2,
        3,
        4,
        1,
        2,
        3,
        4,
        1,
        2,
        3,
        4,
        1,
        2,
        3,
        4,
        1,
        2,
        3,
        4,
        1,
        2,
        3,
        4,
        1,
        2,
        3,
        4,
        1,
        2,
        3,
        4,
        33,
        386,
        259,
        260,
        257,
        258,
        291,
        132,
        1,
        2,
        3,
        4,
        1,
        2,
        3,
        4,
        1,
        2,
        3,
        4,
        1,
        2,
        3,
        4,
        1,
        2,
        3,
        4,
        1,
        2,
        3,
        4,
        1,
        34,
        387,
        260,
        257,
        258,
        259,
        292,
        129,
        2,
        3,
        4,
        1,
        2,
        3,
        4,
        1,
        2,
        3,
        4,
        1,
        2,
        3,
        4,
        1,
        2,
        3,
        4,
        1,
        2,
        3,
        4,
        1,
        2,
        3,
        4,
        1,
        2,
        3,
        4,
        1,
        2,
        3,
        4,
        1,
        2,
        3,
        4,
        33,
        386,
        259,
        260,
        257,
        258,
        291,
        132,
        1,
        2,
        3,
        4,
        1,
        2,
        3,
        4,
        1,
        2,
        3,
        4,
        1,
        2,
        3,
        4,
        1,
        2,
        3,
        4,
        1,
        2,
        3,
        4,
        1,
        2,
        3,
        4,
        1,
        2,
        3,
        4,
        1,
        2,
        3,
        4,
        1,
        2,
        3,
        4,
        33,
        386,
        259,
        260,
        257,
        258,
        291,
        132,
        1,
        2,
        3,
        4,
        1,
        2,
        3,
        4,
        33,
        898,
        771,
        804,
        901,
        774,
        807,
        136,
        5,
        6,
        7,
        8,
        5,
        6,
        7,
        8,
        5,
        38,
        391,
        264,
        261,
        262,
        263,
        296,
        133,
        6,
        7,
        8,
        5,
        6,
        7,
        8,
        5,
        6,
        7,
        8,
        5,
        6,
        7,
        8,
        5,
        6,
        7,
        8,
        5,
        6,
        7,
        8,
        5,
        6,
        7,
        8,
        5,
        6,
        7,
        8,
        5,
        6,
        7,
        8,
        5,
        6,
        7,
        8,
        37,
        390,
        263,
        264,
        261,
        262,
        295,
        136,
        5,
        6,
        7,
        8,
        5,
        6,
        7,
        8,
        5,
        6,
        7,
        8,
        5,
        6,
        7,
        8,
        5,
        6,
        7,
        8,
        5,
        6,
        7,
        8,
        5,
        6,
        7,
        8,
        5,
        6,
        7,
        8,
        5,
        6,
        7,
        8,
        5,
        6,
        7,
        8,
        37,
        390,
        263,
        264,
        261,
        262,
        295,
        136,
        5,
        6,
        7,
        8,
        5,
        6,
        7,
        8,
        5,
        6,
        7,
        8,
        5,
        6,
        7,
        8,
        5,
        6,
        7,
        8,
        5,
        6,
        7,
        8,
        5,
        38,
        391,
        264,
        261,
        262,
        263,
        296,
        133,
        6,
        7,
        8,
        5,
        6,
        7,
        8,
        5,
        6,
        7,
        8,
        5,
        6,
        7,
        8,
        5,
        6,
        7,
        8,
        5,
        6,
        7,
        8,
        5,
        6,
        7,
        8,
        5,
        6,
        7,
        8,
        5,
        6,
        7,
        8,
        5,
        6,
        7,
        8,
        37,
        390,
        263,
        264,
        261,
        262,
        295,
        136,
        5,
        6,
        7,
        8,
        5,
        6,
        7,
        8,
        5,
        6,
        7,
        8,
        5,
        6,
        7,
        8,
        5,
        6,
        7,
        8,
        5,
        6,
        7,
        8,
        5,
        6,
        7,
        8,
        5,
        6,
        7,
        8,
        5,
        6,
        7,
        8,
        5,
        6,
        7,
        8,
        37,
        390,
        263,
        264,
        261,
        262,
        295,
        136,
        5,
        6,
        7,
        8,
        5,
        6,
        7,
        8,
        37,
        902,
        775,
        808,
        905,
        778,
        811,
        140,
        9,
        10,
        11,
        12,
        9,
        10,
        11,
        12,
        9,
        42,
        395,
        268,
        265,
        266,
        267,
        300,
        137,
        10,
        11,
        12,
        9,
        10,
        11,
        12,
        9,
        10,
        11,
        12,
        9,
        10,
        11,
        12,
        9,
        10,
        11,
        12,
        9,
        10,
        11,
        12,
        9,
        10,
        11,
        12,
        9,
        10,
        11,
        12,
        9,
        10,
        11,
        12,
        9,
        10,
        11,
        12,
        41,
        394,
        267,
        268,
        265,
        266,
        299,
        140,
        9,
        10,
        11,
        12,
        9,
        10,
        11,
        12,
        9,
        10,
        11,
        12,
        9,
        10,
        11,
        12,
        9,
        10,
        11,
        12,
        9,
        10,
        11,
        12,
        9,
        10,
        11,
        12,
        9,
        10,
        11,
        12,
        9,
        10,
        11,
        12,
        9,
        10,
        11,
        12,
        41,
        394,
        267,
        268,
        265,
        266,
        299,
        140,
        9,
        10,
        11,
        12,
        9,
        10,
        11,
        12,
        9,
        10,
        11,
        12,
        9,
        10,
        11,
        12,
        9,
        10,
        11,
        12,
        9,
        10,
        11,
        12,
        9,
        42,
        395,
        268,
        265,
        266,
        267,
        300,
        137,
        10,
        11,
        12,
        9,
        10,
        11,
        12,
        9,
        10,
        11,
        12,
        9,
        10,
        11,
        12,
        9,
        10,
        11,
        12,
        9,
        10,
        11,
        12,
        9,
        10,
        11,
        12,
        9,
        10,
        11,
        12,
        9,
        10,
        11,
        12,
        9,
        10,
        11,
        12,
        41,
        394,
        267,
        268,
        265,
        266,
        299,
        140,
        9,
        10,
        11,
        12,
        9,
        10,
        11,
        12,
        9,
        10,
        11,
        12,
        9,
        10,
        11,
        12,
        9,
        10,
        11,
        12,
        9,
        10,
        11,
        12,
        9,
        10,
        11,
        12,
        9,
        10,
        11,
        12,
        9,
        10,
        11,
        12,
        9,
        10,
        11,
        12,
        41,
        394,
        267,
        268,
        265,
        266,
        299,
        140,
        9,
        10,
        11,
        12,
        9,
        10,
        11,
        12,
        41,
        906,
        779,
        812,
        909,
        782,
        815,
        144,
        13,
        14,
        15,
        16,
        13,
        14,
        15,
        16,
        13,
        46,
        399,
        272,
        269,
        270,
        271,
        304,
        141,
        14,
        15,
        16,
        13,
        14,
        15,
        16,
        13,
        14,
        15,
        16,
        13,
        14,
        15,
        16,
        13,
        14,
        15,
        16,
        13,
        14,
        15,
        16,
        13,
        14,
        15,
        16,
        13,
        14,
        15,
        16,
        13,
        14,
        15,
        16,
        13,
        14,
        15,
        16,
        45,
        398,
        271,
        272,
        269,
        270,
        303,
        144,
        13,
        14,
        15,
        16,
        13,
        14,
        15,
        16,
        13,
        14,
        15,
        16,
        13,
        14,
        15,
        16,
        13,
        14,
        79,
        80,
        77,
        78,
        79,
        80,
        77,
        78,
        79,
        80,
        77,
        78,
        79,
        80,
        77,
        14,
        15,
        16,
        13,
        14,
        15,
        16,
        45,
        398,
        271,
        272,
        269,
        270,
        303,
        144,
        13,
        14,
        15,
        16,
        13,
        14,
        15,
        16,
        13,
        14,
        15,
        16,
        13,
        14,
        15,
        16,
        13,
        14,
        15,
        16,
        13,
        14,
        15,
        16,
        13,
        46,
        399,
        272,
        269,
        270,
        271,
        304,
        141,
        14,
        15,
        16,
        13,
        14,
        15,
        16,
        13,
        14,
        15,
        16,
        13,
        14,
        15,
        16,
        13,
        14,
        15,
        16,
        13,
        14,
        15,
        16,
        13,
        14,
        15,
        16,
        13,
        14,
        15,
        16,
        13,
        14,
        15,
        16,
        13,
        14,
        15,
        16,
        45,
        398,
        271,
        272,
        269,
        270,
        303,
        144,
        13,
        14,
        15,
        16,
        13,
        14,
        15,
        16,
        13,
        14,
        15,
        16,
        13,
        14,
        15,
        16,
        13,
        14,
        79,
        80,
        77,
        78,
        79,
        80,
        77,
        78,
        79,
        80,
        77,
        78,
        79,
        80,
        77,
        14,
        15,
        16,
        13,
        14,
        15,
        16,
        45,
        398,
        271,
        272,
        269,
        270,
        303,
        144,
        13,
        14,
        15,
        16,
        13,
        14,
        15,
        16,
        45,
        910,
        783,
        816,
        897,
        770,
        803,
        132,
        1,
        2,
        3,
        4,
        1,
        2,
        3,
        4,
        1,
        34,
        387,
        260,
        257,
        258,
        259,
        292,
        129,
        2,
        3,
        4,
        1,
        2,
        3,
        4,
        1,
        2,
        3,
        4,
        1,
        2,
        3,
        4,
        1,
        2,
        3,
        4,
        1,
        2,
        3,
        4,
        1,
        2,
        3,
        4,
        1,
        2,
        3,
        4,
        1,
        2,
        3,
        4,
        1,
        2,
        3,
        4,
        33,
        386,
        259,
        260,
        257,
        258,
        291,
        132,
        1,
        2,
        3,
        4,
        1,
        2,
        3,
        4,
        1,
        2,
        3,
        4,
        1,
        2,
        3,
        4,
        65,
        98,
        915,
        788,
        785,
        786,
        787,
        788,
        785,
        786,
        787,
        788,
        785,
        786,
        787,
        788,
        817,
        194,
        67,
        4,
        1,
        2,
        3,
        4,
        33,
        386,
        259,
        260,
        257,
        258,
        291,
        132,
        1,
        2,
        3,
        4,
        1,
        2,
        3,
        4,
        1,
        2,
        3,
        4,
        1,
        2,
        3,
        4,
        1,
        2,
        3,
        4,
        1,
        2,
        3,
        4,
        1,
        34,
        387,
        260,
        257,
        258,
        259,
        292,
        129,
        2,
        3,
        4,
        1,
        2,
        3,
        4,
        1,
        2,
        3,
        4,
        1,
        2,
        3,
        4,
        1,
        2,
        3,
        4,
        1,
        2,
        3,
        4,
        1,
        2,
        3,
        4,
        1,
        2,
        3,
        4,
        1,
        2,
        3,
        4,
        1,
        2,
        3,
        4,
        33,
        386,
        259,
        260,
        257,
        258,
        291,
        132,
        1,
        2,
        3,
        4,
        1,
        2,
        3,
        4,
        1,
        2,
        3,
        4,
        1,
        2,
        3,
        4,
        65,
        98,
        915,
        788,
        785,
        786,
        787,
        788,
        785,
        786,
        787,
        788,
        785,
        786,
        787,
        788,
        817,
        194,
        67,
        4,
        1,
        2,
        3,
        4,
        33,
        386,
        259,
        260,
        257,
        258,
        291,
        132,
        1,
        2,
        3,
        4,
        1,
        2,
        3,
        4,
        33,
        898,
        771,
        804,
        901,
        774,
        807,
        136,
        5,
        6,
        7,
        8,
        5,
        6,
        7,
        8,
        5,
        38,
        391,
        264,
        261,
        262,
        263,
        296,
        133,
        6,
        7,
        8,
        5,
        6,
        7,
        8,
        5,
        6,
        7,
        8,
        5,
        6,
        7,
        8,
        5,
        6,
        7,
        8,
        5,
        6,
        7,
        8,
        5,
        6,
        7,
        8,
        5,
        6,
        7,
        8,
        5,
        6,
        7,
        8,
        5,
        6,
        7,
        8,
        37,
        390,
        263,
        264,
        261,
        262,
        295,
        136,
        5,
        6,
        7,
        8,
        5,
        6,
        7,
        8,
        5,
        6,
        7,
        8,
        5,
        6,
        7,
        104,
        917,
        790,
        775,
        776,
        773,
        774,
        775,
        776,
        773,
        774,
        775,
        776,
        773,
        774,
        775,
        776,
        773,
        790,
        823,
        200,
        5,
        6,
        7,
        8,
        37,
        390,
        263,
        264,
        261,
        262,
        295,
        136,
        5,
        6,
        7,
        8,
        5,
        6,
        7,
        8,
        5,
        6,
        7,
        8,
        5,
        6,
        7,
        8,
        5,
        6,
        7,
        8,
        5,
        6,
        7,
        8,
        5,
        38,
        391,
        264,
        261,
        262,
        263,
        296,
        133,
        6,
        7,
        8,
        5,
        6,
        7,
        8,
        5,
        6,
        7,
        8,
        5,
        6,
        7,
        8,
        5,
        6,
        7,
        8,
        5,
        6,
        7,
        8,
        5,
        6,
        7,
        8,
        5,
        6,
        7,
        8,
        5,
        6,
        7,
        8,
        5,
        6,
        7,
        8,
        37,
        390,
        263,
        264,
        261,
        262,
        295,
        136,
        5,
        6,
        7,
        8,
        5,
        6,
        7,
        8,
        5,
        6,
        7,
        8,
        5,
        6,
        7,
        104,
        917,
        790,
        775,
        776,
        773,
        774,
        775,
        776,
        773,
        774,
        775,
        776,
        773,
        774,
        775,
        776,
        773,
        790,
        823,
        200,
        5,
        6,
        7,
        8,
        37,
        390,
        263,
        264,
        261,
        262,
        295,
        136,
        5,
        6,
        7,
        8,
        5,
        6,
        7,
        8,
        37,
        902,
        775,
        808,
        905,
        778,
        811,
        140,
        9,
        10,
        11,
        12,
        9,
        10,
        11,
        12,
        9,
        42,
        395,
        268,
        265,
        266,
        267,
        300,
        137,
        10,
        11,
        12,
        9,
        10,
        11,
        12,
        9,
        10,
        11,
        12,
        9,
        10,
        11,
        12,
        9,
        10,
        11,
        12,
        9,
        10,
        11,
        12,
        9,
        10,
        11,
        12,
        9,
        10,
        11,
        12,
        9,
        10,
        11,
        12,
        9,
        10,
        11,
        12,
        41,
        394,
        267,
        268,
        265,
        266,
        299,
        140,
        9,
        10,
        11,
        12,
        9,
        10,
        11,
        12,
        9,
        10,
        11,
        12,
        9,
        10,
        107,
        924,
        777,
        778,
        779,
        780,
        777,
        778,
        779,
        780,
        777,
        778,
        779,
        780,
        777,
        778,
        779,
        780,
        777,
        778,
        779,
        828,
        201,
        10,
        11,
        12,
        41,
        394,
        267,
        268,
        265,
        266,
        299,
        140,
        9,
        10,
        11,
        12,
        9,
        10,
        11,
        12,
        9,
        10,
        11,
        12,
        9,
        10,
        11,
        12,
        9,
        10,
        11,
        12,
        9,
        10,
        11,
        12,
        9,
        42,
        395,
        268,
        265,
        266,
        267,
        300,
        137,
        10,
        11,
        12,
        9,
        10,
        11,
        12,
        9,
        10,
        11,
        12,
        9,
        10,
        11,
        12,
        9,
        10,
        11,
        12,
        9,
        10,
        11,
        12,
        9,
        10,
        11,
        12,
        9,
        10,
        11,
        12,
        9,
        10,
        11,
        12,
        9,
        10,
        11,
        12,
        41,
        394,
        267,
        268,
        265,
        266,
        299,
        140,
        9,
        10,
        11,
        12,
        9,
        10,
        11,
        12,
        9,
        10,
        11,
        12,
        9,
        10,
        107,
        924,
        777,
        778,
        779,
        780,
        777,
        778,
        779,
        780,
        777,
        778,
        779,
        780,
        777,
        778,
        779,
        780,
        777,
        778,
        779,
        828,
        201,
        10,
        11,
        12,
        41,
        394,
        267,
        268,
        265,
        266,
        299,
        140,
        9,
        10,
        11,
        12,
        9,
        10,
        11,
        12,
        41,
        906,
        779,
        812,
        909,
        782,
        815,
        144,
        13,
        14,
        15,
        16,
        13,
        14,
        15,
        16,
        13,
        46,
        399,
        272,
        269,
        270,
        271,
        304,
        141,
        14,
        15,
        16,
        13,
        14,
        15,
        16,
        13,
        14,
        15,
        16,
        13,
        14,
        15,
        16,
        13,
        14,
        15,
        16,
        13,
        14,
        15,
        16,
        13,
        14,
        15,
        16,
        13,
        14,
        15,
        16,
        13,
        14,
        15,
        16,
        13,
        14,
        15,
        16,
        45,
        398,
        271,
        272,
        269,
        270,
        303,
        144,
        13,
        14,
        15,
        16,
        13,
        14,
        15,
        16,
        13,
        14,
        15,
        16,
        13,
        110,
        927,
        784,
        781,
        782,
        783,
        784,
        781,
        782,
        783,
        784,
        781,
        782,
        783,
        784,
        781,
        782,
        783,
        784,
        781,
        782,
        783,
        784,
        829,
        206,
        15,
        16,
        45,
        398,
        271,
        272,
        269,
        270,
        303,
        144,
        13,
        14,
        15,
        16,
        13,
        14,
        15,
        16,
        13,
        14,
        15,
        16,
        13,
        14,
        15,
        16,
        13,
        14,
        15,
        16,
        13,
        14,
        15,
        16,
        13,
        46,
        399,
        272,
        269,
        270,
        271,
        304,
        141,
        14,
        15,
        16,
        13,
        14,
        15,
        16,
        13,
        14,
        15,
        16,
        13,
        14,
        15,
        16,
        13,
        14,
        15,
        16,
        13,
        14,
        15,
        16,
        13,
        14,
        15,
        16,
        13,
        14,
        15,
        16,
        13,
        14,
        15,
        16,
        13,
        14,
        15,
        16,
        45,
        398,
        271,
        272,
        269,
        270,
        303,
        144,
        13,
        14,
        15,
        16,
        13,
        14,
        15,
        16,
        13,
        14,
        15,
        16,
        13,
        110,
        927,
        784,
        781,
        782,
        783,
        784,
        781,
        782,
        783,
        784,
        781,
        782,
        783,
        784,
        781,
        782,
        783,
        784,
        781,
        782,
        783,
        784,
        829,
        206,
        15,
        16,
        45,
        398,
        271,
        272,
        269,
        270,
        303,
        144,
        13,
        14,
        15,
        16,
        13,
        14,
        15,
        16,
        45,
        910,
        783,
        816,
        897,
        770,
        803,
        132,
        1,
        2,
        3,
        4,
        1,
        2,
        3,
        4,
        1,
        34,
        387,
        260,
        257,
        258,
        259,
        292,
        129,
        2,
        3,
        4,
        1,
        2,
        3,
        4,
        1,
        2,
        3,
        4,
        1,
        2,
        3,
        4,
        1,
        2,
        3,
        4,
        1,
        2,
        3,
        4,
        1,
        2,
        3,
        4,
        1,
        2,
        3,
        4,
        1,
        2,
        3,
        4,
        1,
        2,
        3,
        4,
        33,
        386,
        259,
        260,
        257,
        258,
        291,
        132,
        1,
        2,
        3,
        4,
        1,
        2,
        3,
        4,
        1,
        2,
        3,
        4,
        33,
        914,
        771,
        772,
        769,
        770,
        771,
        772,
        769,
        770,
        771,
        772,
        769,
        770,
        771,
        772,
        769,
        770,
        771,
        772,
        769,
        770,
        771,
        772,
        769,
        818,
        131,
        4,
        33,
        386,
        259,
        260,
        257,
        258,
        291,
        132,
        1,
        2,
        3,
        4,
        1,
        2,
        3,
        4,
        1,
        2,
        3,
        4,
        1,
        2,
        3,
        4,
        1,
        2,
        3,
        4,
        1,
        2,
        3,
        4,
        1,
        34,
        387,
        260,
        257,
        258,
        259,
        292,
        129,
        2,
        3,
        4,
        1,
        2,
        3,
        4,
        1,
        2,
        3,
        4,
        1,
        2,
        3,
        4,
        1,
        2,
        3,
        4,
        1,
        2,
        3,
        4,
        1,
        2,
        3,
        4,
        1,
        2,
        3,
        4,
        1,
        2,
        3,
        4,
        1,
        2,
        3,
        4,
        33,
        386,
        259,
        260,
        257,
        258,
        291,
        132,
        1,
        2,
        3,
        4,
        1,
        2,
        3,
        4,
        1,
        2,
        3,
        4,
        33,
        914,
        771,
        772,
        769,
        770,
        771,
        772,
        769,
        770,
        771,
        772,
        769,
        770,
        771,
        772,
        769,
        770,
        771,
        772,
        769,
        770,
        771,
        772,
        769,
        818,
        131,
        4,
        33,
        386,
        259,
        260,
        257,
        258,
        291,
        132,
        1,
        2,
        3,
        4,
        1,
        2,
        3,
        4,
        33,
        898,
        771,
        804,
        901,
        774,
        807,
        136,
        5,
        6,
        7,
        8,
        5,
        6,
        7,
        8,
        5,
        38,
        391,
        264,
        261,
        262,
        263,
        296,
        133,
        6,
        7,
        8,
        5,
        6,
        7,
        8,
        5,
        6,
        7,
        8,
        5,
        6,
        7,
        8,
        5,
        6,
        7,
        8,
        5,
        6,
        7,
        8,
        5,
        6,
        7,
        8,
        5,
        6,
        7,
        8,
        5,
        6,
        7,
        8,
        5,
        6,
        7,
        8,
        37,
        390,
        263,
        264,
        261,
        262,
        295,
        136,
        5,
        6,
        7,
        8,
        5,
        6,
        7,
        8,
        5,
        6,
        7,
        8,
        101,
        902,
        775,
        776,
        773,
        774,
        775,
        776,
        773,
        774,
        775,
        776,
        773,
        774,
        775,
        776,
        773,
        774,
        775,
        776,
        773,
        774,
        775,
        776,
        773,
        806,
        199,
        8,
        37,
        390,
        263,
        264,
        261,
        262,
        295,
        136,
        5,
        6,
        7,
        8,
        5,
        6,
        7,
        8,
        5,
        6,
        7,
        8,
        5,
        6,
        7,
        8,
        5,
        6,
        7,
        8,
        5,
        6,
        7,
        8,
        5,
        38,
        391,
        264,
        261,
        262,
        263,
        296,
        133,
        6,
        7,
        8,
        5,
        6,
        7,
        8,
        5,
        6,
        7,
        8,
        5,
        6,
        7,
        8,
        5,
        6,
        7,
        8,
        5,
        6,
        7,
        8,
        5,
        6,
        7,
        8,
        5,
        6,
        7,
        8,
        5,
        6,
        7,
        8,
        5,
        6,
        7,
        8,
        37,
        390,
        263,
        264,
        261,
        262,
        295,
        136,
        5,
        6,
        7,
        8,
        5,
        6,
        7,
        8,
        5,
        6,
        7,
        8,
        101,
        902,
        775,
        776,
        773,
        774,
        775,
        776,
        773,
        774,
        775,
        776,
        773,
        774,
        775,
        776,
        773,
        774,
        775,
        776,
        773,
        774,
        775,
        776,
        773,
        806,
        199,
        8,
        37,
        390,
        263,
        264,
        261,
        262,
        295,
        136,
        5,
        6,
        7,
        8,
        5,
        6,
        7,
        8,
        37,
        902,
        775,
        808,
        905,
        778,
        811,
        140,
        9,
        10,
        11,
        12,
        9,
        10,
        11,
        12,
        9,
        42,
        395,
        268,
        265,
        266,
        267,
        300,
        137,
        10,
        11,
        12,
        9,
        10,
        11,
        12,
        9,
        10,
        11,
        12,
        9,
        10,
        11,
        12,
        9,
        10,
        11,
        12,
        9,
        10,
        11,
        12,
        9,
        10,
        11,
        12,
        9,
        10,
        11,
        12,
        9,
        10,
        11,
        12,
        9,
        10,
        11,
        12,
        41,
        394,
        267,
        268,
        265,
        266,
        299,
        140,
        9,
        10,
        11,
        12,
        9,
        10,
        11,
        12,
        9,
        10,
        11,
        44,
        921,
        778,
        779,
        780,
        777,
        778,
        779,
        780,
        777,
        778,
        779,
        780,
        777,
        778,
        779,
        780,
        777,
        778,
        779,
        780,
        777,
        778,
        779,
        780,
        777,
        778,
        827,
        140,
        41,
        394,
        267,
        268,
        265,
        266,
        299,
        140,
        9,
        10,
        11,
        12,
        9,
        10,
        11,
        12,
        9,
        10,
        11,
        12,
        9,
        10,
        11,
        12,
        9,
        10,
        11,
        12,
        9,
        10,
        11,
        12,
        9,
        42,
        395,
        268,
        265,
        266,
        267,
        300,
        137,
        10,
        11,
        12,
        9,
        10,
        11,
        12,
        9,
        10,
        11,
        12,
        9,
        10,
        11,
        12,
        9,
        10,
        11,
        12,
        9,
        10,
        11,
        12,
        9,
        10,
        11,
        12,
        9,
        10,
        11,
        12,
        9,
        10,
        11,
        12,
        9,
        10,
        11,
        12,
        41,
        394,
        267,
        268,
        265,
        266,
        299,
        140,
        9,
        10,
        11,
        12,
        9,
        10,
        11,
        12,
        9,
        10,
        11,
        44,
        921,
        778,
        779,
        780,
        777,
        778,
        779,
        780,
        777,
        778,
        779,
        780,
        777,
        778,
        779,
        780,
        777,
        778,
        779,
        780,
        777,
        778,
        779,
        780,
        777,
        778,
        827,
        140,
        41,
        394,
        267,
        268,
        265,
        266,
        299,
        140,
        9,
        10,
        11,
        12,
        9,
        10,
        11,
        12,
        41,
        906,
        779,
        812,
        909,
        782,
        815,
        144,
        13,
        14,
        15,
        16,
        13,
        14,
        15,
        16,
        13,
        46,
        399,
        272,
        269,
        270,
        271,
        304,
        141,
        14,
        15,
        16,
        13,
        14,
        15,
        16,
        13,
        14,
        15,
        16,
        13,
        14,
        15,
        16,
        13,
        14,
        15,
        16,
        13,
        14,
        15,
        16,
        13,
        14,
        15,
        16,
        13,
        14,
        15,
        16,
        13,
        14,
        15,
        16,
        13,
        14,
        15,
        16,
        45,
        398,
        271,
        272,
        269,
        270,
        303,
        144,
        13,
        14,
        15,
        16,
        13,
        14,
        15,
        16,
        13,
        14,
        15,
        48,
        909,
        782,
        783,
        784,
        781,
        782,
        783,
        784,
        781,
        782,
        783,
        784,
        781,
        782,
        783,
        784,
        781,
        782,
        783,
        784,
        781,
        782,
        783,
        784,
        781,
        782,
        815,
        144,
        45,
        398,
        271,
        272,
        269,
        270,
        303,
        144,
        13,
        14,
        15,
        16,
        13,
        14,
        15,
        16,
        13,
        14,
        15,
        16,
        13,
        14,
        15,
        16,
        13,
        14,
        15,
        16,
        13,
        14,
        15,
        16,
        13,
        46,
        399,
        272,
        269,
        270,
        271,
        304,
        141,
        14,
        15,
        16,
        13,
        14,
        15,
        16,
        13,
        14,
        15,
        16,
        13,
        14,
        15,
        16,
        13,
        14,
        15,
        16,
        13,
        14,
        15,
        16,
        13,
        14,
        15,
        16,
        13,
        14,
        15,
        16,
        13,
        14,
        15,
        16,
        13,
        14,
        15,
        16,
        45,
        398,
        271,
        272,
        269,
        270,
        303,
        144,
        13,
        14,
        15,
        16,
        13,
        14,
        15,
        16,
        13,
        14,
        15,
        48,
        909,
        782,
        783,
        784,
        781,
        782,
        783,
        784,
        781,
        782,
        783,
        784,
        781,
        782,
        783,
        784,
        781,
        782,
        783,
        784,
        781,
        782,
        783,
        784,
        781,
        782,
        815,
        144,
        45,
        398,
        271,
        272,
        269,
        270,
        303,
        144,
        13,
        14,
        15,
        16,
        13,
        14,
        15,
        16,
        45,
        910,
        783,
        816,
        897,
        770,
        803,
        132,
        1,
        2,
        3,
        4,
        1,
        2,
        3,
        4,
        1,
        34,
        387,
        260,
        257,
        258,
        259,
        292,
        129,
        2,
        3,
        4,
        1,
        2,
        3,
        4,
        1,
        2,
        3,
        4,
        1,
        2,
        3,
        4,
        1,
        2,
        3,
        4,
        1,
        2,
        3,
        4,
        1,
        2,
        3,
        4,
        1,
        2,
        3,
        4,
        1,
        2,
        3,
        4,
        1,
        2,
        3,
        4,
        33,
        386,
        259,
        260,
        257,
        258,
        291,
        132,
        1,
        2,
        3,
        4,
        1,
        2,
        3,
        4,
        1,
        2,
        3,
        36,
        897,
        770,
        771,
        772,
        769,
        770,
        771,
        772,
        769,
        770,
        771,
        772,
        769,
        770,
        771,
        772,
        769,
        770,
        771,
        772,
        769,
        770,
        771,
        772,
        769,
        770,
        803,
        132,
        33,
        386,
        259,
        260,
        257,
        258,
        291,
        132,
        1,
        2,
        3,
        4,
        1,
        2,
        3,
        4,
        1,
        2,
        3,
        4,
        1,
        2,
        3,
        4,
        1,
        2,
        3,
        4,
        1,
        2,
        3,
        4,
        1,
        34,
        387,
        260,
        257,
        258,
        259,
        292,
        129,
        2,
        3,
        4,
        1,
        2,
        3,
        4,
        1,
        2,
        3,
        4,
        1,
        2,
        3,
        4,
        1,
        2,
        3,
        4,
        1,
        2,
        3,
        4,
        1,
        2,
        3,
        4,
        1,
        2,
        3,
        4,
        1,
        2,
        3,
        4,
        1,
        2,
        3,
        4,
        33,
        386,
        259,
        260,
        257,
        258,
        291,
        132,
        1,
        2,
        3,
        4,
        1,
        2,
        3,
        4,
        1,
        2,
        3,
        36,
        897,
        770,
        771,
        772,
        769,
        770,
        771,
        772,
        769,
        770,
        771,
        772,
        769,
        770,
        771,
        772,
        769,
        770,
        771,
        772,
        769,
        770,
        771,
        772,
        769,
        770,
        803,
        132,
        33,
        386,
        259,
        260,
        257,
        258,
        291,
        132,
        1,
        2,
        3,
        4,
        1,
        2,
        3,
        4,
        33,
        898,
        771,
        804,
        901,
        774,
        807,
        136,
        5,
        6,
        7,
        8,
        5,
        6,
        7,
        8,
        5,
        38,
        391,
        264,
        261,
        262,
        263,
        296,
        133,
        6,
        7,
        8,
        5,
        6,
        7,
        8,
        5,
        6,
        7,
        8,
        5,
        6,
        7,
        8,
        5,
        6,
        7,
        8,
        5,
        6,
        7,
        8,
        5,
        6,
        7,
        8,
        5,
        6,
        7,
        8,
        5,
        6,
        7,
        8,
        5,
        6,
        7,
        8,
        37,
        390,
        263,
        264,
        261,
        262,
        295,
        136,
        5,
        6,
        7,
        8,
        5,
        6,
        7,
        8,
        5,
        6,
        7,
        40,
        901,
        774,
        775,
        776,
        773,
        774,
        775,
        776,
        773,
        774,
        775,
        776,
        773,
        774,
        775,
        776,
        773,
        774,
        775,
        776,
        773,
        774,
        775,
        776,
        773,
        774,
        807,
        136,
        37,
        390,
        263,
        264,
        261,
        262,
        295,
        136,
        5,
        6,
        7,
        8,
        5,
        6,
        7,
        8,
        5,
        6,
        7,
        8,
        5,
        6,
        7,
        8,
        5,
        6,
        7,
        8,
        5,
        6,
        7,
        8,
        5,
        38,
        391,
        264,
        261,
        262,
        263,
        296,
        133,
        6,
        7,
        8,
        5,
        6,
        7,
        8,
        5,
        6,
        7,
        8,
        5,
        6,
        7,
        8,
        5,
        6,
        7,
        8,
        5,
        6,
        7,
        8,
        5,
        6,
        7,
        8,
        5,
        6,
        7,
        8,
        5,
        6,
        7,
        8,
        5,
        6,
        7,
        8,
        37,
        390,
        263,
        264,
        261,
        262,
        295,
        136,
        5,
        6,
        7,
        8,
        5,
        6,
        7,
        8,
        5,
        6,
        7,
        40,
        901,
        774,
        775,
        776,
        773,
        774,
        775,
        776,
        773,
        774,
        775,
        776,
        773,
        774,
        775,
        776,
        773,
        774,
        775,
        776,
        773,
        774,
        775,
        776,
        773,
        774,
        807,
        136,
        37,
        390,
        263,
        264,
        261,
        262,
        295,
        136,
        5,
        6,
        7,
        8,
        5,
        6,
        7,
        8,
        37,
        902,
        775,
        808,
        905,
        778,
        811,
        140,
        9,
        10,
        11,
        12,
        9,
        10,
        11,
        12,
        9,
        42,
        395,
        268,
        265,
        266,
        267,
        300,
        137,
        10,
        11,
        12,
        9,
        10,
        11,
        12,
        9,
        10,
        11,
        12,
        9,
        10,
        11,
        12,
        9,
        10,
        11,
        12,
        9,
        10,
        11,
        12,
        9,
        10,
        11,
        12,
        9,
        10,
        11,
        12,
        9,
        10,
        11,
        12,
        9,
        10,
        11,
        12,
        41,
        394,
        267,
        268,
        265,
        266,
        299,
        140,
        9,
        10,
        11,
        12,
        9,
        10,
        11,
        12,
        9,
        10,
        11,
        44,
        905,
        778,
        779,
        780,
        777,
        778,
        779,
        780,
        777,
        778,
        779,
        780,
        777,
        778,
        779,
        780,
        777,
        778,
        779,
        780,
        777,
        778,
        779,
        780,
        777,
        778,
        811,
        140,
        41,
        394,
        267,
        268,
        265,
        266,
        299,
        140,
        9,
        10,
        11,
        12,
        9,
        10,
        11,
        12,
        9,
        10,
        11,
        12,
        9,
        10,
        11,
        12,
        9,
        10,
        11,
        12,
        9,
        10,
        11,
        12,
        9,
        42,
        395,
        268,
        265,
        266,
        267,
        300,
        137,
        10,
        11,
        12,
        9,
        10,
        11,
        12,
        9,
        10,
        11,
        12,
        9,
        10,
        11,
        12,
        9,
        10,
        11,
        12,
        9,
        10,
        11,
        12,
        9,
        10,
        11,
        12,
        9,
        10,
        11,
        12,
        9,
        10,
        11,
        12,
        9,
        10,
        11,
        12,
        41,
        394,
        267,
        268,
        265,
        266,
        299,
        140,
        9,
        10,
        11,
        12,
        9,
        10,
        11,
        12,
        9,
        10,
        11,
        44,
        905,
        778,
        779,
        780,
        777,
        778,
        779,
        780,
        777,
        778,
        779,
        780,
        777,
        778,
        779,
        780,
        777,
        778,
        779,
        780,
        777,
        778,
        779,
        780,
        777,
        778,
        811,
        140,
        41,
        394,
        267,
        268,
        265,
        266,
        299,
        140,
        9,
        10,
        11,
        12,
        9,
        10,
        11,
        12,
        41,
        906,
        779,
        812,
        909,
        782,
        815,
        144,
        13,
        14,
        15,
        16,
        13,
        14,
        15,
        16,
        13,
        46,
        399,
        272,
        269,
        270,
        271,
        304,
        141,
        14,
        15,
        16,
        13,
        14,
        15,
        16,
        13,
        14,
        15,
        16,
        13,
        14,
        15,
        16,
        13,
        14,
        15,
        16,
        13,
        14,
        15,
        16,
        13,
        14,
        15,
        16,
        13,
        14,
        15,
        16,
        13,
        14,
        15,
        16,
        13,
        14,
        15,
        16,
        45,
        398,
        271,
        272,
        269,
        270,
        303,
        144,
        13,
        14,
        15,
        16,
        13,
        14,
        15,
        16,
        13,
        14,
        15,
        48,
        909,
        782,
        783,
        784,
        781,
        782,
        783,
        784,
        781,
        782,
        783,
        784,
        781,
        782,
        783,
        784,
        781,
        782,
        783,
        784,
        781,
        782,
        783,
        784,
        781,
        782,
        815,
        144,
        45,
        398,
        271,
        272,
        269,
        270,
        303,
        144,
        13,
        14,
        15,
        16,
        13,
        14,
        15,
        16,
        13,
        14,
        15,
        16,
        13,
        14,
        15,
        16,
        13,
        14,
        15,
        16,
        13,
        14,
        15,
        16,
        13,
        46,
        399,
        272,
        269,
        270,
        271,
        304,
        141,
        14,
        15,
        16,
        13,
        14,
        15,
        16,
        13,
        14,
        15,
        16,
        13,
        14,
        15,
        16,
        13,
        14,
        15,
        16,
        13,
        14,
        15,
        16,
        13,
        14,
        15,
        16,
        13,
        14,
        15,
        16,
        13,
        14,
        15,
        16,
        13,
        14,
        15,
        16,
        45,
        398,
        271,
        272,
        269,
        270,
        303,
        144,
        13,
        14,
        15,
        16,
        13,
        14,
        15,
        16,
        13,
        14,
        15,
        48,
        909,
        782,
        783,
        784,
        781,
        782,
        783,
        784,
        781,
        782,
        783,
        784,
        781,
        782,
        783,
        784,
        781,
        782,
        783,
        784,
        781,
        782,
        783,
        784,
        781,
        782,
        815,
        144,
        45,
        398,
        271,
        272,
        269,
        270,
        303,
        144,
        13,
        14,
        15,
        16,
        13,
        14,
        15,
        16,
        45,
        910,
        783,
        816,
        897,
        770,
        803,
        132,
        1,
        2,
        3,
        4,
        1,
        2,
        3,
        4,
        1,
        34,
        387,
        260,
        257,
        258,
        259,
        292,
        129,
        2,
        3,
        4,
        1,
        2,
        3,
        4,
        1,
        2,
        3,
        4,
        1,
        2,
        3,
        4,
        1,
        2,
        3,
        4,
        1,
        2,
        3,
        4,
        1,
        2,
        3,
        4,
        1,
        2,
        3,
        4,
        1,
        2,
        3,
        4,
        1,
        2,
        3,
        4,
        33,
        386,
        259,
        260,
        257,
        258,
        291,
        132,
        1,
        2,
        3,
        4,
        1,
        2,
        3,
        4,
        1,
        2,
        3,
        36,
        897,
        770,
        771,
        772,
        769,
        770,
        771,
        772,
        769,
        770,
        771,
        772,
        769,
        770,
        771,
        772,
        769,
        770,
        771,
        772,
        769,
        770,
        771,
        772,
        769,
        770,
        803,
        132,
        33,
        386,
        259,
        260,
        257,
        258,
        291,
        132,
        1,
        2,
        3,
        4,
        1,
        2,
        3,
        4,
        1,
        2,
        3,
        4,
        1,
        2,
        3,
        4,
        1,
        2,
        3,
        4,
        1,
        2,
        3,
        4,
        1,
        34,
        387,
        260,
        257,
        258,
        259,
        292,
        129,
        2,
        3,
        4,
        1,
        2,
        3,
        4,
        1,
        2,
        3,
        4,
        1,
        2,
        3,
        4,
        1,
        2,
        3,
        4,
        1,
        2,
        3,
        4,
        1,
        2,
        3,
        4,
        1,
        2,
        3,
        4,
        1,
        2,
        3,
        4,
        1,
        2,
        3,
        4,
        33,
        386,
        259,
        260,
        257,
        258,
        291,
        132,
        1,
        2,
        3,
        4,
        1,
        2,
        3,
        4,
        1,
        2,
        3,
        36,
        897,
        770,
        771,
        772,
        769,
        770,
        771,
        772,
        769,
        770,
        771,
        772,
        769,
        770,
        771,
        772,
        769,
        770,
        771,
        772,
        769,
        770,
        771,
        772,
        769,
        770,
        803,
        132,
        33,
        386,
        259,
        260,
        257,
        258,
        291,
        132,
        1,
        2,
        3,
        4,
        1,
        2,
        3,
        4,
        33,
        898,
        771,
        804,
        901,
        774,
        807,
        136,
        5,
        6,
        7,
        8,
        5,
        6,
        7,
        8,
        5,
        38,
        391,
        264,
        261,
        262,
        263,
        296,
        133,
        6,
        7,
        8,
        5,
        6,
        7,
        8,
        5,
        6,
        7,
        8,
        5,
        6,
        7,
        8,
        5,
        6,
        7,
        8,
        5,
        6,
        7,
        8,
        5,
        6,
        7,
        8,
        5,
        6,
        7,
        8,
        5,
        6,
        7,
        8,
        5,
        6,
        7,
        8,
        37,
        390,
        263,
        264,
        261,
        262,
        295,
        136,
        5,
        6,
        7,
        8,
        5,
        6,
        7,
        8,
        5,
        6,
        7,
        40,
        901,
        774,
        775,
        776,
        773,
        774,
        775,
        776,
        773,
        774,
        775,
        776,
        773,
        774,
        775,
        776,
        773,
        774,
        775,
        776,
        773,
        774,
        775,
        776,
        773,
        774,
        807,
        136,
        37,
        390,
        263,
        264,
        261,
        262,
        295,
        136,
        5,
        6,
        7,
        8,
        5,
        6,
        7,
        8,
        5,
        6,
        7,
        8,
        5,
        6,
        7,
        8,
        5,
        6,
        7,
        8,
        5,
        6,
        7,
        8,
        5,
        38,
        391,
        264,
        261,
        262,
        263,
        296,
        133,
        6,
        7,
        8,
        5,
        6,
        7,
        8,
        5,
        6,
        7,
        8,
        5,
        6,
        7,
        8,
        5,
        6,
        7,
        8,
        5,
        6,
        7,
        8,
        5,
        6,
        7,
        8,
        5,
        6,
        7,
        8,
        5,
        6,
        7,
        8,
        5,
        6,
        7,
        8,
        37,
        390,
        263,
        264,
        261,
        262,
        295,
        136,
        5,
        6,
        7,
        8,
        5,
        6,
        7,
        8,
        5,
        6,
        7,
        40,
        901,
        774,
        775,
        776,
        773,
        774,
        775,
        776,
        773,
        774,
        775,
        776,
        773,
        774,
        775,
        776,
        773,
        774,
        775,
        776,
        773,
        774,
        775,
        776,
        773,
        774,
        807,
        136,
        37,
        390,
        263,
        264,
        261,
        262,
        295,
        136,
        5,
        6,
        7,
        8,
        5,
        6,
        7,
        8,
        37,
        902,
        775,
        808,
        905,
        778,
        811,
        140,
        9,
        10,
        11,
        12,
        9,
        10,
        11,
        12,
        9,
        42,
        395,
        268,
        265,
        266,
        267,
        300,
        137,
        10,
        11,
        12,
        9,
        10,
        11,
        12,
        9,
        10,
        11,
        12,
        9,
        10,
        11,
        12,
        9,
        10,
        11,
        12,
        9,
        10,
        11,
        12,
        9,
        10,
        11,
        12,
        9,
        10,
        11,
        12,
        9,
        10,
        11,
        12,
        9,
        10,
        11,
        12,
        41,
        394,
        267,
        268,
        265,
        266,
        299,
        140,
        9,
        10,
        11,
        12,
        9,
        10,
        11,
        12,
        9,
        10,
        11,
        44,
        905,
        778,
        779,
        780,
        777,
        778,
        779,
        780,
        777,
        778,
        779,
        780,
        777,
        778,
        779,
        780,
        777,
        778,
        779,
        780,
        777,
        778,
        779,
        780,
        777,
        778,
        811,
        140,
        41,
        394,
        267,
        268,
        265,
        266,
        299,
        140,
        9,
        10,
        11,
        12,
        9,
        10,
        11,
        12,
        9,
        10,
        11,
        12,
        9,
        10,
        11,
        12,
        9,
        10,
        11,
        12,
        9,
        10,
        11,
        12,
        9,
        42,
        395,
        268,
        265,
        266,
        267,
        300,
        137,
        10,
        11,
        12,
        9,
        10,
        11,
        12,
        9,
        10,
        11,
        12,
        9,
        10,
        11,
        12,
        9,
        10,
        11,
        12,
        9,
        10,
        11,
        12,
        9,
        10,
        11,
        12,
        9,
        10,
        11,
        12,
        9,
        10,
        11,
        12,
        9,
        10,
        11,
        12,
        41,
        394,
        267,
        268,
        265,
        266,
        299,
        140,
        9,
        10,
        11,
        12,
        9,
        10,
        11,
        12,
        9,
        10,
        11,
        44,
        905,
        778,
        779,
        780,
        777,
        778,
        779,
        780,
        777,
        778,
        779,
        780,
        777,
        778,
        779,
        780,
        777,
        778,
        779,
        780,
        777,
        778,
        779,
        780,
        777,
        778,
        811,
        140,
        41,
        394,
        267,
        268,
        265,
        266,
        299,
        140,
        9,
        10,
        11,
        12,
        9,
        10,
        11,
        12,
        41,
        906,
        779,
        812,
        909,
        782,
        815,
        144,
        13,
        14,
        15,
        16,
        13,
        14,
        15,
        16,
        13,
        46,
        399,
        272,
        269,
        270,
        271,
        304,
        141,
        14,
        15,
        16,
        13,
        14,
        15,
        16,
        13,
        14,
        15,
        16,
        13,
        14,
        15,
        16,
        13,
        14,
        15,
        16,
        13,
        14,
        15,
        16,
        13,
        14,
        15,
        16,
        13,
        14,
        15,
        16,
        13,
        14,
        15,
        16,
        13,
        14,
        15,
        16,
        45,
        398,
        271,
        272,
        269,
        270,
        303,
        144,
        13,
        14,
        15,
        16,
        13,
        14,
        15,
        16,
        13,
        14,
        15,
        48,
        909,
        782,
        783,
        784,
        781,
        782,
        783,
        784,
        781,
        782,
        783,
        784,
        781,
        782,
        783,
        784,
        781,
        782,
        783,
        784,
        781,
        782,
        783,
        784,
        781,
        782,
        815,
        144,
        45,
        398,
        271,
        272,
        269,
        270,
        303,
        144,
        13,
        14,
        15,
        16,
        13,
        14,
        15,
        16,
        13,
        14,
        15,
        16,
        13,
        14,
        15,
        16,
        13,
        14,
        15,
        16,
        13,
        14,
        15,
        16,
        13,
        46,
        399,
        272,
        269,
        270,
        271,
        304,
        141,
        14,
        15,
        16,
        13,
        14,
        15,
        16,
        13,
        14,
        15,
        16,
        13,
        14,
        15,
        16,
        13,
        14,
        15,
        16,
        13,
        14,
        15,
        16,
        13,
        14,
        15,
        16,
        13,
        14,
        15,
        16,
        13,
        14,
        15,
        16,
        13,
        14,
        15,
        16,
        45,
        398,
        271,
        272,
        269,
        270,
        303,
        144,
        13,
        14,
        15,
        16,
        13,
        14,
        15,
        16,
        13,
        14,
        15,
        48,
        909,
        782,
        783,
        784,
        781,
        782,
        783,
        784,
        781,
        782,
        783,
        784,
        781,
        782,
        783,
        784,
        781,
        782,
        783,
        784,
        781,
        782,
        783,
        784,
        781,
        782,
        815,
        144,
        45,
        398,
        271,
        272,
        269,
        270,
        303,
        144,
        13,
        14,
        15,
        16,
        13,
        14,
        15,
        16,
        45,
        910,
        783,
        816,
        897,
        770,
        803,
        132,
        1,
        2,
        3,
        4,
        1,
        2,
        3,
        4,
        1,
        34,
        387,
        260,
        257,
        258,
        259,
        292,
        129,
        2,
        3,
        4,
        1,
        2,
        3,
        4,
        1,
        2,
        3,
        4,
        1,
        2,
        3,
        4,
        1,
        2,
        3,
        4,
        1,
        2,
        3,
        4,
        1,
        2,
        3,
        4,
        1,
        2,
        3,
        4,
        1,
        2,
        3,
        4,
        1,
        2,
        3,
        4,
        33,
        386,
        259,
        260,
        257,
        258,
        291,
        132,
        1,
        2,
        3,
        4,
        1,
        2,
        3,
        4,
        1,
        2,
        3,
        36,
        897,
        770,
        771,
        772,
        769,
        770,
        771,
        772,
        769,
        770,
        771,
        772,
        769,
        770,
        771,
        772,
        769,
        770,
        771,
        772,
        769,
        770,
        771,
        772,
        769,
        770,
        803,
        132,
        33,
        386,
        259,
        260,
        257,
        258,
        291,
        132,
        1,
        2,
        3,
        4,
        1,
        2,
        3,
        4,
        1,
        2,
        3,
        4,
        1,
        2,
        3,
        4,
        1,
        2,
        3,
        4,
        1,
        2,
        3,
        4,
        1,
        34,
        387,
        260,
        257,
        258,
        259,
        292,
        129,
        2,
        3,
        4,
        1,
        2,
        3,
        4,
        1,
        2,
        3,
        4,
        1,
        2,
        3,
        4,
        1,
        2,
        3,
        4,
        1,
        2,
        3,
        4,
        1,
        2,
        3,
        4,
        1,
        2,
        3,
        4,
        1,
        2,
        3,
        4,
        1,
        2,
        3,
        4,
        33,
        386,
        259,
        260,
        257,
        258,
        291,
        132,
        1,
        2,
        3,
        4,
        1,
        2,
        3,
        4,
        1,
        2,
        3,
        36,
        897,
        770,
        771,
        772,
        769,
        770,
        771,
        772,
        769,
        770,
        771,
        772,
        769,
        770,
        771,
        772,
        769,
        770,
        771,
        772,
        769,
        770,
        771,
        772,
        769,
        770,
        803,
        132,
        33,
        386,
        259,
        260,
        257,
        258,
        291,
        132,
        1,
        2,
        3,
        4,
        1,
        2,
        3,
        4,
        33,
        898,
        771,
        804,
        901,
        774,
        807,
        136,
        5,
        6,
        7,
        8,
        5,
        6,
        7,
        8,
        5,
        38,
        391,
        264,
        261,
        262,
        263,
        296,
        133,
        6,
        7,
        8,
        5,
        6,
        7,
        8,
        5,
        6,
        7,
        8,
        5,
        6,
        7,
        8,
        5,
        6,
        7,
        8,
        5,
        6,
        7,
        8,
        5,
        6,
        7,
        8,
        5,
        6,
        7,
        8,
        5,
        6,
        7,
        8,
        5,
        6,
        7,
        8,
        37,
        390,
        263,
        264,
        261,
        262,
        295,
        136,
        5,
        6,
        7,
        8,
        5,
        6,
        7,
        8,
        5,
        6,
        7,
        40,
        901,
        774,
        775,
        776,
        773,
        774,
        775,
        776,
        773,
        774,
        775,
        776,
        773,
        774,
        775,
        776,
        773,
        774,
        775,
        776,
        773,
        774,
        775,
        776,
        773,
        774,
        807,
        136,
        37,
        390,
        263,
        264,
        261,
        262,
        295,
        136,
        5,
        6,
        7,
        8,
        5,
        6,
        7,
        8,
        5,
        6,
        7,
        8,
        5,
        6,
        7,
        8,
        5,
        6,
        7,
        8,
        5,
        6,
        7,
        8,
        5,
        38,
        391,
        264,
        261,
        262,
        263,
        296,
        133,
        6,
        7,
        8,
        5,
        6,
        7,
        8,
        5,
        6,
        7,
        8,
        5,
        6,
        7,
        8,
        5,
        6,
        7,
        8,
        5,
        6,
        7,
        8,
        5,
        6,
        7,
        8,
        5,
        6,
        7,
        8,
        5,
        6,
        7,
        8,
        5,
        6,
        7,
        8,
        37,
        390,
        263,
        264,
        261,
        262,
        295,
        136,
        5,
        6,
        7,
        8,
        5,
        6,
        7,
        8,
        5,
        6,
        7,
        40,
        901,
        774,
        775,
        776,
        773,
        774,
        775,
        776,
        773,
        774,
        775,
        776,
        773,
        774,
        775,
        776,
        773,
        774,
        775,
        776,
        773,
        774,
        775,
        776,
        773,
        774,
        807,
        136,
        37,
        390,
        263,
        264,
        261,
        262,
        295,
        136,
        5,
        6,
        7,
        8,
        5,
        6,
        7,
        8,
        37,
        902,
        775,
        808,
        905,
        778,
        811,
        140,
        9,
        10,
        11,
        12,
        9,
        10,
        11,
        12,
        9,
        42,
        395,
        268,
        265,
        266,
        267,
        300,
        137,
        10,
        11,
        12,
        9,
        10,
        11,
        12,
        9,
        10,
        11,
        12,
        9,
        10,
        11,
        12,
        9,
        10,
        11,
        12,
        9,
        10,
        11,
        12,
        9,
        10,
        11,
        12,
        9,
        10,
        11,
        12,
        9,
        10,
        11,
        12,
        9,
        10,
        11,
        12,
        41,
        394,
        267,
        268,
        265,
        266,
        299,
        140,
        9,
        10,
        11,
        12,
        9,
        10,
        11,
        12,
        9,
        10,
        11,
        44,
        905,
        778,
        779,
        780,
        777,
        778,
        779,
        780,
        777,
        778,
        779,
        780,
        777,
        778,
        779,
        780,
        777,
        778,
        779,
        780,
        777,
        778,
        779,
        780,
        777,
        778,
        811,
        140,
        41,
        394,
        267,
        268,
        265,
        266,
        299,
        140,
        9,
        10,
        11,
        12,
        9,
        10,
        11,
        12,
        9,
        10,
        11,
        12,
        9,
        10,
        11,
        12,
        9,
        10,
        11,
        12,
        9,
        10,
        11,
        12,
        9,
        42,
        395,
        268,
        265,
        266,
        267,
        300,
        137,
        10,
        11,
        12,
        9,
        10,
        11,
        12,
        9,
        10,
        11,
        12,
        9,
        10,
        11,
        12,
        9,
        10,
        11,
        12,
        9,
        10,
        11,
        12,
        9,
        10,
        11,
        12,
        9,
        10,
        11,
        12,
        9,
        10,
        11,
        12,
        9,
        10,
        11,
        12,
        41,
        394,
        267,
        268,
        265,
        266,
        299,
        140,
        9,
        10,
        11,
        12,
        9,
        10,
        11,
        12,
        9,
        10,
        11,
        44,
        905,
        778,
        779,
        780,
        777,
        778,
        779,
        780,
        777,
        778,
        779,
        780,
        777,
        778,
        779,
        780,
        777,
        778,
        779,
        780,
        777,
        778,
        779,
        780,
        777,
        778,
        811,
        140,
        41,
        394,
        267,
        268,
        265,
        266,
        299,
        140,
        9,
        10,
        11,
        12,
        9,
        10,
        11,
        12,
        41,
        906,
        779,
        812,
        909,
        782,
        815,
        144,
        13,
        14,
        15,
        16,
        13,
        14,
        15,
        16,
        13,
        46,
        399,
        272,
        269,
        270,
        271,
        304,
        141,
        14,
        15,
        16,
        13,
        14,
        15,
        16,
        13,
        14,
        15,
        16,
        13,
        14,
        15,
        16,
        13,
        14,
        15,
        16,
        13,
        14,
        15,
        16,
        13,
        14,
        15,
        16,
        13,
        14,
        15,
        16,
        13,
        14,
        15,
        16,
        13,
        14,
        15,
        16,
        45,
        398,
        271,
        272,
        269,
        270,
        303,
        144,
        13,
        14,
        15,
        16,
        13,
        14,
        15,
        16,
        13,
        14,
        15,
        48,
        909,
        782,
        783,
        784,
        781,
        782,
        783,
        784,
        781,
        782,
        783,
        784,
        781,
        782,
        783,
        784,
        781,
        782,
        783,
        784,
        781,
        782,
        783,
        784,
        781,
        782,
        815,
        144,
        45,
        398,
        271,
        272,
        269,
        270,
        303,
        144,
        13,
        14,
        15,
        16,
        13,
        14,
        15,
        16,
        13,
        14,
        15,
        16,
        13,
        14,
        15,
        16,
        13,
        14,
        15,
        16,
        13,
        14,
        15,
        16,
        13,
        46,
        399,
        272,
        269,
        270,
        271,
        304,
        141,
        14,
        15,
        16,
        13,
        14,
        15,
        16,
        13,
        14,
        15,
        16,
        13,
        14,
        15,
        16,
        13,
        14,
        15,
        16,
        13,
        14,
        15,
        16,
        13,
        14,
        15,
        16,
        13,
        14,
        15,
        16,
        13,
        14,
        15,
        16,
        13,
        14,
        15,
        16,
        45,
        398,
        271,
        272,
        269,
        270,
        303,
        144,
        13,
        14,
        15,
        16,
        13,
        14,
        15,
        16,
        13,
        14,
        15,
        48,
        909,
        782,
        783,
        784,
        781,
        782,
        783,
        784,
        781,
        782,
        783,
        784,
        781,
        782,
        783,
        784,
        781,
        782,
        783,
        784,
        781,
        782,
        783,
        784,
        781,
        782,
        815,
        144,
        45,
        398,
        271,
        272,
        269,
        270,
        303,
        144,
        13,
        14,
        15,
        16,
        13,
        14,
        15,
        16,
        45,
        910,
        783,
        816,
        897,
        770,
        803,
        132,
        1,
        2,
        3,
        4,
        1,
        2,
        3,
        4,
        1,
        34,
        387,
        260,
        257,
        258,
        259,
        292,
        129,
        2,
        3,
        4,
        1,
        2,
        3,
        4,
        1,
        2,
        3,
        4,
        1,
        2,
        3,
        4,
        1,
        2,
        3,
        4,
        1,
        2,
        3,
        4,
        1,
        2,
        3,
        4,
        1,
        2,
        3,
        4,
        1,
        2,
        3,
        4,
        1,
        2,
        3,
        4,
        33,
        386,
        259,
        260,
        257,
        258,
        291,
        132,
        1,
        2,
        3,
        4,
        1,
        2,
        3,
        4,
        1,
        2,
        3,
        36,
        961,
        770,
        771,
        772,
        769,
        770,
        771,
        772,
        769,
        770,
        771,
        772,
        769,
        770,
        771,
        772,
        769,
        770,
        771,
        772,
        769,
        770,
        771,
        772,
        769,
        770,
        867,
        132,
        33,
        386,
        259,
        260,
        257,
        258,
        291,
        132,
        1,
        2,
        3,
        4,
        1,
        2,
        3,
        4,
        1,
        2,
        3,
        4,
        1,
        2,
        3,
        4,
        1,
        2,
        3,
        4,
        1,
        2,
        3,
        4,
        1,
        34,
        387,
        260,
        257,
        258,
        259,
        292,
        129,
        2,
        3,
        4,
        1,
        2,
        3,
        4,
        1,
        2,
        3,
        4,
        1,
        2,
        3,
        4,
        1,
        2,
        3,
        4,
        1,
        2,
        3,
        4,
        1,
        2,
        3,
        4,
        1,
        2,
        3,
        4,
        1,
        2,
        3,
        4,
        1,
        2,
        3,
        4,
        33,
        386,
        259,
        260,
        257,
        258,
        291,
        132,
        1,
        2,
        3,
        4,
        1,
        2,
        3,
        4,
        1,
        2,
        3,
        36,
        961,
        770,
        771,
        772,
        769,
        770,
        771,
        772,
        769,
        770,
        771,
        772,
        769,
        770,
        771,
        772,
        769,
        770,
        771,
        772,
        769,
        770,
        771,
        772,
        769,
        770,
        867,
        132,
        33,
        386,
        259,
        260,
        257,
        258,
        291,
        132,
        1,
        2,
        3,
        4,
        1,
        2,
        3,
        4,
        33,
        898,
        771,
        804,
        901,
        774,
        807,
        136,
        5,
        6,
        7,
        8,
        5,
        6,
        7,
        8,
        5,
        38,
        391,
        264,
        261,
        262,
        263,
        296,
        133,
        6,
        7,
        8,
        5,
        6,
        7,
        8,
        5,
        6,
        7,
        8,
        5,
        6,
        7,
        8,
        5,
        6,
        7,
        8,
        5,
        6,
        7,
        8,
        5,
        6,
        7,
        8,
        5,
        6,
        7,
        8,
        5,
        6,
        7,
        8,
        5,
        6,
        7,
        8,
        37,
        390,
        263,
        264,
        261,
        262,
        295,
        136,
        5,
        6,
        7,
        8,
        5,
        6,
        7,
        8,
        5,
        6,
        7,
        8,
        53,
        902,
        775,
        776,
        773,
        774,
        775,
        776,
        773,
        774,
        775,
        776,
        773,
        774,
        775,
        776,
        773,
        774,
        775,
        776,
        773,
        774,
        775,
        776,
        773,
        806,
        151,
        8,
        37,
        390,
        263,
        264,
        261,
        262,
        295,
        136,
        5,
        6,
        7,
        8,
        5,
        6,
        7,
        8,
        5,
        6,
        7,
        8,
        5,
        6,
        7,
        8,
        5,
        6,
        7,
        8,
        5,
        6,
        7,
        8,
        5,
        38,
        391,
        264,
        261,
        262,
        263,
        296,
        133,
        6,
        7,
        8,
        5,
        6,
        7,
        8,
        5,
        6,
        7,
        8,
        5,
        6,
        7,
        8,
        5,
        6,
        7,
        8,
        5,
        6,
        7,
        8,
        5,
        6,
        7,
        8,
        5,
        6,
        7,
        8,
        5,
        6,
        7,
        8,
        5,
        6,
        7,
        8,
        37,
        390,
        263,
        264,
        261,
        262,
        295,
        136,
        5,
        6,
        7,
        8,
        5,
        6,
        7,
        8,
        5,
        6,
        7,
        8,
        53,
        902,
        775,
        776,
        773,
        774,
        775,
        776,
        773,
        774,
        775,
        776,
        773,
        774,
        775,
        776,
        773,
        774,
        775,
        776,
        773,
        774,
        775,
        776,
        773,
        806,
        151,
        8,
        37,
        390,
        263,
        264,
        261,
        262,
        295,
        136,
        5,
        6,
        7,
        8,
        5,
        6,
        7,
        8,
        37,
        902,
        775,
        808,
        905,
        778,
        811,
        140,
        9,
        10,
        11,
        12,
        9,
        10,
        11,
        12,
        9,
        42,
        395,
        268,
        265,
        266,
        267,
        300,
        137,
        10,
        11,
        12,
        9,
        10,
        11,
        12,
        9,
        10,
        11,
        12,
        9,
        10,
        11,
        12,
        9,
        10,
        11,
        12,
        9,
        10,
        11,
        12,
        9,
        10,
        11,
        12,
        9,
        10,
        11,
        12,
        9,
        10,
        11,
        12,
        9,
        10,
        11,
        12,
        41,
        394,
        267,
        268,
        265,
        266,
        299,
        140,
        9,
        10,
        11,
        12,
        9,
        10,
        11,
        12,
        9,
        10,
        11,
        12,
        41,
        970,
        779,
        780,
        777,
        778,
        779,
        780,
        777,
        778,
        779,
        780,
        777,
        778,
        779,
        780,
        777,
        778,
        779,
        780,
        777,
        778,
        779,
        780,
        777,
        874,
        139,
        12,
        41,
        394,
        267,
        268,
        265,
        266,
        299,
        140,
        9,
        10,
        11,
        12,
        9,
        10,
        11,
        12,
        9,
        10,
        11,
        12,
        9,
        10,
        11,
        12,
        9,
        10,
        11,
        12,
        9,
        10,
        11,
        12,
        9,
        42,
        395,
        268,
        265,
        266,
        267,
        300,
        137,
        10,
        11,
        12,
        9,
        10,
        11,
        12,
        9,
        10,
        11,
        12,
        9,
        10,
        11,
        12,
        9,
        10,
        11,
        12,
        9,
        10,
        11,
        12,
        9,
        10,
        11,
        12,
        9,
        10,
        11,
        12,
        9,
        10,
        11,
        12,
        9,
        10,
        11,
        12,
        41,
        394,
        267,
        268,
        265,
        266,
        299,
        140,
        9,
        10,
        11,
        12,
        9,
        10,
        11,
        12,
        9,
        10,
        11,
        12,
        41,
        970,
        779,
        780,
        777,
        778,
        779,
        780,
        777,
        778,
        779,
        780,
        777,
        778,
        779,
        780,
        777,
        778,
        779,
        780,
        777,
        778,
        779,
        780,
        777,
        874,
        139,
        12,
        41,
        394,
        267,
        268,
        265,
        266,
        299,
        140,
        9,
        10,
        11,
        12,
        9,
        10,
        11,
        12,
        41,
        906,
        779,
        812,
        909,
        782,
        815,
        144,
        13,
        14,
        15,
        16,
        13,
        14,
        15,
        16,
        13,
        46,
        399,
        272,
        269,
        270,
        271,
        304,
        141,
        14,
        15,
        16,
        13,
        14,
        15,
        16,
        13,
        14,
        15,
        16,
        13,
        14,
        15,
        16,
        13,
        14,
        15,
        16,
        13,
        14,
        15,
        16,
        13,
        14,
        15,
        16,
        13,
        14,
        15,
        16,
        13,
        14,
        15,
        16,
        13,
        14,
        15,
        16,
        45,
        398,
        271,
        272,
        269,
        270,
        303,
        144,
        13,
        14,
        15,
        16,
        13,
        14,
        15,
        16,
        13,
        14,
        15,
        16,
        13,
        62,
        975,
        784,
        781,
        782,
        783,
        784,
        781,
        782,
        783,
        784,
        781,
        782,
        783,
        784,
        781,
        782,
        783,
        784,
        781,
        782,
        783,
        784,
        877,
        158,
        15,
        16,
        45,
        398,
        271,
        272,
        269,
        270,
        303,
        144,
        13,
        14,
        15,
        16,
        13,
        14,
        15,
        16,
        13,
        14,
        15,
        16,
        13,
        14,
        15,
        16,
        13,
        14,
        15,
        16,
        13,
        14,
        15,
        16,
        13,
        46,
        399,
        272,
        269,
        270,
        271,
        304,
        141,
        14,
        15,
        16,
        13,
        14,
        15,
        16,
        13,
        14,
        15,
        16,
        13,
        14,
        15,
        16,
        13,
        14,
        15,
        16,
        13,
        14,
        15,
        16,
        13,
        14,
        15,
        16,
        13,
        14,
        15,
        16,
        13,
        14,
        15,
        16,
        13,
        14,
        15,
        16,
        45,
        398,
        271,
        272,
        269,
        270,
        303,
        144,
        13,
        14,
        15,
        16,
        13,
        14,
        15,
        16,
        13,
        14,
        15,
        16,
        13,
        62,
        975,
        784,
        781,
        782,
        783,
        784,
        781,
        782,
        783,
        784,
        781,
        782,
        783,
        784,
        781,
        782,
        783,
        784,
        781,
        782,
        783,
        784,
        877,
        158,
        15,
        16,
        45,
        398,
        271,
        272,
        269,
        270,
        303,
        144,
        13,
        14,
        15,
        16,
        13,
        14,
        15,
        16,
        45,
        910,
        783,
        816,
        897,
        770,
        803,
        132,
        1,
        2,
        3,
        4,
        1,
        2,
        3,
        4,
        1,
        34,
        387,
        260,
        257,
        258,
        259,
        292,
        129,
        2,
        3,
        4,
        1,
        2,
        3,
        4,
        1,
        2,
        3,
        4,
        1,
        2,
        3,
        4,
        1,
        2,
        3,
        4,
        1,
        2,
        3,
        4,
        1,
        2,
        3,
        4,
        1,
        2,
        3,
        4,
        1,
        2,
        3,
        4,
        1,
        2,
        3,
        4,
        33,
        386,
        259,
        260,
        257,
        258,
        291,
        132,
        1,
        2,
        3,
        4,
        1,
        2,
        3,
        4,
        1,
        2,
        3,
        4,
        1,
        2,
        51,
        964,
        769,
        770,
        771,
        772,
        769,
        770,
        771,
        772,
        769,
        770,
        771,
        772,
        769,
        770,
        771,
        772,
        769,
        770,
        771,
        868,
        145,
        2,
        3,
        4,
        33,
        386,
        259,
        260,
        257,
        258,
        291,
        132,
        1,
        2,
        3,
        4,
        1,
        2,
        3,
        4,
        1,
        2,
        3,
        4,
        1,
        2,
        3,
        4,
        1,
        2,
        3,
        4,
        1,
        2,
        3,
        4,
        1,
        34,
        387,
        260,
        257,
        258,
        259,
        292,
        129,
        2,
        3,
        4,
        1,
        2,
        3,
        4,
        1,
        2,
        3,
        4,
        1,
        2,
        3,
        4,
        1,
        2,
        3,
        4,
        1,
        2,
        3,
        4,
        1,
        2,
        3,
        4,
        1,
        2,
        3,
        4,
        1,
        2,
        3,
        4,
        1,
        2,
        3,
        4,
        33,
        386,
        259,
        260,
        257,
        258,
        291,
        132,
        1,
        2,
        3,
        4,
        1,
        2,
        3,
        4,
        1,
        2,
        3,
        4,
        1,
        2,
        51,
        964,
        769,
        770,
        771,
        772,
        769,
        770,
        771,
        772,
        769,
        770,
        771,
        772,
        769,
        770,
        771,
        772,
        769,
        770,
        771,
        868,
        145,
        2,
        3,
        4,
        33,
        386,
        259,
        260,
        257,
        258,
        291,
        132,
        1,
        2,
        3,
        4,
        1,
        2,
        3,
        4,
        33,
        898,
        771,
        804,
        901,
        774,
        807,
        136,
        5,
        6,
        7,
        8,
        5,
        6,
        7,
        8,
        5,
        38,
        391,
        264,
        261,
        262,
        263,
        296,
        133,
        6,
        7,
        8,
        5,
        6,
        7,
        8,
        5,
        6,
        7,
        8,
        5,
        6,
        7,
        8,
        5,
        6,
        7,
        8,
        5,
        6,
        7,
        8,
        5,
        6,
        7,
        8,
        5,
        6,
        7,
        8,
        5,
        6,
        7,
        8,
        5,
        6,
        7,
        8,
        37,
        390,
        263,
        264,
        261,
        262,
        295,
        136,
        5,
        6,
        7,
        8,
        5,
        6,
        7,
        8,
        5,
        6,
        7,
        8,
        5,
        6,
        7,
        56,
        965,
        838,
        775,
        776,
        773,
        774,
        775,
        776,
        773,
        774,
        775,
        776,
        773,
        774,
        775,
        776,
        773,
        838,
        871,
        152,
        5,
        6,
        7,
        8,
        37,
        390,
        263,
        264,
        261,
        262,
        295,
        136,
        5,
        6,
        7,
        8,
        5,
        6,
        7,
        8,
        5,
        6,
        7,
        8,
        5,
        6,
        7,
        8,
        5,
        6,
        7,
        8,
        5,
        6,
        7,
        8,
        5,
        38,
        391,
        264,
        261,
        262,
        263,
        296,
        133,
        6,
        7,
        8,
        5,
        6,
        7,
        8,
        5,
        6,
        7,
        8,
        5,
        6,
        7,
        8,
        5,
        6,
        7,
        8,
        5,
        6,
        7,
        8,
        5,
        6,
        7,
        8,
        5,
        6,
        7,
        8,
        5,
        6,
        7,
        8,
        5,
        6,
        7,
        8,
        37,
        390,
        263,
        264,
        261,
        262,
        295,
        136,
        5,
        6,
        7,
        8,
        5,
        6,
        7,
        8,
        5,
        6,
        7,
        8,
        5,
        6,
        7,
        56,
        965,
        838,
        775,
        776,
        773,
        774,
        775,
        776,
        773,
        774,
        775,
        776,
        773,
        774,
        775,
        776,
        773,
        838,
        871,
        152,
        5,
        6,
        7,
        8,
        37,
        390,
        263,
        264,
        261,
        262,
        295,
        136,
        5,
        6,
        7,
        8,
        5,
        6,
        7,
        8,
        37,
        902,
        775,
        808,
        905,
        778,
        811,
        140,
        9,
        10,
        11,
        12,
        9,
        10,
        11,
        12,
        9,
        42,
        395,
        268,
        265,
        266,
        267,
        300,
        137,
        10,
        11,
        12,
        9,
        10,
        11,
        12,
        9,
        10,
        11,
        12,
        9,
        10,
        11,
        12,
        9,
        10,
        11,
        12,
        9,
        10,
        11,
        12,
        9,
        10,
        11,
        12,
        73,
        74,
        75,
        76,
        73,
        74,
        75,
        76,
        73,
        74,
        75,
        76,
        105,
        458,
        331,
        332,
        265,
        330,
        299,
        140,
        9,
        10,
        11,
        12,
        9,
        10,
        11,
        12,
        9,
        10,
        11,
        12,
        9,
        10,
        11,
        12,
        25,
        58,
        971,
        844,
        841,
        842,
        843,
        844,
        841,
        842,
        843,
        844,
        841,
        842,
        843,
        844,
        873,
        154,
        27,
        12,
        9,
        10,
        11,
        12,
        41,
        394,
        267,
        268,
        265,
        266,
        299,
        140,
        9,
        10,
        11,
        12,
        9,
        10,
        11,
        12,
        9,
        10,
        11,
        12,
        9,
        10,
        11,
        12,
        9,
        10,
        11,
        12,
        9,
        10,
        11,
        12,
        9,
        42,
        395,
        268,
        265,
        266,
        267,
        300,
        137,
        10,
        11,
        12,
        9,
        10,
        11,
        12,
        9,
        10,
        11,
        12,
        9,
        10,
        11,
        12,
        9,
        10,
        11,
        12,
        9,
        10,
        11,
        12,
        9,
        10,
        11,
        12,
        73,
        74,
        75,
        76,
        73,
        74,
        75,
        76,
        73,
        74,
        75,
        76,
        105,
        458,
        331,
        332,
        265,
        330,
        299,
        140,
        9,
        10,
        11,
        12,
        9,
        10,
        11,
        12,
        9,
        10,
        11,
        12,
        9,
        10,
        11,
        12,
        25,
        58,
        971,
        844,
        841,
        842,
        843,
        844,
        841,
        842,
        843,
        844,
        841,
        842,
        843,
        844,
        873,
        154,
        27,
        12,
        9,
        10,
        11,
        12,
        41,
        394,
        267,
        268,
        265,
        266,
        299,
        140,
        9,
        10,
        11,
        12,
        9,
        10,
        11,
        12,
        41,
        906,
        779,
        812,
        909,
        782,
        815,
        144,
        13,
        14,
        15,
        16,
        13,
        14,
        15,
        16,
        13,
        46,
        399,
        272,
        269,
        270,
        271,
        304,
        141,
        14,
        15,
        16,
        13,
        14,
        15,
        16,
        13,
        14,
        15,
        16,
        13,
        14,
        15,
        16,
        13,
        14,
        15,
        16,
        13,
        14,
        15,
        16,
        13,
        14,
        15,
        112,
        669,
        542,
        543,
        544,
        541,
        542,
        543,
        544,
        541,
        542,
        543,
        544,
        541,
        542,
        543,
        576,
        429,
        702,
        495,
        208,
        13,
        14,
        15,
        16,
        13,
        14,
        15,
        16,
        13,
        14,
        15,
        16,
        13,
        14,
        15,
        16,
        13,
        14,
        31,
        32,
        29,
        30,
        31,
        32,
        29,
        30,
        31,
        32,
        29,
        30,
        31,
        32,
        29,
        14,
        15,
        16,
        13,
        14,
        15,
        16,
        45,
        398,
        271,
        272,
        269,
        270,
        303,
        144,
        13,
        14,
        15,
        16,
        13,
        14,
        15,
        16,
        13,
        14,
        15,
        16,
        13,
        14,
        15,
        16,
        13,
        14,
        15,
        16,
        13,
        14,
        15,
        16,
        13,
        46,
        399,
        272,
        269,
        270,
        271,
        304,
        141,
        14,
        15,
        16,
        13,
        14,
        15,
        16,
        13,
        14,
        15,
        16,
        13,
        14,
        15,
        16,
        13,
        14,
        15,
        16,
        13,
        14,
        15,
        16,
        13,
        14,
        15,
        112,
        669,
        542,
        543,
        544,
        541,
        542,
        543,
        544,
        541,
        542,
        543,
        544,
        541,
        542,
        543,
        576,
        429,
        702,
        495,
        208,
        13,
        14,
        15,
        16,
        13,
        14,
        15,
        16,
        13,
        14,
        15,
        16,
        13,
        14,
        15,
        16,
        13,
        14,
        31,
        32,
        29,
        30,
        31,
        32,
        29,
        30,
        31,
        32,
        29,
        30,
        31,
        32,
        29,
        14,
        15,
        16,
        13,
        14,
        15,
        16,
        45,
        398,
        271,
        272,
        269,
        270,
        303,
        144,
        13,
        14,
        15,
        16,
        13,
        14,
        15,
        16,
        45,
        910,
        783,
        816,
        897,
        770,
        803,
        132,
        1,
        2,
        3,
        4,
        1,
        2,
        3,
        4,
        1,
        34,
        387,
        260,
        257,
        258,
        259,
        292,
        129,
        2,
        3,
        4,
        1,
        2,
        3,
        4,
        1,
        2,
        3,
        4,
        1,
        2,
        3,
        4,
        1,
        2,
        3,
        4,
        1,
        2,
        3,
        4,
        1,
        66,
        99,
        660,
        513,
        514,
        515,
        516,
        513,
        514,
        515,
        516,
        513,
        514,
        515,
        516,
        513,
        514,
        515,
        548,
        481,
        642,
        531,
        564,
        193,
        66,
        3,
        4,
        1,
        2,
        3,
        4,
        1,
        2,
        3,
        4,
        1,
        2,
        3,
        4,
        1,
        2,
        3,
        4,
        1,
        2,
        3,
        4,
        1,
        2,
        3,
        4,
        1,
        2,
        3,
        4,
        1,
        2,
        3,
        4,
        1,
        2,
        3,
        4,
        33,
        386,
        259,
        260,
        257,
        258,
        291,
        132,
        1,
        2,
        3,
        4,
        1,
        2,
        3,
        4,
        1,
        2,
        3,
        4,
        1,
        2,
        3,
        4,
        1,
        2,
        3,
        4,
        1,
        2,
        3,
        4,
        1,
        34,
        387,
        260,
        257,
        258,
        259,
        292,
        129,
        2,
        3,
        4,
        1,
        2,
        3,
        4,
        1,
        2,
        3,
        4,
        1,
        2,
        3,
        4,
        1,
        2,
        3,
        4,
        1,
        2,
        3,
        4,
        1,
        66,
        99,
        660,
        513,
        514,
        515,
        516,
        513,
        514,
        515,
        516,
        513,
        514,
        515,
        516,
        513,
        514,
        515,
        548,
        481,
        642,
        531,
        564,
        193,
        66,
        3,
        4,
        1,
        2,
        3,
        4,
        1,
        2,
        3,
        4,
        1,
        2,
        3,
        4,
        1,
        2,
        3,
        4,
        1,
        2,
        3,
        4,
        1,
        2,
        3,
        4,
        1,
        2,
        3,
        4,
        1,
        2,
        3,
        4,
        1,
        2,
        3,
        4,
        33,
        386,
        259,
        260,
        257,
        258,
        291,
        132,
        1,
        2,
        3,
        4,
        1,
        2,
        3,
        4,
        33,
        898,
        771,
        804,
        901,
        774,
        807,
        136,
        5,
        6,
        7,
        8,
        5,
        6,
        7,
        8,
        5,
        38,
        391,
        264,
        261,
        262,
        263,
        296,
        133,
        6,
        7,
        8,
        5,
        6,
        7,
        8,
        5,
        6,
        7,
        8,
        5,
        6,
        7,
        8,
        5,
        6,
        7,
        8,
        5,
        6,
        7,
        8,
        101,
        662,
        535,
        520,
        517,
        518,
        519,
        520,
        517,
        518,
        519,
        520,
        517,
        518,
        519,
        520,
        517,
        518,
        519,
        520,
        533,
        518,
        519,
        520,
        533,
        566,
        199,
        72,
        5,
        6,
        7,
        8,
        5,
        6,
        7,
        8,
        5,
        6,
        7,
        8,
        5,
        6,
        7,
        8,
        5,
        6,
        7,
        8,
        5,
        6,
        7,
        8,
        5,
        6,
        7,
        8,
        5,
        6,
        7,
        8,
        5,
        6,
        7,
        8,
        37,
        390,
        263,
        264,
        261,
        262,
        295,
        136,
        5,
        6,
        7,
        8,
        5,
        6,
        7,
        8,
        5,
        6,
        7,
        8,
        5,
        6,
        7,
        8,
        5,
        6,
        7,
        8,
        5,
        6,
        7,
        8,
        5,
        38,
        391,
        264,
        261,
        262,
        263,
        296,
        133,
        6,
        7,
        8,
        5,
        6,
        7,
        8,
        5,
        6,
        7,
        8,
        5,
        6,
        7,
        8,
        5,
        6,
        7,
        8,
        5,
        6,
        7,
        8,
        101,
        662,
        535,
        520,
        517,
        518,
        519,
        520,
        517,
        518,
        519,
        520,
        517,
        518,
        519,
        520,
        517,
        518,
        519,
        520,
        533,
        518,
        519,
        520,
        533,
        566,
        199,
        72,
        5,
        6,
        7,
        8,
        5,
        6,
        7,
        8,
        5,
        6,
        7,
        8,
        5,
        6,
        7,
        8,
        5,
        6,
        7,
        8,
        5,
        6,
        7,
        8,
        5,
        6,
        7,
        8,
        5,
        6,
        7,
        8,
        5,
        6,
        7,
        8,
        37,
        390,
        263,
        264,
        261,
        262,
        295,
        136,
        5,
        6,
        7,
        8,
        5,
        6,
        7,
        8,
        37,
        902,
        775,
        808,
        905,
        778,
        811,
        140,
        9,
        10,
        11,
        12,
        9,
        10,
        11,
        12,
        9,
        42,
        395,
        268,
        265,
        266,
        267,
        300,
        137,
        10,
        11,
        12,
        9,
        10,
        11,
        12,
        9,
        10,
        11,
        12,
        9,
        10,
        11,
        12,
        9,
        10,
        11,
        12,
        9,
        10,
        75,
        108,
        665,
        522,
        523,
        524,
        521,
        522,
        587,
        588,
        585,
        586,
        587,
        588,
        585,
        586,
        587,
        588,
        585,
        586,
        587,
        588,
        585,
        586,
        523,
        524,
        521,
        522,
        539,
        572,
        201,
        74,
        11,
        12,
        9,
        10,
        11,
        12,
        9,
        10,
        11,
        12,
        9,
        10,
        11,
        12,
        9,
        10,
        11,
        12,
        9,
        10,
        11,
        12,
        9,
        10,
        11,
        12,
        9,
        10,
        11,
        12,
        9,
        10,
        11,
        12,
        41,
        394,
        267,
        268,
        265,
        266,
        299,
        140,
        9,
        10,
        11,
        12,
        9,
        10,
        11,
        12,
        9,
        10,
        11,
        12,
        9,
        10,
        11,
        12,
        9,
        10,
        11,
        12,
        9,
        10,
        11,
        12,
        9,
        42,
        395,
        268,
        265,
        266,
        267,
        300,
        137,
        10,
        11,
        12,
        9,
        10,
        11,
        12,
        9,
        10,
        11,
        12,
        9,
        10,
        11,
        12,
        9,
        10,
        11,
        12,
        9,
        10,
        75,
        108,
        665,
        522,
        523,
        524,
        521,
        522,
        587,
        588,
        585,
        586,
        587,
        588,
        585,
        586,
        587,
        588,
        585,
        586,
        587,
        588,
        585,
        586,
        523,
        524,
        521,
        522,
        539,
        572,
        201,
        74,
        11,
        12,
        9,
        10,
        11,
        12,
        9,
        10,
        11,
        12,
        9,
        10,
        11,
        12,
        9,
        10,
        11,
        12,
        9,
        10,
        11,
        12,
        9,
        10,
        11,
        12,
        9,
        10,
        11,
        12,
        9,
        10,
        11,
        12,
        41,
        394,
        267,
        268,
        265,
        266,
        299,
        140,
        9,
        10,
        11,
        12,
        9,
        10,
        11,
        12,
        41,
        906,
        779,
        812,
        909,
        782,
        815,
        144,
        13,
        14,
        15,
        16,
        13,
        14,
        15,
        16,
        13,
        46,
        399,
        272,
        269,
        270,
        271,
        304,
        141,
        14,
        15,
        16,
        13,
        14,
        15,
        16,
        13,
        14,
        15,
        16,
        13,
        14,
        15,
        16,
        13,
        14,
        15,
        16,
        13,
        110,
        671,
        544,
        525,
        526,
        527,
        528,
        589,
        622,
        159,
        32,
        29,
        30,
        31,
        32,
        29,
        30,
        31,
        32,
        61,
        414,
        287,
        288,
        285,
        318,
        719,
        592,
        525,
        526,
        527,
        528,
        541,
        574,
        207,
        80,
        13,
        14,
        15,
        16,
        13,
        14,
        15,
        16,
        13,
        14,
        15,
        16,
        13,
        14,
        15,
        16,
        13,
        14,
        15,
        16,
        13,
        14,
        15,
        16,
        13,
        14,
        15,
        16,
        13,
        14,
        15,
        16,
        45,
        398,
        271,
        272,
        269,
        270,
        303,
        144,
        13,
        14,
        15,
        16,
        13,
        14,
        15,
        16,
        13,
        14,
        15,
        16,
        13,
        14,
        15,
        16,
        13,
        14,
        15,
        16,
        13,
        14,
        15,
        16,
        13,
        46,
        399,
        272,
        269,
        270,
        271,
        304,
        141,
        14,
        15,
        16,
        13,
        14,
        15,
        16,
        13,
        14,
        15,
        16,
        13,
        14,
        15,
        16,
        13,
        14,
        15,
        16,
        13,
        110,
        671,
        544,
        525,
        526,
        527,
        528,
        589,
        622,
        159,
        32,
        29,
        30,
        31,
        32,
        29,
        30,
        31,
        32,
        61,
        414,
        287,
        288,
        285,
        318,
        719,
        592,
        525,
        526,
        527,
        528,
        541,
        574,
        207,
        80,
        13,
        14,
        15,
        16,
        13,
        14,
        15,
        16,
        13,
        14,
        15,
        16,
        13,
        14,
        15,
        16,
        13,
        14,
        15,
        16,
        13,
        14,
        15,
        16,
        13,
        14,
        15,
        16,
        13,
        14,
        15,
        16,
        45,
        398,
        271,
        272,
        269,
        270,
        303,
        144,
        13,
        14,
        15,
        16,
        13,
        14,
        15,
        16,
        45,
        910,
        783,
        816,
        897,
        770,
        803,
        132,
        1,
        2,
        3,
        4,
        1,
        2,
        3,
        4,
        1,
        34,
        387,
        260,
        257,
        258,
        259,
        292,
        129,
        2,
        3,
        4,
        1,
        2,
        3,
        4,
        1,
        2,
        3,
        4,
        1,
        2,
        3,
        4,
        1,
        2,
        3,
        68,
        97,
        658,
        515,
        516,
        513,
        514,
        515,
        612,
        145,
        18,
        3,
        4,
        1,
        2,
        3,
        4,
        1,
        2,
        3,
        4,
        33,
        386,
        259,
        260,
        257,
        258,
        307,
        180,
        705,
        578,
        515,
        516,
        513,
        514,
        531,
        564,
        193,
        66,
        67,
        68,
        65,
        66,
        67,
        68,
        65,
        66,
        67,
        68,
        65,
        66,
        67,
        68,
        65,
        66,
        67,
        68,
        65,
        66,
        67,
        68,
        65,
        66,
        67,
        68,
        65,
        2,
        3,
        4,
        33,
        386,
        259,
        260,
        257,
        258,
        291,
        132,
        1,
        2,
        3,
        4,
        1,
        2,
        3,
        4,
        1,
        2,
        3,
        4,
        1,
        2,
        3,
        4,
        1,
        2,
        3,
        4,
        1,
        2,
        3,
        4,
        1,
        34,
        387,
        260,
        257,
        258,
        259,
        292,
        129,
        2,
        3,
        4,
        1,
        2,
        3,
        4,
        1,
        2,
        3,
        4,
        1,
        2,
        3,
        4,
        1,
        2,
        3,
        68,
        97,
        658,
        515,
        516,
        513,
        514,
        515,
        612,
        145,
        18,
        3,
        4,
        1,
        2,
        3,
        4,
        1,
        2,
        3,
        4,
        33,
        386,
        259,
        260,
        257,
        258,
        307,
        180,
        705,
        578,
        515,
        516,
        513,
        514,
        531,
        564,
        193,
        66,
        67,
        68,
        65,
        66,
        67,
        68,
        65,
        66,
        67,
        68,
        65,
        66,
        67,
        68,
        65,
        66,
        67,
        68,
        65,
        66,
        67,
        68,
        65,
        66,
        67,
        68,
        65,
        2,
        3,
        4,
        33,
        386,
        259,
        260,
        257,
        258,
        291,
        132,
        1,
        2,
        3,
        4,
        1,
        2,
        3,
        4,
        33,
        898,
        771,
        804,
        901,
        774,
        807,
        136,
        5,
        6,
        7,
        8,
        5,
        6,
        7,
        8,
        5,
        38,
        391,
        264,
        261,
        262,
        263,
        296,
        133,
        6,
        7,
        8,
        5,
        6,
        7,
        8,
        5,
        6,
        7,
        8,
        5,
        6,
        7,
        8,
        5,
        70,
        103,
        664,
        533,
        518,
        519,
        520,
        517,
        582,
        615,
        152,
        5,
        6,
        7,
        8,
        5,
        6,
        7,
        8,
        5,
        6,
        7,
        8,
        37,
        390,
        263,
        264,
        261,
        262,
        295,
        136,
        21,
        54,
        711,
        584,
        517,
        518,
        519,
        520,
        533,
        534,
        535,
        536,
        533,
        534,
        535,
        536,
        533,
        534,
        535,
        536,
        533,
        534,
        535,
        536,
        533,
        534,
        535,
        536,
        533,
        534,
        535,
        536,
        533,
        534,
        535,
        536,
        565,
        198,
        7,
        8,
        37,
        390,
        263,
        264,
        261,
        262,
        295,
        136,
        5,
        6,
        7,
        8,
        5,
        6,
        7,
        8,
        5,
        6,
        7,
        8,
        5,
        6,
        7,
        8,
        5,
        6,
        7,
        8,
        5,
        6,
        7,
        8,
        5,
        38,
        391,
        264,
        261,
        262,
        263,
        296,
        133,
        6,
        7,
        8,
        5,
        6,
        7,
        8,
        5,
        6,
        7,
        8,
        5,
        6,
        7,
        8,
        5,
        70,
        103,
        664,
        533,
        518,
        519,
        520,
        517,
        582,
        615,
        152,
        5,
        6,
        7,
        8,
        5,
        6,
        7,
        8,
        5,
        6,
        7,
        8,
        37,
        390,
        263,
        264,
        261,
        262,
        295,
        136,
        21,
        54,
        711,
        584,
        517,
        518,
        519,
        520,
        533,
        534,
        535,
        536,
        533,
        534,
        535,
        536,
        533,
        534,
        535,
        536,
        533,
        534,
        535,
        536,
        533,
        534,
        535,
        536,
        533,
        534,
        535,
        536,
        533,
        534,
        535,
        536,
        565,
        198,
        7,
        8,
        37,
        390,
        263,
        264,
        261,
        262,
        295,
        136,
        5,
        6,
        7,
        8,
        5,
        6,
        7,
        8,
        37,
        902,
        775,
        808,
        905,
        778,
        811,
        140,
        9,
        10,
        11,
        12,
        9,
        10,
        11,
        12,
        9,
        42,
        395,
        268,
        265,
        266,
        267,
        300,
        137,
        10,
        11,
        12,
        9,
        10,
        11,
        12,
        9,
        10,
        11,
        12,
        9,
        10,
        11,
        12,
        105,
        666,
        539,
        524,
        521,
        522,
        523,
        524,
        617,
        154,
        27,
        12,
        9,
        10,
        11,
        12,
        9,
        10,
        11,
        12,
        9,
        10,
        11,
        12,
        41,
        394,
        267,
        268,
        265,
        266,
        299,
        140,
        9,
        10,
        27,
        60,
        713,
        586,
        523,
        524,
        521,
        522,
        523,
        524,
        521,
        522,
        523,
        524,
        521,
        522,
        523,
        524,
        521,
        522,
        523,
        524,
        521,
        522,
        523,
        524,
        521,
        522,
        523,
        524,
        521,
        522,
        523,
        524,
        521,
        570,
        203,
        76,
        41,
        394,
        267,
        268,
        265,
        266,
        299,
        140,
        9,
        10,
        11,
        12,
        9,
        10,
        11,
        12,
        9,
        10,
        11,
        12,
        9,
        10,
        11,
        12,
        9,
        10,
        11,
        12,
        9,
        10,
        11,
        12,
        9,
        42,
        395,
        268,
        265,
        266,
        267,
        300,
        137,
        10,
        11,
        12,
        9,
        10,
        11,
        12,
        9,
        10,
        11,
        12,
        9,
        10,
        11,
        12,
        105,
        666,
        539,
        524,
        521,
        522,
        523,
        524,
        617,
        154,
        27,
        12,
        9,
        10,
        11,
        12,
        9,
        10,
        11,
        12,
        9,
        10,
        11,
        12,
        41,
        394,
        267,
        268,
        265,
        266,
        299,
        140,
        9,
        10,
        27,
        60,
        713,
        586,
        523,
        524,
        521,
        522,
        523,
        524,
        521,
        522,
        523,
        524,
        521,
        522,
        523,
        524,
        521,
        522,
        523,
        524,
        521,
        522,
        523,
        524,
        521,
        522,
        523,
        524,
        521,
        522,
        523,
        524,
        521,
        570,
        203,
        76,
        41,
        394,
        267,
        268,
        265,
        266,
        299,
        140,
        9,
        10,
        11,
        12,
        9,
        10,
        11,
        12,
        41,
        906,
        779,
        812,
        909,
        782,
        815,
        144,
        13,
        14,
        15,
        16,
        13,
        14,
        15,
        16,
        13,
        46,
        399,
        272,
        269,
        270,
        271,
        304,
        141,
        14,
        15,
        16,
        13,
        14,
        15,
        16,
        13,
        14,
        15,
        16,
        13,
        14,
        15,
        48,
        669,
        526,
        527,
        528,
        525,
        526,
        591,
        624,
        157,
        14,
        15,
        16,
        13,
        14,
        15,
        16,
        13,
        14,
        15,
        16,
        13,
        14,
        15,
        16,
        45,
        398,
        271,
        272,
        269,
        270,
        303,
        144,
        13,
        14,
        15,
        16,
        29,
        62,
        719,
        592,
        525,
        526,
        527,
        528,
        525,
        526,
        527,
        528,
        525,
        526,
        527,
        528,
        525,
        526,
        527,
        528,
        525,
        526,
        527,
        528,
        525,
        526,
        527,
        528,
        525,
        526,
        527,
        528,
        525,
        526,
        543,
        576,
        237,
        398,
        271,
        272,
        269,
        270,
        303,
        144,
        13,
        14,
        15,
        16,
        13,
        14,
        15,
        16,
        13,
        14,
        15,
        16,
        13,
        14,
        15,
        16,
        13,
        14,
        15,
        16,
        13,
        14,
        15,
        16,
        13,
        46,
        399,
        272,
        269,
        270,
        271,
        304,
        141,
        14,
        15,
        16,
        13,
        14,
        15,
        16,
        13,
        14,
        15,
        16,
        13,
        14,
        15,
        48,
        669,
        526,
        527,
        528,
        525,
        526,
        591,
        624,
        157,
        14,
        15,
        16,
        13,
        14,
        15,
        16,
        13,
        14,
        15,
        16,
        13,
        14,
        15,
        16,
        45,
        398,
        271,
        272,
        269,
        270,
        303,
        144,
        13,
        14,
        15,
        16,
        29,
        62,
        719,
        592,
        525,
        526,
        527,
        528,
        525,
        526,
        527,
        528,
        525,
        526,
        527,
        528,
        525,
        526,
        527,
        528,
        525,
        526,
        527,
        528,
        525,
        526,
        527,
        528,
        525,
        526,
        527,
        528,
        525,
        526,
        543,
        576,
        237,
        398,
        271,
        272,
        269,
        270,
        303,
        144,
        13,
        14,
        15,
        16,
        13,
        14,
        15,
        16,
        45,
        910,
        783,
        816,
        897,
        770,
        803,
        132,
        1,
        2,
        3,
        4,
        1,
        2,
        3,
        4,
        1,
        34,
        387,
        260,
        257,
        258,
        259,
        292,
        129,
        2,
        3,
        4,
        1,
        2,
        3,
        4,
        1,
        2,
        3,
        4,
        1,
        2,
        3,
        100,
        641,
        514,
        515,
        516,
        513,
        610,
        147,
        20,
        1,
        2,
        3,
        4,
        1,
        2,
        3,
        4,
        1,
        2,
        3,
        4,
        1,
        2,
        3,
        4,
        33,
        386,
        259,
        260,
        257,
        258,
        291,
        132,
        1,
        2,
        3,
        4,
        1,
        2,
        19,
        52,
        705,
        578,
        579,
        580,
        577,
        578,
        579,
        580,
        577,
        578,
        579,
        580,
        577,
        578,
        579,
        580,
        577,
        578,
        579,
        580,
        577,
        578,
        579,
        580,
        577,
        578,
        579,
        516,
        513,
        514,
        515,
        516,
        561,
        450,
        259,
        260,
        257,
        258,
        291,
        132,
        1,
        2,
        3,
        4,
        1,
        2,
        3,
        4,
        1,
        2,
        3,
        4,
        1,
        2,
        3,
        4,
        1,
        2,
        3,
        4,
        1,
        2,
        3,
        4,
        1,
        34,
        387,
        260,
        257,
        258,
        259,
        292,
        129,
        2,
        3,
        4,
        1,
        2,
        3,
        4,
        1,
        2,
        3,
        4,
        1,
        2,
        3,
        100,
        641,
        514,
        515,
        516,
        513,
        610,
        147,
        20,
        1,
        2,
        3,
        4,
        1,
        2,
        3,
        4,
        1,
        2,
        3,
        4,
        1,
        2,
        3,
        4,
        33,
        386,
        259,
        260,
        257,
        258,
        291,
        132,
        1,
        2,
        3,
        4,
        1,
        2,
        19,
        52,
        705,
        578,
        579,
        580,
        577,
        578,
        579,
        580,
        577,
        578,
        579,
        580,
        577,
        578,
        579,
        580,
        577,
        578,
        579,
        580,
        577,
        578,
        579,
        580,
        577,
        578,
        579,
        516,
        513,
        514,
        515,
        516,
        561,
        450,
        259,
        260,
        257,
        258,
        291,
        132,
        1,
        2,
        3,
        4,
        1,
        2,
        3,
        4,
        33,
        898,
        771,
        804,
        901,
        774,
        807,
        136,
        5,
        6,
        7,
        8,
        5,
        6,
        7,
        8,
        5,
        38,
        391,
        264,
        261,
        262,
        263,
        296,
        133,
        6,
        7,
        8,
        5,
        6,
        7,
        8,
        5,
        6,
        7,
        8,
        5,
        6,
        103,
        664,
        517,
        518,
        519,
        520,
        613,
        150,
        7,
        8,
        5,
        6,
        7,
        8,
        5,
        6,
        7,
        8,
        5,
        6,
        7,
        8,
        5,
        6,
        7,
        8,
        37,
        390,
        263,
        264,
        261,
        262,
        295,
        136,
        5,
        6,
        7,
        8,
        5,
        6,
        7,
        8,
        21,
        22,
        23,
        24,
        21,
        22,
        23,
        24,
        21,
        22,
        23,
        24,
        21,
        22,
        23,
        24,
        21,
        22,
        23,
        24,
        21,
        22,
        23,
        24,
        21,
        22,
        55,
        712,
        581,
        518,
        519,
        520,
        517,
        566,
        455,
        328,
        261,
        262,
        295,
        136,
        5,
        6,
        7,
        8,
        5,
        6,
        7,
        8,
        5,
        6,
        7,
        8,
        5,
        6,
        7,
        8,
        5,
        6,
        7,
        8,
        5,
        6,
        7,
        8,
        5,
        38,
        391,
        264,
        261,
        262,
        263,
        296,
        133,
        6,
        7,
        8,
        5,
        6,
        7,
        8,
        5,
        6,
        7,
        8,
        5,
        6,
        103,
        664,
        517,
        518,
        519,
        520,
        613,
        150,
        7,
        8,
        5,
        6,
        7,
        8,
        5,
        6,
        7,
        8,
        5,
        6,
        7,
        8,
        5,
        6,
        7,
        8,
        37,
        390,
        263,
        264,
        261,
        262,
        295,
        136,
        5,
        6,
        7,
        8,
        5,
        6,
        7,
        8,
        21,
        22,
        23,
        24,
        21,
        22,
        23,
        24,
        21,
        22,
        23,
        24,
        21,
        22,
        23,
        24,
        21,
        22,
        23,
        24,
        21,
        22,
        23,
        24,
        21,
        22,
        55,
        712,
        581,
        518,
        519,
        520,
        517,
        566,
        455,
        328,
        261,
        262,
        295,
        136,
        5,
        6,
        7,
        8,
        5,
        6,
        7,
        8,
        37,
        902,
        775,
        808,
        905,
        778,
        811,
        140,
        9,
        10,
        11,
        12,
        9,
        10,
        11,
        12,
        9,
        42,
        395,
        268,
        265,
        266,
        267,
        300,
        137,
        10,
        11,
        12,
        9,
        10,
        11,
        12,
        9,
        10,
        11,
        12,
        9,
        42,
        667,
        524,
        521,
        522,
        523,
        620,
        153,
        10,
        11,
        12,
        9,
        10,
        11,
        12,
        9,
        10,
        11,
        12,
        9,
        10,
        11,
        12,
        9,
        10,
        11,
        12,
        41,
        394,
        267,
        268,
        265,
        266,
        299,
        140,
        9,
        10,
        11,
        12,
        9,
        10,
        11,
        12,
        9,
        10,
        11,
        12,
        9,
        10,
        11,
        12,
        9,
        10,
        11,
        12,
        9,
        10,
        11,
        12,
        9,
        10,
        11,
        12,
        9,
        10,
        11,
        12,
        9,
        10,
        11,
        28,
        57,
        714,
        523,
        524,
        521,
        522,
        539,
        572,
        457,
        266,
        299,
        140,
        9,
        10,
        11,
        12,
        9,
        10,
        11,
        12,
        9,
        10,
        11,
        12,
        9,
        10,
        11,
        12,
        9,
        10,
        11,
        12,
        9,
        10,
        11,
        12,
        9,
        42,
        395,
        268,
        265,
        266,
        267,
        300,
        137,
        10,
        11,
        12,
        9,
        10,
        11,
        12,
        9,
        10,
        11,
        12,
        9,
        42,
        667,
        524,
        521,
        522,
        523,
        620,
        153,
        10,
        11,
        12,
        9,
        10,
        11,
        12,
        9,
        10,
        11,
        12,
        9,
        10,
        11,
        12,
        9,
        10,
        11,
        12,
        41,
        394,
        267,
        268,
        265,
        266,
        299,
        140,
        9,
        10,
        11,
        12,
        9,
        10,
        11,
        12,
        9,
        10,
        11,
        12,
        9,
        10,
        11,
        12,
        9,
        10,
        11,
        12,
        9,
        10,
        11,
        12,
        9,
        10,
        11,
        12,
        9,
        10,
        11,
        12,
        9,
        10,
        11,
        28,
        57,
        714,
        523,
        524,
        521,
        522,
        539,
        572,
        457,
        266,
        299,
        140,
        9,
        10,
        11,
        12,
        9,
        10,
        11,
        12,
        41,
        906,
        779,
        812,
        909,
        782,
        815,
        144,
        13,
        14,
        15,
        16,
        13,
        14,
        15,
        16,
        13,
        46,
        399,
        272,
        269,
        270,
        271,
        304,
        141,
        14,
        15,
        16,
        13,
        14,
        15,
        16,
        13,
        14,
        15,
        16,
        13,
        110,
        655,
        528,
        525,
        526,
        623,
        160,
        13,
        14,
        15,
        16,
        13,
        14,
        15,
        16,
        13,
        14,
        15,
        16,
        13,
        14,
        15,
        16,
        13,
        14,
        15,
        16,
        45,
        398,
        271,
        272,
        269,
        270,
        303,
        144,
        13,
        14,
        15,
        16,
        13,
        14,
        15,
        16,
        13,
        14,
        15,
        16,
        13,
        14,
        15,
        16,
        13,
        14,
        15,
        16,
        13,
        14,
        15,
        16,
        13,
        14,
        15,
        16,
        13,
        14,
        15,
        16,
        13,
        14,
        15,
        16,
        13,
        62,
        719,
        528,
        525,
        526,
        527,
        528,
        573,
        462,
        303,
        144,
        13,
        14,
        15,
        16,
        13,
        14,
        15,
        16,
        13,
        14,
        15,
        16,
        13,
        14,
        15,
        16,
        13,
        14,
        15,
        16,
        13,
        14,
        15,
        16,
        13,
        46,
        399,
        272,
        269,
        270,
        271,
        304,
        141,
        14,
        15,
        16,
        13,
        14,
        15,
        16,
        13,
        14,
        15,
        16,
        13,
        110,
        655,
        528,
        525,
        526,
        623,
        160,
        13,
        14,
        15,
        16,
        13,
        14,
        15,
        16,
        13,
        14,
        15,
        16,
        13,
        14,
        15,
        16,
        13,
        14,
        15,
        16,
        45,
        398,
        271,
        272,
        269,
        270,
        303,
        144,
        13,
        14,
        15,
        16,
        13,
        14,
        15,
        16,
        13,
        14,
        15,
        16,
        13,
        14,
        15,
        16,
        13,
        14,
        15,
        16,
        13,
        14,
        15,
        16,
        13,
        14,
        15,
        16,
        13,
        14,
        15,
        16,
        13,
        14,
        15,
        16,
        13,
        62,
        719,
        528,
        525,
        526,
        527,
        528,
        573,
        462,
        303,
        144,
        13,
        14,
        15,
        16,
        13,
        14,
        15,
        16,
        45,
        910,
        783,
        816,
        897,
        770,
        803,
        132,
        1,
        2,
        3,
        4,
        1,
        2,
        3,
        4,
        1,
        34,
        387,
        260,
        257,
        258,
        259,
        292,
        129,
        2,
        3,
        4,
        65,
        66,
        67,
        68,
        65,
        66,
        67,
        68,
        97,
        658,
        515,
        516,
        513,
        546,
        211,
        4,
        1,
        2,
        3,
        4,
        1,
        2,
        3,
        4,
        1,
        2,
        3,
        4,
        1,
        2,
        3,
        4,
        1,
        2,
        3,
        4,
        33,
        386,
        259,
        260,
        257,
        258,
        291,
        132,
        1,
        2,
        3,
        4,
        1,
        2,
        3,
        4,
        1,
        2,
        3,
        4,
        1,
        2,
        3,
        4,
        1,
        2,
        3,
        4,
        1,
        2,
        3,
        4,
        1,
        2,
        3,
        4,
        1,
        2,
        3,
        4,
        1,
        2,
        3,
        4,
        1,
        2,
        51,
        708,
        577,
        514,
        515,
        516,
        513,
        562,
        419,
        132,
        1,
        2,
        3,
        4,
        1,
        2,
        3,
        4,
        1,
        2,
        3,
        4,
        1,
        2,
        3,
        4,
        1,
        2,
        3,
        4,
        1,
        2,
        3,
        4,
        1,
        34,
        387,
        260,
        257,
        258,
        259,
        292,
        129,
        2,
        3,
        4,
        65,
        66,
        67,
        68,
        65,
        66,
        67,
        68,
        97,
        658,
        515,
        516,
        513,
        546,
        211,
        4,
        1,
        2,
        3,
        4,
        1,
        2,
        3,
        4,
        1,
        2,
        3,
        4,
        1,
        2,
        3,
        4,
        1,
        2,
        3,
        4,
        33,
        386,
        259,
        260,
        257,
        258,
        291,
        132,
        1,
        2,
        3,
        4,
        1,
        2,
        3,
        4,
        1,
        2,
        3,
        4,
        1,
        2,
        3,
        4,
        1,
        2,
        3,
        4,
        1,
        2,
        3,
        4,
        1,
        2,
        3,
        4,
        1,
        2,
        3,
        4,
        1,
        2,
        3,
        4,
        1,
        2,
        51,
        708,
        577,
        514,
        515,
        516,
        513,
        562,
        419,
        132,
        1,
        2,
        3,
        4,
        1,
        2,
        3,
        4,
        33,
        898,
        771,
        804,
        901,
        774,
        807,
        136,
        5,
        6,
        7,
        8,
        5,
        6,
        7,
        8,
        5,
        38,
        391,
        264,
        261,
        262,
        263,
        296,
        133,
        6,
        7,
        104,
        1173,
        1046,
        1047,
        1048,
        1045,
        1046,
        1047,
        1048,
        1141,
        646,
        519,
        520,
        517,
        614,
        1207,
        200,
        5,
        6,
        7,
        8,
        5,
        6,
        7,
        8,
        5,
        6,
        7,
        8,
        5,
        6,
        7,
        8,
        5,
        6,
        7,
        8,
        37,
        390,
        263,
        264,
        261,
        262,
        295,
        136,
        5,
        6,
        7,
        8,
        5,
        6,
        7,
        8,
        5,
        6,
        7,
        8,
        5,
        6,
        7,
        8,
        5,
        6,
        7,
        8,
        5,
        6,
        7,
        8,
        5,
        6,
        7,
        8,
        5,
        6,
        7,
        8,
        5,
        6,
        7,
        8,
        5,
        6,
        7,
        24,
        53,
        710,
        519,
        520,
        517,
        550,
        423,
        136,
        5,
        6,
        7,
        8,
        5,
        6,
        7,
        8,
        5,
        6,
        7,
        8,
        5,
        6,
        7,
        8,
        5,
        6,
        7,
        8,
        5,
        6,
        7,
        8,
        5,
        38,
        391,
        264,
        261,
        262,
        263,
        296,
        133,
        6,
        7,
        104,
        1173,
        1046,
        1047,
        1048,
        1045,
        1046,
        1047,
        1048,
        1141,
        646,
        519,
        520,
        517,
        614,
        1207,
        200,
        5,
        6,
        7,
        8,
        5,
        6,
        7,
        8,
        5,
        6,
        7,
        8,
        5,
        6,
        7,
        8,
        5,
        6,
        7,
        8,
        37,
        390,
        263,
        264,
        261,
        262,
        295,
        136,
        5,
        6,
        7,
        8,
        5,
        6,
        7,
        8,
        5,
        6,
        7,
        8,
        5,
        6,
        7,
        8,
        5,
        6,
        7,
        8,
        5,
        6,
        7,
        8,
        5,
        6,
        7,
        8,
        5,
        6,
        7,
        8,
        5,
        6,
        7,
        8,
        5,
        6,
        7,
        24,
        53,
        710,
        519,
        520,
        517,
        550,
        423,
        136,
        5,
        6,
        7,
        8,
        5,
        6,
        7,
        8,
        37,
        902,
        775,
        808,
        905,
        778,
        811,
        140,
        9,
        10,
        11,
        12,
        9,
        10,
        11,
        12,
        9,
        42,
        395,
        268,
        265,
        266,
        267,
        300,
        137,
        10,
        43,
        1180,
        1033,
        1034,
        1035,
        1036,
        1033,
        1034,
        1035,
        1132,
        665,
        522,
        523,
        524,
        617,
        1178,
        1035,
        1084,
        137,
        10,
        11,
        12,
        9,
        10,
        11,
        12,
        9,
        10,
        11,
        12,
        9,
        10,
        11,
        12,
        9,
        10,
        11,
        12,
        41,
        394,
        267,
        268,
        265,
        266,
        299,
        140,
        9,
        10,
        11,
        12,
        9,
        10,
        11,
        12,
        9,
        10,
        11,
        12,
        9,
        10,
        11,
        12,
        9,
        10,
        11,
        12,
        9,
        10,
        11,
        12,
        9,
        10,
        11,
        12,
        9,
        10,
        11,
        12,
        9,
        10,
        11,
        12,
        9,
        10,
        11,
        12,
        41,
        442,
        651,
        524,
        521,
        554,
        427,
        140,
        9,
        10,
        11,
        12,
        9,
        10,
        11,
        12,
        9,
        10,
        11,
        12,
        9,
        10,
        11,
        12,
        9,
        10,
        11,
        12,
        9,
        10,
        11,
        12,
        9,
        42,
        395,
        268,
        265,
        266,
        267,
        300,
        137,
        10,
        43,
        1180,
        1033,
        1034,
        1035,
        1036,
        1033,
        1034,
        1035,
        1132,
        665,
        522,
        523,
        524,
        617,
        1178,
        1035,
        1084,
        137,
        10,
        11,
        12,
        9,
        10,
        11,
        12,
        9,
        10,
        11,
        12,
        9,
        10,
        11,
        12,
        9,
        10,
        11,
        12,
        41,
        394,
        267,
        268,
        265,
        266,
        299,
        140,
        9,
        10,
        11,
        12,
        9,
        10,
        11,
        12,
        9,
        10,
        11,
        12,
        9,
        10,
        11,
        12,
        9,
        10,
        11,
        12,
        9,
        10,
        11,
        12,
        9,
        10,
        11,
        12,
        9,
        10,
        11,
        12,
        9,
        10,
        11,
        12,
        9,
        10,
        11,
        12,
        41,
        442,
        651,
        524,
        521,
        554,
        427,
        140,
        9,
        10,
        11,
        12,
        9,
        10,
        11,
        12,
        41,
        906,
        779,
        812,
        909,
        782,
        815,
        144,
        13,
        14,
        15,
        16,
        13,
        14,
        15,
        16,
        13,
        46,
        399,
        272,
        269,
        270,
        271,
        304,
        141,
        14,
        47,
        1168,
        1037,
        1038,
        1039,
        1040,
        1037,
        1038,
        1071,
        672,
        525,
        526,
        527,
        560,
        1181,
        1038,
        1039,
        1072,
        141,
        14,
        15,
        16,
        13,
        14,
        15,
        16,
        13,
        14,
        15,
        16,
        13,
        14,
        15,
        16,
        13,
        14,
        15,
        16,
        45,
        398,
        271,
        272,
        269,
        270,
        303,
        144,
        13,
        14,
        15,
        16,
        13,
        14,
        15,
        16,
        13,
        14,
        15,
        16,
        13,
        14,
        15,
        16,
        13,
        14,
        15,
        16,
        13,
        14,
        15,
        16,
        13,
        14,
        15,
        16,
        13,
        14,
        15,
        16,
        13,
        14,
        15,
        16,
        13,
        14,
        15,
        16,
        45,
        430,
        655,
        528,
        525,
        558,
        431,
        144,
        13,
        14,
        15,
        16,
        13,
        14,
        15,
        16,
        13,
        14,
        15,
        16,
        13,
        14,
        15,
        16,
        13,
        14,
        15,
        16,
        13,
        14,
        15,
        16,
        13,
        46,
        399,
        272,
        269,
        270,
        271,
        304,
        141,
        14,
        47,
        1168,
        1037,
        1038,
        1039,
        1040,
        1037,
        1038,
        1071,
        672,
        525,
        526,
        527,
        560,
        1181,
        1038,
        1039,
        1072,
        141,
        14,
        15,
        16,
        13,
        14,
        15,
        16,
        13,
        14,
        15,
        16,
        13,
        14,
        15,
        16,
        13,
        14,
        15,
        16,
        45,
        398,
        271,
        272,
        269,
        270,
        303,
        144,
        13,
        14,
        15,
        16,
        13,
        14,
        15,
        16,
        13,
        14,
        15,
        16,
        13,
        14,
        15,
        16,
        13,
        14,
        15,
        16,
        13,
        14,
        15,
        16,
        13,
        14,
        15,
        16,
        13,
        14,
        15,
        16,
        13,
        14,
        15,
        16,
        13,
        14,
        15,
        16,
        45,
        430,
        655,
        528,
        525,
        558,
        431,
        144,
        13,
        14,
        15,
        16,
        13,
        14,
        15,
        16,
        45,
        910,
        783,
        816,
        897,
        770,
        803,
        132,
        1,
        2,
        3,
        4,
        1,
        2,
        3,
        4,
        1,
        34,
        387,
        260,
        257,
        258,
        259,
        292,
        129,
        2,
        35,
        1156,
        1025,
        1026,
        1027,
        1028,
        1025,
        1026,
        1123,
        644,
        513,
        514,
        515,
        612,
        1153,
        1026,
        1027,
        1060,
        129,
        2,
        3,
        4,
        1,
        2,
        3,
        4,
        1,
        2,
        3,
        4,
        1,
        2,
        3,
        4,
        1,
        2,
        3,
        4,
        33,
        386,
        259,
        260,
        257,
        258,
        291,
        132,
        1,
        2,
        3,
        4,
        1,
        2,
        3,
        4,
        1,
        2,
        3,
        4,
        1,
        2,
        3,
        4,
        1,
        2,
        3,
        4,
        1,
        2,
        3,
        4,
        1,
        2,
        3,
        4,
        1,
        2,
        3,
        4,
        1,
        2,
        3,
        4,
        1,
        2,
        3,
        4,
        33,
        418,
        643,
        516,
        513,
        546,
        419,
        132,
        1,
        2,
        3,
        4,
        1,
        2,
        3,
        4,
        1,
        2,
        3,
        4,
        1,
        2,
        3,
        4,
        1,
        2,
        3,
        4,
        1,
        2,
        3,
        4,
        1,
        34,
        387,
        260,
        257,
        258,
        259,
        292,
        129,
        2,
        35,
        1156,
        1025,
        1026,
        1027,
        1028,
        1025,
        1026,
        1123,
        644,
        513,
        514,
        515,
        612,
        1153,
        1026,
        1027,
        1060,
        129,
        2,
        3,
        4,
        1,
        2,
        3,
        4,
        1,
        2,
        3,
        4,
        1,
        2,
        3,
        4,
        1,
        2,
        3,
        4,
        33,
        386,
        259,
        260,
        257,
        258,
        291,
        132,
        1,
        2,
        3,
        4,
        1,
        2,
        3,
        4,
        1,
        2,
        3,
        4,
        1,
        2,
        3,
        4,
        1,
        2,
        3,
        4,
        1,
        2,
        3,
        4,
        1,
        2,
        3,
        4,
        1,
        2,
        3,
        4,
        1,
        2,
        3,
        4,
        1,
        2,
        3,
        4,
        33,
        418,
        643,
        516,
        513,
        546,
        419,
        132,
        1,
        2,
        3,
        4,
        1,
        2,
        3,
        4,
        33,
        898,
        771,
        804,
        901,
        774,
        807,
        136,
        5,
        6,
        7,
        8,
        5,
        6,
        7,
        8,
        5,
        38,
        391,
        264,
        261,
        262,
        263,
        296,
        133,
        6,
        39,
        1160,
        1029,
        1030,
        1031,
        1032,
        1029,
        1126,
        663,
        520,
        517,
        518,
        551,
        1176,
        1029,
        1030,
        1031,
        1064,
        133,
        6,
        7,
        8,
        5,
        6,
        7,
        8,
        5,
        6,
        7,
        8,
        5,
        6,
        7,
        8,
        5,
        6,
        7,
        8,
        37,
        390,
        263,
        264,
        261,
        262,
        295,
        136,
        5,
        6,
        7,
        8,
        5,
        6,
        7,
        8,
        5,
        6,
        7,
        8,
        5,
        6,
        7,
        8,
        5,
        6,
        7,
        8,
        5,
        6,
        7,
        8,
        5,
        6,
        7,
        8,
        5,
        6,
        7,
        8,
        5,
        6,
        7,
        8,
        5,
        6,
        7,
        8,
        37,
        422,
        647,
        520,
        517,
        550,
        423,
        136,
        5,
        6,
        7,
        8,
        5,
        6,
        7,
        8,
        5,
        6,
        7,
        8,
        5,
        6,
        7,
        8,
        5,
        6,
        7,
        8,
        5,
        6,
        7,
        8,
        5,
        38,
        391,
        264,
        261,
        262,
        263,
        296,
        133,
        6,
        39,
        1160,
        1029,
        1030,
        1031,
        1032,
        1029,
        1126,
        663,
        520,
        517,
        518,
        551,
        1176,
        1029,
        1030,
        1031,
        1064,
        133,
        6,
        7,
        8,
        5,
        6,
        7,
        8,
        5,
        6,
        7,
        8,
        5,
        6,
        7,
        8,
        5,
        6,
        7,
        8,
        37,
        390,
        263,
        264,
        261,
        262,
        295,
        136,
        5,
        6,
        7,
        8,
        5,
        6,
        7,
        8,
        5,
        6,
        7,
        8,
        5,
        6,
        7,
        8,
        5,
        6,
        7,
        8,
        5,
        6,
        7,
        8,
        5,
        6,
        7,
        8,
        5,
        6,
        7,
        8,
        5,
        6,
        7,
        8,
        5,
        6,
        7,
        8,
        37,
        422,
        647,
        520,
        517,
        550,
        423,
        136,
        5,
        6,
        7,
        8,
        5,
        6,
        7,
        8,
        37,
        902,
        775,
        808,
        905,
        778,
        811,
        140,
        9,
        10,
        11,
        12,
        9,
        10,
        11,
        12,
        9,
        42,
        395,
        268,
        265,
        266,
        267,
        300,
        137,
        10,
        43,
        1164,
        1033,
        1034,
        1035,
        1036,
        1065,
        666,
        523,
        524,
        521,
        522,
        619,
        1164,
        1033,
        1034,
        1035,
        1068,
        137,
        10,
        11,
        12,
        9,
        10,
        11,
        12,
        9,
        10,
        11,
        12,
        9,
        10,
        11,
        12,
        9,
        10,
        11,
        12,
        41,
        394,
        267,
        268,
        265,
        266,
        299,
        140,
        9,
        10,
        11,
        12,
        9,
        10,
        11,
        12,
        9,
        10,
        11,
        12,
        9,
        10,
        11,
        12,
        9,
        10,
        11,
        12,
        9,
        10,
        11,
        12,
        9,
        10,
        11,
        12,
        9,
        10,
        11,
        12,
        9,
        10,
        11,
        12,
        9,
        10,
        11,
        12,
        41,
        426,
        651,
        524,
        521,
        554,
        427,
        140,
        9,
        10,
        11,
        12,
        9,
        10,
        11,
        12,
        9,
        10,
        11,
        12,
        9,
        10,
        11,
        12,
        9,
        10,
        11,
        12,
        9,
        10,
        11,
        12,
        9,
        42,
        395,
        268,
        265,
        266,
        267,
        300,
        137,
        10,
        43,
        1164,
        1033,
        1034,
        1035,
        1036,
        1065,
        666,
        523,
        524,
        521,
        522,
        619,
        1164,
        1033,
        1034,
        1035,
        1068,
        137,
        10,
        11,
        12,
        9,
        10,
        11,
        12,
        9,
        10,
        11,
        12,
        9,
        10,
        11,
        12,
        9,
        10,
        11,
        12,
        41,
        394,
        267,
        268,
        265,
        266,
        299,
        140,
        9,
        10,
        11,
        12,
        9,
        10,
        11,
        12,
        9,
        10,
        11,
        12,
        9,
        10,
        11,
        12,
        9,
        10,
        11,
        12,
        9,
        10,
        11,
        12,
        9,
        10,
        11,
        12,
        9,
        10,
        11,
        12,
        9,
        10,
        11,
        12,
        9,
        10,
        11,
        12,
        41,
        426,
        651,
        524,
        521,
        554,
        427,
        140,
        9,
        10,
        11,
        12,
        9,
        10,
        11,
        12,
        41,
        906,
        779,
        812,
        909,
        782,
        815,
        144,
        13,
        14,
        15,
        16,
        13,
        14,
        15,
        16,
        13,
        46,
        399,
        272,
        269,
        270,
        271,
        304,
        141,
        14,
        47,
        1168,
        1037,
        1038,
        1039,
        1040,
        1133,
        654,
        527,
        528,
        525,
        622,
        1183,
        1040,
        1037,
        1038,
        1039,
        1072,
        141,
        14,
        15,
        16,
        13,
        14,
        15,
        16,
        13,
        14,
        15,
        16,
        13,
        14,
        15,
        16,
        13,
        14,
        15,
        16,
        45,
        398,
        271,
        272,
        269,
        270,
        303,
        144,
        13,
        14,
        15,
        16,
        13,
        14,
        15,
        16,
        13,
        14,
        15,
        16,
        13,
        14,
        15,
        16,
        13,
        14,
        15,
        16,
        13,
        14,
        15,
        16,
        13,
        14,
        15,
        16,
        13,
        14,
        15,
        16,
        13,
        14,
        15,
        16,
        13,
        14,
        15,
        16,
        45,
        430,
        655,
        528,
        525,
        558,
        431,
        144,
        13,
        14,
        15,
        16,
        13,
        14,
        15,
        16,
        13,
        14,
        15,
        16,
        13,
        14,
        15,
        16,
        13,
        14,
        15,
        16,
        13,
        14,
        15,
        16,
        13,
        46,
        399,
        272,
        269,
        270,
        271,
        304,
        141,
        14,
        47,
        1168,
        1037,
        1038,
        1039,
        1040,
        1133,
        654,
        527,
        528,
        525,
        622,
        1183,
        1040,
        1037,
        1038,
        1039,
        1072,
        141,
        14,
        15,
        16,
        13,
        14,
        15,
        16,
        13,
        14,
        15,
        16,
        13,
        14,
        15,
        16,
        13,
        14,
        15,
        16,
        45,
        398,
        271,
        272,
        269,
        270,
        303,
        144,
        13,
        14,
        15,
        16,
        13,
        14,
        15,
        16,
        13,
        14,
        15,
        16,
        13,
        14,
        15,
        16,
        13,
        14,
        15,
        16,
        13,
        14,
        15,
        16,
        13,
        14,
        15,
        16,
        13,
        14,
        15,
        16,
        13,
        14,
        15,
        16,
        13,
        14,
        15,
        16,
        45,
        430,
        655,
        528,
        525,
        558,
        431,
        144,
        13,
        14,
        15,
        16,
        13,
        14,
        15,
        16,
        45,
        910,
        783,
        816,
        897,
        770,
        803,
        132,
        1,
        2,
        3,
        4,
        1,
        2,
        3,
        4,
        1,
        34,
        387,
        260,
        257,
        258,
        259,
        292,
        193,
        66,
        99,
        1156,
        1025,
        1026,
        1027,
        1060,
        721,
        578,
        515,
        516,
        545,
        1170,
        1027,
        1028,
        1025,
        1026,
        1027,
        1060,
        193,
        66,
        67,
        68,
        65,
        66,
        67,
        68,
        65,
        66,
        67,
        68,
        65,
        66,
        67,
        68,
        65,
        66,
        67,
        68,
        97,
        386,
        259,
        260,
        257,
        258,
        291,
        196,
        65,
        66,
        67,
        68,
        65,
        66,
        67,
        68,
        65,
        66,
        67,
        68,
        65,
        66,
        67,
        68,
        65,
        66,
        67,
        68,
        65,
        66,
        67,
        68,
        65,
        66,
        67,
        68,
        65,
        66,
        67,
        68,
        65,
        66,
        67,
        68,
        65,
        66,
        67,
        68,
        97,
        418,
        643,
        580,
        577,
        610,
        419,
        196,
        65,
        66,
        67,
        68,
        65,
        66,
        67,
        68,
        65,
        66,
        67,
        68,
        65,
        66,
        67,
        68,
        65,
        66,
        67,
        68,
        65,
        66,
        67,
        68,
        65,
        98,
        387,
        260,
        257,
        258,
        259,
        292,
        193,
        66,
        99,
        1156,
        1025,
        1026,
        1027,
        1060,
        721,
        578,
        515,
        516,
        545,
        1170,
        1027,
        1028,
        1025,
        1026,
        1027,
        1060,
        193,
        66,
        67,
        68,
        65,
        66,
        67,
        68,
        65,
        66,
        67,
        68,
        65,
        66,
        67,
        68,
        65,
        66,
        67,
        68,
        97,
        386,
        259,
        260,
        257,
        258,
        291,
        196,
        65,
        66,
        67,
        68,
        65,
        66,
        67,
        68,
        65,
        66,
        67,
        68,
        65,
        66,
        67,
        68,
        65,
        66,
        67,
        68,
        65,
        66,
        67,
        68,
        65,
        66,
        67,
        68,
        65,
        66,
        67,
        68,
        65,
        66,
        67,
        68,
        65,
        66,
        67,
        68,
        97,
        418,
        643,
        516,
        513,
        546,
        419,
        132,
        1,
        2,
        3,
        4,
        1,
        2,
        3,
        4,
        33,
        898,
        771,
        804,
        901,
        774,
        807,
        136,
        5,
        6,
        7,
        8,
        5,
        6,
        7,
        8,
        5,
        38,
        391,
        264,
        261,
        262,
        263,
        264,
        277,
        278,
        311,
        1160,
        1029,
        1030,
        1031,
        1032,
        1045,
        1078,
        711,
        520,
        613,
        1158,
        1031,
        1032,
        1029,
        1030,
        1031,
        1064,
        405,
        278,
        279,
        280,
        277,
        278,
        279,
        280,
        277,
        278,
        279,
        280,
        277,
        278,
        279,
        280,
        277,
        278,
        279,
        280,
        277,
        262,
        263,
        264,
        261,
        262,
        263,
        280,
        277,
        278,
        279,
        280,
        277,
        278,
        279,
        280,
        277,
        278,
        279,
        280,
        277,
        278,
        279,
        280,
        277,
        278,
        279,
        280,
        277,
        278,
        279,
        280,
        277,
        278,
        279,
        280,
        277,
        278,
        279,
        280,
        277,
        278,
        279,
        280,
        277,
        278,
        279,
        280,
        277,
        294,
        679,
        408,
        277,
        278,
        263,
        280,
        277,
        278,
        279,
        280,
        277,
        278,
        279,
        280,
        277,
        278,
        279,
        280,
        277,
        278,
        279,
        280,
        277,
        278,
        279,
        280,
        277,
        278,
        279,
        280,
        277,
        278,
        263,
        264,
        261,
        262,
        263,
        264,
        277,
        278,
        311,
        1160,
        1029,
        1030,
        1031,
        1032,
        1045,
        1078,
        711,
        520,
        613,
        1158,
        1031,
        1032,
        1029,
        1030,
        1031,
        1064,
        405,
        278,
        279,
        280,
        277,
        278,
        279,
        280,
        277,
        278,
        279,
        280,
        277,
        278,
        279,
        280,
        277,
        278,
        279,
        280,
        277,
        262,
        263,
        264,
        261,
        262,
        263,
        280,
        277,
        278,
        279,
        280,
        277,
        278,
        279,
        280,
        277,
        278,
        279,
        280,
        277,
        278,
        279,
        280,
        277,
        278,
        279,
        280,
        277,
        278,
        279,
        280,
        277,
        278,
        279,
        280,
        277,
        278,
        279,
        280,
        277,
        278,
        279,
        280,
        277,
        278,
        279,
        280,
        277,
        294,
        647,
        520,
        517,
        550,
        423,
        136,
        5,
        6,
        7,
        8,
        5,
        6,
        7,
        8,
        37,
        902,
        775,
        808,
        905,
        778,
        811,
        140,
        9,
        10,
        11,
        12,
        9,
        10,
        11,
        12,
        9,
        42,
        395,
        268,
        265,
        266,
        267,
        268,
        265,
        266,
        299,
        1164,
        1033,
        1034,
        1035,
        1036,
        1033,
        1034,
        1083,
        748,
        1177,
        1034,
        1035,
        1036,
        1033,
        1034,
        1035,
        1068,
        393,
        266,
        267,
        268,
        265,
        266,
        267,
        268,
        265,
        266,
        267,
        268,
        265,
        266,
        267,
        268,
        265,
        266,
        267,
        268,
        265,
        266,
        267,
        268,
        265,
        266,
        267,
        268,
        265,
        266,
        267,
        268,
        265,
        266,
        267,
        268,
        265,
        266,
        267,
        268,
        265,
        266,
        267,
        268,
        265,
        266,
        267,
        268,
        265,
        266,
        267,
        268,
        265,
        266,
        267,
        268,
        265,
        266,
        267,
        268,
        265,
        266,
        267,
        268,
        265,
        266,
        267,
        268,
        265,
        298,
        747,
        396,
        265,
        266,
        267,
        268,
        265,
        266,
        267,
        268,
        265,
        266,
        267,
        268,
        265,
        266,
        267,
        268,
        265,
        266,
        267,
        268,
        265,
        266,
        267,
        268,
        265,
        266,
        267,
        268,
        265,
        266,
        267,
        268,
        265,
        266,
        267,
        268,
        265,
        266,
        299,
        1164,
        1033,
        1034,
        1035,
        1036,
        1033,
        1034,
        1083,
        748,
        1177,
        1034,
        1035,
        1036,
        1033,
        1034,
        1035,
        1068,
        393,
        266,
        267,
        268,
        265,
        266,
        267,
        268,
        265,
        266,
        267,
        268,
        265,
        266,
        267,
        268,
        265,
        266,
        267,
        268,
        265,
        266,
        267,
        268,
        265,
        266,
        267,
        268,
        265,
        266,
        267,
        268,
        265,
        266,
        267,
        268,
        265,
        266,
        267,
        268,
        265,
        266,
        267,
        268,
        265,
        266,
        267,
        268,
        265,
        266,
        267,
        268,
        265,
        266,
        267,
        268,
        265,
        266,
        267,
        268,
        265,
        266,
        267,
        268,
        265,
        266,
        267,
        268,
        265,
        298,
        715,
        588,
        585,
        618,
        427,
        140,
        9,
        10,
        11,
        12,
        9,
        10,
        11,
        12,
        41,
        906,
        779,
        812,
        909,
        782,
        815,
        144,
        13,
        14,
        15,
        16,
        13,
        14,
        15,
        16,
        13,
        46,
        399,
        272,
        269,
        270,
        271,
        272,
        269,
        270,
        303,
        1168,
        1037,
        1038,
        1039,
        1040,
        1037,
        1038,
        1039,
        1056,
        1037,
        1038,
        1039,
        1040,
        1037,
        1038,
        1039,
        1072,
        397,
        270,
        271,
        272,
        269,
        270,
        271,
        272,
        269,
        270,
        271,
        272,
        269,
        270,
        271,
        272,
        269,
        270,
        271,
        272,
        269,
        270,
        271,
        272,
        269,
        270,
        271,
        272,
        269,
        270,
        271,
        272,
        269,
        270,
        271,
        272,
        269,
        270,
        271,
        272,
        269,
        270,
        271,
        272,
        269,
        270,
        271,
        272,
        269,
        270,
        271,
        272,
        269,
        270,
        271,
        272,
        269,
        270,
        271,
        272,
        269,
        270,
        271,
        272,
        269,
        270,
        271,
        272,
        269,
        270,
        287,
        272,
        269,
        270,
        271,
        272,
        269,
        270,
        271,
        272,
        269,
        270,
        271,
        272,
        269,
        270,
        271,
        272,
        269,
        270,
        271,
        272,
        269,
        270,
        271,
        272,
        269,
        270,
        271,
        272,
        269,
        270,
        271,
        272,
        269,
        270,
        271,
        272,
        269,
        270,
        303,
        1168,
        1037,
        1038,
        1039,
        1040,
        1037,
        1038,
        1039,
        1056,
        1037,
        1038,
        1039,
        1040,
        1037,
        1038,
        1039,
        1072,
        397,
        270,
        271,
        272,
        269,
        270,
        271,
        272,
        269,
        270,
        271,
        272,
        269,
        270,
        271,
        272,
        269,
        270,
        271,
        272,
        269,
        270,
        271,
        272,
        269,
        270,
        271,
        272,
        269,
        270,
        271,
        272,
        269,
        270,
        271,
        272,
        269,
        270,
        271,
        272,
        269,
        270,
        271,
        272,
        269,
        270,
        271,
        272,
        269,
        270,
        271,
        272,
        269,
        270,
        271,
        272,
        269,
        270,
        271,
        272,
        269,
        270,
        271,
        272,
        269,
        270,
        271,
        272,
        269,
        270,
        287,
        288,
        285,
        286,
        303,
        144,
        13,
        14,
        15,
        16,
        13,
        14,
        15,
        16,
        45,
        910,
        783,
        816,
        897,
        770,
        803,
        132,
        1,
        2,
        3,
        4,
        1,
        2,
        3,
        4,
        1,
        34,
        387,
        260,
        257,
        258,
        259,
        260,
        257,
        258,
        291,
        1156,
        1025,
        1026,
        1027,
        1028,
        1025,
        1026,
        1027,
        1028,
        1025,
        1026,
        1027,
        1028,
        1025,
        1026,
        1027,
        1060,
        385,
        258,
        259,
        260,
        257,
        258,
        259,
        260,
        257,
        258,
        259,
        260,
        257,
        258,
        259,
        260,
        257,
        258,
        259,
        260,
        257,
        258,
        259,
        260,
        257,
        258,
        259,
        260,
        257,
        258,
        259,
        260,
        257,
        258,
        259,
        260,
        257,
        258,
        259,
        260,
        257,
        258,
        259,
        260,
        257,
        258,
        259,
        260,
        257,
        258,
        259,
        260,
        257,
        258,
        259,
        260,
        257,
        258,
        259,
        260,
        257,
        258,
        259,
        260,
        257,
        258,
        259,
        260,
        257,
        258,
        259,
        260,
        257,
        258,
        259,
        260,
        257,
        258,
        259,
        260,
        257,
        258,
        259,
        260,
        257,
        258,
        259,
        260,
        257,
        258,
        259,
        260,
        257,
        258,
        259,
        260,
        257,
        258,
        259,
        260,
        257,
        258,
        259,
        260,
        257,
        258,
        259,
        260,
        257,
        258,
        291,
        1156,
        1025,
        1026,
        1027,
        1028,
        1025,
        1026,
        1027,
        1028,
        1025,
        1026,
        1027,
        1028,
        1025,
        1026,
        1027,
        1060,
        385,
        258,
        259,
        260,
        257,
        258,
        259,
        260,
        257,
        258,
        259,
        260,
        257,
        258,
        259,
        260,
        257,
        258,
        259,
        260,
        257,
        258,
        259,
        260,
        257,
        258,
        259,
        260,
        257,
        258,
        259,
        260,
        257,
        258,
        259,
        260,
        257,
        258,
        259,
        260,
        257,
        258,
        259,
        260,
        257,
        258,
        259,
        260,
        257,
        258,
        259,
        260,
        257,
        258,
        259,
        260,
        257,
        258,
        259,
        260,
        257,
        258,
        259,
        260,
        257,
        258,
        259,
        260,
        257,
        258,
        259,
        260,
        257,
        258,
        291,
        132,
        1,
        2,
        3,
        4,
        1,
        2,
        3,
        4,
        33,
        898,
        771,
        804,
        901,
        774,
        807,
        136,
        5,
        6,
        7,
        8,
        5,
        6,
        7,
        8,
        5,
        38,
        391,
        264,
        261,
        262,
        263,
        264,
        261,
        262,
        295,
        1160,
        1029,
        1030,
        1031,
        1032,
        1029,
        1030,
        1031,
        1032,
        1029,
        1030,
        1031,
        1032,
        1029,
        1030,
        1031,
        1064,
        389,
        262,
        263,
        264,
        261,
        262,
        263,
        264,
        261,
        262,
        263,
        264,
        261,
        262,
        263,
        264,
        261,
        262,
        263,
        264,
        261,
        262,
        263,
        264,
        261,
        262,
        263,
        264,
        261,
        262,
        263,
        264,
        261,
        262,
        263,
        264,
        261,
        262,
        263,
        264,
        261,
        262,
        263,
        264,
        261,
        262,
        263,
        264,
        261,
        262,
        263,
        264,
        261,
        262,
        263,
        264,
        261,
        262,
        263,
        264,
        261,
        262,
        263,
        264,
        261,
        262,
        263,
        264,
        261,
        262,
        263,
        264,
        261,
        262,
        263,
        264,
        261,
        262,
        263,
        264,
        261,
        262,
        263,
        264,
        261,
        262,
        263,
        264,
        261,
        262,
        263,
        264,
        261,
        262,
        263,
        264,
        261,
        262,
        263,
        264,
        261,
        262,
        263,
        264,
        261,
        262,
        263,
        264,
        261,
        262,
        295,
        1160,
        1029,
        1030,
        1031,
        1032,
        1029,
        1030,
        1031,
        1032,
        1029,
        1030,
        1031,
        1032,
        1029,
        1030,
        1031,
        1064,
        389,
        262,
        263,
        264,
        261,
        262,
        263,
        264,
        261,
        262,
        263,
        264,
        261,
        262,
        263,
        264,
        261,
        262,
        263,
        264,
        261,
        262,
        263,
        264,
        261,
        262,
        263,
        264,
        261,
        262,
        263,
        264,
        261,
        262,
        263,
        264,
        261,
        262,
        263,
        264,
        261,
        262,
        263,
        264,
        261,
        262,
        263,
        264,
        261,
        262,
        263,
        264,
        261,
        262,
        263,
        264,
        261,
        262,
        263,
        264,
        261,
        262,
        263,
        264,
        261,
        262,
        263,
        264,
        261,
        262,
        263,
        264,
        261,
        262,
        295,
        136,
        5,
        6,
        7,
        8,
        5,
        6,
        7,
        8,
        37,
        902,
        775,
        808,
        905,
        778,
        811,
        140,
        9,
        10,
        11,
        12,
        9,
        10,
        11,
        12,
        9,
        42,
        395,
        268,
        265,
        266,
        267,
        268,
        329,
        330,
        363,
        1228,
        1033,
        1034,
        1035,
        1036,
        1033,
        1034,
        1035,
        1036,
        1033,
        1034,
        1035,
        1036,
        1033,
        1034,
        1035,
        1132,
        457,
        330,
        331,
        332,
        329,
        330,
        331,
        332,
        329,
        330,
        331,
        332,
        329,
        330,
        331,
        332,
        329,
        330,
        331,
        332,
        329,
        266,
        267,
        268,
        265,
        266,
        267,
        332,
        329,
        330,
        331,
        332,
        329,
        330,
        331,
        332,
        329,
        330,
        331,
        332,
        329,
        330,
        331,
        332,
        329,
        330,
        331,
        332,
        329,
        330,
        331,
        332,
        329,
        330,
        331,
        332,
        329,
        330,
        331,
        332,
        329,
        330,
        331,
        332,
        329,
        330,
        331,
        332,
        329,
        266,
        267,
        268,
        265,
        266,
        267,
        332,
        329,
        330,
        331,
        332,
        329,
        330,
        331,
        332,
        329,
        330,
        331,
        332,
        329,
        330,
        331,
        332,
        329,
        330,
        331,
        332,
        329,
        330,
        331,
        332,
        329,
        330,
        267,
        268,
        265,
        266,
        267,
        268,
        329,
        330,
        363,
        1228,
        1033,
        1034,
        1035,
        1036,
        1033,
        1034,
        1035,
        1036,
        1033,
        1034,
        1035,
        1036,
        1033,
        1034,
        1035,
        1132,
        457,
        330,
        331,
        332,
        329,
        330,
        331,
        332,
        329,
        330,
        331,
        332,
        329,
        330,
        331,
        332,
        329,
        330,
        331,
        332,
        329,
        266,
        267,
        268,
        265,
        266,
        267,
        332,
        329,
        330,
        331,
        332,
        329,
        330,
        331,
        332,
        329,
        330,
        331,
        332,
        329,
        330,
        331,
        332,
        329,
        330,
        331,
        332,
        329,
        330,
        331,
        332,
        329,
        330,
        331,
        332,
        329,
        330,
        331,
        332,
        329,
        330,
        331,
        332,
        329,
        330,
        331,
        332,
        329,
        266,
        267,
        268,
        265,
        266,
        299,
        140,
        9,
        10,
        11,
        12,
        9,
        10,
        11,
        12,
        41,
        906,
        779,
        812,
        909,
        782,
        815,
        144,
        13,
        14,
        15,
        16,
        13,
        14,
        15,
        16,
        13,
        46,
        399,
        272,
        269,
        270,
        271,
        304,
        157,
        30,
        31,
        64,
        1229,
        1102,
        1103,
        1104,
        1101,
        1102,
        1103,
        1104,
        1101,
        1102,
        1103,
        1104,
        1101,
        1102,
        1135,
        160,
        29,
        30,
        31,
        32,
        29,
        30,
        31,
        32,
        29,
        30,
        31,
        32,
        29,
        30,
        31,
        32,
        29,
        30,
        31,
        32,
        61,
        398,
        271,
        272,
        269,
        270,
        303,
        160,
        29,
        30,
        31,
        32,
        29,
        30,
        31,
        32,
        29,
        30,
        31,
        32,
        29,
        30,
        31,
        32,
        29,
        30,
        31,
        32,
        29,
        30,
        31,
        32,
        29,
        30,
        31,
        32,
        29,
        30,
        31,
        32,
        29,
        30,
        31,
        32,
        29,
        30,
        31,
        32,
        61,
        398,
        271,
        272,
        269,
        270,
        303,
        160,
        29,
        30,
        31,
        32,
        29,
        30,
        31,
        32,
        29,
        30,
        31,
        32,
        29,
        30,
        31,
        32,
        29,
        30,
        31,
        32,
        29,
        30,
        31,
        32,
        29,
        62,
        399,
        272,
        269,
        270,
        271,
        304,
        157,
        30,
        31,
        64,
        1229,
        1102,
        1103,
        1104,
        1101,
        1102,
        1103,
        1104,
        1101,
        1102,
        1103,
        1104,
        1101,
        1102,
        1135,
        160,
        29,
        30,
        31,
        32,
        29,
        30,
        31,
        32,
        29,
        30,
        31,
        32,
        29,
        30,
        31,
        32,
        29,
        30,
        31,
        32,
        61,
        398,
        271,
        272,
        269,
        270,
        303,
        160,
        29,
        30,
        31,
        32,
        29,
        30,
        31,
        32,
        29,
        30,
        31,
        32,
        29,
        30,
        31,
        32,
        29,
        30,
        31,
        32,
        29,
        30,
        31,
        32,
        29,
        30,
        31,
        32,
        29,
        30,
        31,
        32,
        29,
        30,
        31,
        32,
        29,
        30,
        31,
        32,
        61,
        398,
        271,
        272,
        269,
        270,
        303,
        144,
        13,
        14,
        15,
        16,
        13,
        14,
        15,
        16,
        45,
        910,
        783,
        816,
        897,
        770,
        803,
        132,
        1,
        2,
        3,
        4,
        1,
        2,
        3,
        4,
        1,
        34,
        387,
        260,
        257,
        258,
        259,
        292,
        129,
        2,
        3,
        4,
        17,
        18,
        19,
        20,
        17,
        18,
        19,
        20,
        17,
        18,
        19,
        20,
        17,
        18,
        19,
        4,
        1,
        2,
        3,
        4,
        1,
        2,
        3,
        4,
        1,
        2,
        3,
        4,
        1,
        2,
        3,
        4,
        1,
        2,
        3,
        4,
        33,
        386,
        259,
        260,
        257,
        258,
        291,
        132,
        1,
        2,
        3,
        4,
        1,
        2,
        3,
        4,
        1,
        2,
        3,
        4,
        1,
        2,
        3,
        4,
        1,
        2,
        3,
        4,
        1,
        2,
        3,
        4,
        1,
        2,
        3,
        4,
        1,
        2,
        3,
        4,
        1,
        2,
        3,
        4,
        1,
        2,
        3,
        4,
        33,
        386,
        259,
        260,
        257,
        258,
        291,
        132,
        1,
        2,
        3,
        4,
        1,
        2,
        3,
        4,
        1,
        2,
        3,
        4,
        1,
        2,
        3,
        4,
        1,
        2,
        3,
        4,
        1,
        2,
        3,
        4,
        1,
        34,
        387,
        260,
        257,
        258,
        259,
        292,
        129,
        2,
        3,
        4,
        17,
        18,
        19,
        20,
        17,
        18,
        19,
        20,
        17,
        18,
        19,
        20,
        17,
        18,
        19,
        4,
        1,
        2,
        3,
        4,
        1,
        2,
        3,
        4,
        1,
        2,
        3,
        4,
        1,
        2,
        3,
        4,
        1,
        2,
        3,
        4,
        33,
        386,
        259,
        260,
        257,
        258,
        291,
        132,
        1,
        2,
        3,
        4,
        1,
        2,
        3,
        4,
        1,
        2,
        3,
        4,
        1,
        2,
        3,
        4,
        1,
        2,
        3,
        4,
        1,
        2,
        3,
        4,
        1,
        2,
        3,
        4,
        1,
        2,
        3,
        4,
        1,
        2,
        3,
        4,
        1,
        2,
        3,
        4,
        33,
        386,
        259,
        260,
        257,
        258,
        291,
        132,
        1,
        2,
        3,
        4,
        1,
        2,
        3,
        4,
        33,
        898,
        771,
        804,
        901,
        774,
        807,
        136,
        5,
        6,
        7,
        8,
        5,
        6,
        7,
        8,
        5,
        38,
        391,
        264,
        261,
        262,
        263,
        296,
        133,
        6,
        7,
        8,
        5,
        6,
        7,
        8,
        5,
        6,
        7,
        8,
        5,
        6,
        7,
        8,
        5,
        6,
        7,
        8,
        5,
        6,
        7,
        8,
        5,
        6,
        7,
        8,
        5,
        6,
        7,
        8,
        5,
        6,
        7,
        8,
        5,
        6,
        7,
        8,
        37,
        390,
        263,
        264,
        261,
        262,
        295,
        136,
        5,
        6,
        7,
        8,
        5,
        6,
        7,
        8,
        5,
        6,
        7,
        8,
        5,
        6,
        7,
        8,
        5,
        6,
        7,
        8,
        5,
        6,
        7,
        8,
        5,
        6,
        7,
        8,
        5,
        6,
        7,
        8,
        5,
        6,
        7,
        8,
        5,
        6,
        7,
        8,
        37,
        390,
        263,
        264,
        261,
        262,
        295,
        136,
        5,
        6,
        7,
        8,
        5,
        6,
        7,
        8,
        5,
        6,
        7,
        8,
        5,
        6,
        7,
        8,
        5,
        6,
        7,
        8,
        5,
        6,
        7,
        8,
        5,
        38,
        391,
        264,
        261,
        262,
        263,
        296,
        133,
        6,
        7,
        8,
        5,
        6,
        7,
        8,
        5,
        6,
        7,
        8,
        5,
        6,
        7,
        8,
        5,
        6,
        7,
        8,
        5,
        6,
        7,
        8,
        5,
        6,
        7,
        8,
        5,
        6,
        7,
        8,
        5,
        6,
        7,
        8,
        5,
        6,
        7,
        8,
        37,
        390,
        263,
        264,
        261,
        262,
        295,
        136,
        5,
        6,
        7,
        8,
        5,
        6,
        7,
        8,
        5,
        6,
        7,
        8,
        5,
        6,
        7,
        8,
        5,
        6,
        7,
        8,
        5,
        6,
        7,
        8,
        5,
        6,
        7,
        8,
        5,
        6,
        7,
        8,
        5,
        6,
        7,
        8,
        5,
        6,
        7,
        8,
        37,
        390,
        263,
        264,
        261,
        262,
        295,
        136,
        5,
        6,
        7,
        8,
        5,
        6,
        7,
        8,
        37,
        902,
        775,
        808,
        905,
        778,
        811,
        140,
        9,
        10,
        11,
        12,
        9,
        10,
        11,
        12,
        9,
        42,
        459,
        268,
        265,
        266,
        267,
        300,
        201,
        10,
        11,
        12,
        9,
        10,
        11,
        12,
        9,
        10,
        11,
        12,
        9,
        10,
        11,
        12,
        9,
        10,
        11,
        12,
        9,
        10,
        11,
        12,
        9,
        10,
        11,
        12,
        9,
        10,
        11,
        12,
        9,
        10,
        11,
        12,
        9,
        10,
        11,
        12,
        41,
        394,
        267,
        268,
        265,
        266,
        299,
        140,
        9,
        10,
        11,
        12,
        9,
        10,
        11,
        12,
        9,
        10,
        11,
        12,
        9,
        10,
        11,
        12,
        9,
        10,
        11,
        12,
        9,
        10,
        11,
        12,
        9,
        10,
        11,
        12,
        9,
        10,
        11,
        12,
        9,
        10,
        11,
        12,
        9,
        10,
        11,
        12,
        105,
        394,
        267,
        268,
        265,
        266,
        363,
        140,
        9,
        10,
        11,
        12,
        9,
        10,
        11,
        12,
        9,
        10,
        11,
        12,
        9,
        10,
        11,
        12,
        9,
        10,
        11,
        12,
        9,
        10,
        11,
        12,
        9,
        42,
        459,
        268,
        265,
        266,
        267,
        300,
        201,
        10,
        11,
        12,
        9,
        10,
        11,
        12,
        9,
        10,
        11,
        12,
        9,
        10,
        11,
        12,
        9,
        10,
        11,
        12,
        9,
        10,
        11,
        12,
        9,
        10,
        11,
        12,
        9,
        10,
        11,
        12,
        9,
        10,
        11,
        12,
        9,
        10,
        11,
        12,
        41,
        394,
        267,
        268,
        265,
        266,
        299,
        140,
        9,
        10,
        11,
        12,
        9,
        10,
        11,
        12,
        9,
        10,
        11,
        12,
        9,
        10,
        11,
        12,
        9,
        10,
        11,
        12,
        9,
        10,
        11,
        12,
        9,
        10,
        11,
        12,
        9,
        10,
        11,
        12,
        9,
        10,
        11,
        12,
        9,
        10,
        11,
        12,
        105,
        394,
        267,
        268,
        265,
        266,
        363,
        140,
        9,
        10,
        11,
        12,
        9,
        10,
        11,
        12,
        41,
        906,
        779,
        812,
        909,
        782,
        815,
        144,
        13,
        14,
        15,
        16,
        13,
        14,
        15,
        16,
        13,
        14,
        63,
        400,
        269,
        270,
        271,
        272,
        317,
        142,
        15,
        16,
        13,
        14,
        15,
        16,
        13,
        14,
        15,
        16,
        13,
        14,
        15,
        16,
        13,
        14,
        15,
        16,
        13,
        14,
        15,
        16,
        13,
        14,
        15,
        16,
        13,
        14,
        15,
        16,
        13,
        14,
        15,
        16,
        13,
        14,
        15,
        16,
        45,
        398,
        271,
        272,
        269,
        270,
        303,
        144,
        13,
        14,
        15,
        16,
        13,
        14,
        15,
        16,
        13,
        14,
        15,
        16,
        13,
        14,
        15,
        16,
        13,
        14,
        15,
        16,
        13,
        14,
        15,
        16,
        13,
        14,
        15,
        16,
        13,
        14,
        15,
        16,
        13,
        14,
        15,
        16,
        13,
        14,
        15,
        48,
        413,
        270,
        271,
        272,
        269,
        302,
        159,
        16,
        13,
        14,
        15,
        16,
        13,
        14,
        15,
        16,
        13,
        14,
        15,
        16,
        13,
        14,
        15,
        16,
        13,
        14,
        15,
        16,
        13,
        14,
        15,
        16,
        13,
        14,
        63,
        400,
        269,
        270,
        271,
        272,
        317,
        142,
        15,
        16,
        13,
        14,
        15,
        16,
        13,
        14,
        15,
        16,
        13,
        14,
        15,
        16,
        13,
        14,
        15,
        16,
        13,
        14,
        15,
        16,
        13,
        14,
        15,
        16,
        13,
        14,
        15,
        16,
        13,
        14,
        15,
        16,
        13,
        14,
        15,
        16,
        45,
        398,
        271,
        272,
        269,
        270,
        303,
        144,
        13,
        14,
        15,
        16,
        13,
        14,
        15,
        16,
        13,
        14,
        15,
        16,
        13,
        14,
        15,
        16,
        13,
        14,
        15,
        16,
        13,
        14,
        15,
        16,
        13,
        14,
        15,
        16,
        13,
        14,
        15,
        16,
        13,
        14,
        15,
        16,
        13,
        14,
        15,
        48,
        413,
        270,
        271,
        272,
        269,
        302,
        159,
        16,
        13,
        14,
        15,
        16,
        13,
        14,
        15,
        16,
        45,
        910,
        783,
        816,
        897,
        770,
        803,
        132,
        1,
        2,
        3,
        4,
        1,
        2,
        3,
        4,
        1,
        2,
        35,
        388,
        257,
        258,
        259,
        260,
        289,
        194,
        3,
        4,
        1,
        2,
        3,
        4,
        1,
        2,
        3,
        4,
        1,
        2,
        3,
        4,
        1,
        2,
        3,
        4,
        1,
        2,
        3,
        4,
        1,
        2,
        3,
        4,
        1,
        2,
        3,
        4,
        1,
        2,
        3,
        4,
        1,
        2,
        3,
        4,
        33,
        386,
        259,
        260,
        257,
        258,
        291,
        132,
        1,
        2,
        3,
        4,
        1,
        2,
        3,
        4,
        1,
        2,
        3,
        4,
        1,
        2,
        3,
        4,
        1,
        2,
        3,
        4,
        1,
        2,
        3,
        4,
        1,
        2,
        3,
        4,
        1,
        2,
        3,
        4,
        1,
        2,
        3,
        4,
        1,
        2,
        3,
        100,
        385,
        258,
        259,
        260,
        257,
        290,
        131,
        4,
        1,
        2,
        3,
        4,
        1,
        2,
        3,
        4,
        1,
        2,
        3,
        4,
        1,
        2,
        3,
        4,
        1,
        2,
        3,
        4,
        1,
        2,
        3,
        4,
        1,
        2,
        35,
        388,
        257,
        258,
        259,
        260,
        289,
        194,
        3,
        4,
        1,
        2,
        3,
        4,
        1,
        2,
        3,
        4,
        1,
        2,
        3,
        4,
        1,
        2,
        3,
        4,
        1,
        2,
        3,
        4,
        1,
        2,
        3,
        4,
        1,
        2,
        3,
        4,
        1,
        2,
        3,
        4,
        1,
        2,
        3,
        4,
        33,
        386,
        259,
        260,
        257,
        258,
        291,
        132,
        1,
        2,
        3,
        4,
        1,
        2,
        3,
        4,
        1,
        2,
        3,
        4,
        1,
        2,
        3,
        4,
        1,
        2,
        3,
        4,
        1,
        2,
        3,
        4,
        1,
        2,
        3,
        4,
        1,
        2,
        3,
        4,
        1,
        2,
        3,
        4,
        1,
        2,
        3,
        100,
        385,
        258,
        259,
        260,
        257,
        290,
        131,
        4,
        1,
        2,
        3,
        4,
        1,
        2,
        3,
        4,
        33,
        898,
        771,
        804,
        901,
        774,
        807,
        136,
        5,
        6,
        7,
        8,
        5,
        6,
        7,
        8,
        5,
        6,
        39,
        456,
        261,
        262,
        263,
        264,
        261,
        310,
        199,
        8,
        5,
        6,
        7,
        8,
        5,
        6,
        7,
        8,
        5,
        6,
        7,
        8,
        5,
        6,
        7,
        8,
        5,
        6,
        7,
        8,
        5,
        6,
        7,
        8,
        5,
        6,
        7,
        8,
        5,
        6,
        7,
        8,
        5,
        6,
        7,
        8,
        37,
        390,
        263,
        264,
        261,
        262,
        295,
        136,
        5,
        6,
        7,
        8,
        5,
        6,
        7,
        8,
        5,
        6,
        7,
        8,
        5,
        6,
        7,
        8,
        5,
        6,
        7,
        8,
        5,
        6,
        7,
        8,
        5,
        6,
        7,
        8,
        5,
        6,
        7,
        8,
        5,
        6,
        7,
        8,
        5,
        6,
        103,
        408,
        261,
        262,
        263,
        264,
        261,
        358,
        135,
        8,
        5,
        6,
        7,
        8,
        5,
        6,
        7,
        8,
        5,
        6,
        7,
        8,
        5,
        6,
        7,
        8,
        5,
        6,
        7,
        8,
        5,
        6,
        7,
        8,
        5,
        6,
        39,
        456,
        261,
        262,
        263,
        264,
        261,
        310,
        199,
        8,
        5,
        6,
        7,
        8,
        5,
        6,
        7,
        8,
        5,
        6,
        7,
        8,
        5,
        6,
        7,
        8,
        5,
        6,
        7,
        8,
        5,
        6,
        7,
        8,
        5,
        6,
        7,
        8,
        5,
        6,
        7,
        8,
        5,
        6,
        7,
        8,
        37,
        390,
        263,
        264,
        261,
        262,
        295,
        136,
        5,
        6,
        7,
        8,
        5,
        6,
        7,
        8,
        5,
        6,
        7,
        8,
        5,
        6,
        7,
        8,
        5,
        6,
        7,
        8,
        5,
        6,
        7,
        8,
        5,
        6,
        7,
        8,
        5,
        6,
        7,
        8,
        5,
        6,
        7,
        8,
        5,
        6,
        103,
        408,
        261,
        262,
        263,
        264,
        261,
        358,
        135,
        8,
        5,
        6,
        7,
        8,
        5,
        6,
        7,
        8,
        37,
        902,
        775,
        808,
        905,
        778,
        811,
        140,
        9,
        10,
        11,
        12,
        9,
        10,
        11,
        12,
        9,
        10,
        11,
        60,
        393,
        266,
        267,
        268,
        265,
        266,
        315,
        204,
        9,
        10,
        11,
        12,
        9,
        10,
        11,
        12,
        9,
        10,
        11,
        12,
        9,
        10,
        11,
        12,
        9,
        10,
        11,
        12,
        9,
        10,
        11,
        12,
        9,
        10,
        11,
        12,
        9,
        10,
        11,
        12,
        9,
        10,
        11,
        12,
        41,
        394,
        267,
        268,
        265,
        266,
        299,
        140,
        9,
        10,
        11,
        12,
        9,
        10,
        11,
        12,
        9,
        10,
        11,
        12,
        9,
        10,
        11,
        12,
        9,
        10,
        11,
        12,
        9,
        10,
        11,
        12,
        9,
        10,
        11,
        12,
        9,
        10,
        11,
        12,
        9,
        10,
        11,
        12,
        9,
        106,
        411,
        268,
        265,
        266,
        267,
        268,
        297,
        154,
        11,
        12,
        9,
        10,
        11,
        12,
        9,
        10,
        11,
        12,
        9,
        10,
        11,
        12,
        9,
        10,
        11,
        12,
        9,
        10,
        11,
        12,
        9,
        10,
        11,
        12,
        9,
        10,
        11,
        60,
        393,
        266,
        267,
        268,
        265,
        266,
        315,
        204,
        9,
        10,
        11,
        12,
        9,
        10,
        11,
        12,
        9,
        10,
        11,
        12,
        9,
        10,
        11,
        12,
        9,
        10,
        11,
        12,
        9,
        10,
        11,
        12,
        9,
        10,
        11,
        12,
        9,
        10,
        11,
        12,
        9,
        10,
        11,
        12,
        41,
        394,
        267,
        268,
        265,
        266,
        299,
        140,
        9,
        10,
        11,
        12,
        9,
        10,
        11,
        12,
        9,
        10,
        11,
        12,
        9,
        10,
        11,
        12,
        9,
        10,
        11,
        12,
        9,
        10,
        11,
        12,
        9,
        10,
        11,
        12,
        9,
        10,
        11,
        12,
        9,
        10,
        11,
        12,
        9,
        106,
        411,
        268,
        265,
        266,
        267,
        268,
        297,
        154,
        11,
        12,
        9,
        10,
        11,
        12,
        9,
        10,
        11,
        12,
        41,
        906,
        779,
        812,
        909,
        782,
        815,
        144,
        13,
        14,
        15,
        16,
        13,
        14,
        15,
        16,
        13,
        14,
        15,
        48,
        461,
        270,
        271,
        272,
        269,
        270,
        271,
        320,
        205,
        78,
        15,
        16,
        13,
        14,
        15,
        16,
        13,
        14,
        15,
        16,
        13,
        14,
        15,
        16,
        13,
        14,
        15,
        16,
        13,
        14,
        15,
        16,
        13,
        14,
        15,
        16,
        13,
        14,
        15,
        16,
        13,
        14,
        15,
        16,
        45,
        398,
        271,
        272,
        269,
        270,
        303,
        144,
        13,
        14,
        15,
        16,
        13,
        14,
        15,
        16,
        13,
        14,
        15,
        16,
        13,
        14,
        15,
        16,
        13,
        14,
        15,
        16,
        13,
        14,
        15,
        16,
        13,
        14,
        15,
        16,
        13,
        14,
        15,
        16,
        13,
        14,
        15,
        80,
        109,
        414,
        271,
        272,
        269,
        270,
        271,
        272,
        365,
        142,
        15,
        16,
        13,
        14,
        15,
        16,
        13,
        14,
        15,
        16,
        13,
        14,
        15,
        16,
        13,
        14,
        15,
        16,
        13,
        14,
        15,
        16,
        13,
        14,
        15,
        16,
        13,
        14,
        15,
        48,
        461,
        270,
        271,
        272,
        269,
        270,
        271,
        320,
        205,
        78,
        15,
        16,
        13,
        14,
        15,
        16,
        13,
        14,
        15,
        16,
        13,
        14,
        15,
        16,
        13,
        14,
        15,
        16,
        13,
        14,
        15,
        16,
        13,
        14,
        15,
        16,
        13,
        14,
        15,
        16,
        13,
        14,
        15,
        16,
        45,
        398,
        271,
        272,
        269,
        270,
        303,
        144,
        13,
        14,
        15,
        16,
        13,
        14,
        15,
        16,
        13,
        14,
        15,
        16,
        13,
        14,
        15,
        16,
        13,
        14,
        15,
        16,
        13,
        14,
        15,
        16,
        13,
        14,
        15,
        16,
        13,
        14,
        15,
        16,
        13,
        14,
        15,
        80,
        109,
        414,
        271,
        272,
        269,
        270,
        271,
        272,
        365,
        142,
        15,
        16,
        13,
        14,
        15,
        16,
        13,
        14,
        15,
        16,
        45,
        910,
        783,
        816,
        897,
        770,
        803,
        132,
        1,
        2,
        3,
        4,
        1,
        2,
        3,
        4,
        1,
        2,
        3,
        4,
        49,
        450,
        259,
        260,
        257,
        258,
        259,
        260,
        273,
        306,
        195,
        68,
        65,
        66,
        67,
        68,
        65,
        66,
        67,
        68,
        65,
        66,
        67,
        68,
        65,
        66,
        67,
        68,
        65,
        66,
        67,
        68,
        65,
        66,
        67,
        68,
        65,
        66,
        67,
        68,
        65,
        66,
        67,
        68,
        97,
        386,
        259,
        260,
        257,
        258,
        291,
        196,
        65,
        66,
        67,
        68,
        65,
        66,
        67,
        68,
        65,
        66,
        67,
        68,
        65,
        66,
        67,
        68,
        65,
        66,
        67,
        68,
        65,
        66,
        67,
        68,
        65,
        66,
        67,
        68,
        65,
        66,
        67,
        68,
        65,
        66,
        99,
        404,
        273,
        258,
        259,
        260,
        257,
        258,
        259,
        356,
        145,
        2,
        3,
        4,
        1,
        2,
        3,
        4,
        1,
        2,
        3,
        4,
        1,
        2,
        3,
        4,
        1,
        2,
        3,
        4,
        1,
        2,
        3,
        4,
        1,
        2,
        3,
        4,
        1,
        2,
        3,
        4,
        49,
        450,
        259,
        260,
        257,
        258,
        259,
        260,
        273,
        306,
        195,
        68,
        65,
        66,
        67,
        68,
        65,
        66,
        67,
        68,
        65,
        66,
        67,
        68,
        65,
        66,
        67,
        68,
        65,
        66,
        67,
        68,
        65,
        66,
        67,
        68,
        65,
        66,
        67,
        68,
        65,
        66,
        67,
        68,
        97,
        386,
        259,
        260,
        257,
        258,
        291,
        196,
        65,
        66,
        67,
        68,
        65,
        66,
        67,
        68,
        65,
        66,
        67,
        68,
        65,
        66,
        67,
        68,
        65,
        66,
        67,
        68,
        65,
        66,
        67,
        68,
        65,
        66,
        67,
        68,
        65,
        66,
        67,
        68,
        65,
        66,
        99,
        404,
        273,
        258,
        259,
        260,
        257,
        258,
        259,
        356,
        145,
        2,
        3,
        4,
        1,
        2,
        3,
        4,
        1,
        2,
        3,
        4,
        33,
        898,
        771,
        804,
        901,
        774,
        807,
        136,
        5,
        6,
        7,
        8,
        5,
        6,
        7,
        8,
        5,
        6,
        7,
        8,
        5,
        54,
        455,
        264,
        261,
        262,
        263,
        264,
        261,
        262,
        279,
        280,
        277,
        278,
        279,
        280,
        277,
        278,
        279,
        280,
        277,
        278,
        279,
        280,
        277,
        278,
        279,
        280,
        277,
        278,
        279,
        280,
        277,
        278,
        279,
        280,
        277,
        278,
        279,
        280,
        277,
        278,
        279,
        280,
        277,
        262,
        263,
        264,
        261,
        262,
        263,
        280,
        277,
        278,
        279,
        280,
        277,
        278,
        279,
        280,
        277,
        278,
        279,
        280,
        277,
        278,
        279,
        280,
        277,
        278,
        279,
        280,
        277,
        278,
        279,
        280,
        277,
        278,
        279,
        280,
        277,
        278,
        279,
        280,
        277,
        278,
        279,
        264,
        261,
        262,
        263,
        264,
        261,
        262,
        359,
        152,
        5,
        6,
        7,
        8,
        5,
        6,
        7,
        8,
        5,
        6,
        7,
        8,
        5,
        6,
        7,
        8,
        5,
        6,
        7,
        8,
        5,
        6,
        7,
        8,
        5,
        6,
        7,
        8,
        5,
        6,
        7,
        8,
        5,
        54,
        455,
        264,
        261,
        262,
        263,
        264,
        261,
        262,
        279,
        280,
        277,
        278,
        279,
        280,
        277,
        278,
        279,
        280,
        277,
        278,
        279,
        280,
        277,
        278,
        279,
        280,
        277,
        278,
        279,
        280,
        277,
        278,
        279,
        280,
        277,
        278,
        279,
        280,
        277,
        278,
        279,
        280,
        277,
        262,
        263,
        264,
        261,
        262,
        263,
        280,
        277,
        278,
        279,
        280,
        277,
        278,
        279,
        280,
        277,
        278,
        279,
        280,
        277,
        278,
        279,
        280,
        277,
        278,
        279,
        280,
        277,
        278,
        279,
        280,
        277,
        278,
        279,
        280,
        277,
        278,
        279,
        280,
        277,
        278,
        279,
        264,
        261,
        262,
        263,
        264,
        261,
        262,
        359,
        152,
        5,
        6,
        7,
        8,
        5,
        6,
        7,
        8,
        5,
        6,
        7,
        8,
        37,
        902,
        775,
        808,
        905,
        778,
        811,
        140,
        9,
        10,
        11,
        12,
        9,
        10,
        11,
        12,
        9,
        10,
        11,
        12,
        9,
        10,
        59,
        460,
        265,
        266,
        267,
        268,
        265,
        266,
        267,
        268,
        265,
        266,
        267,
        268,
        265,
        266,
        267,
        268,
        265,
        266,
        267,
        268,
        265,
        266,
        267,
        268,
        265,
        266,
        267,
        268,
        265,
        266,
        267,
        268,
        265,
        266,
        267,
        268,
        265,
        266,
        267,
        268,
        265,
        266,
        267,
        268,
        265,
        266,
        267,
        268,
        265,
        266,
        267,
        268,
        265,
        266,
        267,
        268,
        265,
        266,
        267,
        268,
        265,
        266,
        267,
        268,
        265,
        266,
        267,
        268,
        265,
        266,
        267,
        268,
        265,
        266,
        267,
        268,
        265,
        266,
        267,
        268,
        265,
        266,
        267,
        268,
        265,
        266,
        267,
        268,
        265,
        362,
        155,
        12,
        9,
        10,
        11,
        12,
        9,
        10,
        11,
        12,
        9,
        10,
        11,
        12,
        9,
        10,
        11,
        12,
        9,
        10,
        11,
        12,
        9,
        10,
        11,
        12,
        9,
        10,
        11,
        12,
        9,
        10,
        11,
        12,
        9,
        10,
        59,
        460,
        265,
        266,
        267,
        268,
        265,
        266,
        267,
        268,
        265,
        266,
        267,
        268,
        265,
        266,
        267,
        268,
        265,
        266,
        267,
        268,
        265,
        266,
        267,
        268,
        265,
        266,
        267,
        268,
        265,
        266,
        267,
        268,
        265,
        266,
        267,
        268,
        265,
        266,
        267,
        268,
        265,
        266,
        267,
        268,
        265,
        266,
        267,
        268,
        265,
        266,
        267,
        268,
        265,
        266,
        267,
        268,
        265,
        266,
        267,
        268,
        265,
        266,
        267,
        268,
        265,
        266,
        267,
        268,
        265,
        266,
        267,
        268,
        265,
        266,
        267,
        268,
        265,
        266,
        267,
        268,
        265,
        266,
        267,
        268,
        265,
        266,
        267,
        268,
        265,
        362,
        155,
        12,
        9,
        10,
        11,
        12,
        9,
        10,
        11,
        12,
        9,
        10,
        11,
        12,
        41,
        906,
        779,
        812,
        909,
        782,
        815,
        144,
        13,
        14,
        15,
        16,
        13,
        14,
        15,
        16,
        13,
        14,
        15,
        16,
        13,
        14,
        15,
        64,
        461,
        270,
        271,
        272,
        269,
        270,
        271,
        272,
        269,
        270,
        271,
        272,
        269,
        270,
        271,
        272,
        269,
        270,
        271,
        272,
        269,
        270,
        271,
        272,
        269,
        270,
        271,
        272,
        269,
        270,
        271,
        272,
        269,
        270,
        271,
        272,
        269,
        270,
        271,
        272,
        269,
        270,
        271,
        272,
        269,
        270,
        271,
        272,
        269,
        270,
        271,
        272,
        269,
        270,
        271,
        272,
        269,
        270,
        271,
        272,
        269,
        270,
        271,
        272,
        269,
        270,
        271,
        272,
        269,
        270,
        271,
        272,
        269,
        270,
        271,
        272,
        269,
        270,
        271,
        272,
        269,
        270,
        271,
        272,
        269,
        270,
        271,
        272,
        365,
        158,
        15,
        16,
        13,
        14,
        15,
        16,
        13,
        14,
        15,
        16,
        13,
        14,
        15,
        16,
        13,
        14,
        15,
        16,
        13,
        14,
        15,
        16,
        13,
        14,
        15,
        16,
        13,
        14,
        15,
        16,
        13,
        14,
        15,
        16,
        13,
        14,
        15,
        64,
        461,
        270,
        271,
        272,
        269,
        270,
        271,
        272,
        269,
        270,
        271,
        272,
        269,
        270,
        271,
        272,
        269,
        270,
        271,
        272,
        269,
        270,
        271,
        272,
        269,
        270,
        271,
        272,
        269,
        270,
        271,
        272,
        269,
        270,
        271,
        272,
        269,
        270,
        271,
        272,
        269,
        270,
        271,
        272,
        269,
        270,
        271,
        272,
        269,
        270,
        271,
        272,
        269,
        270,
        271,
        272,
        269,
        270,
        271,
        272,
        269,
        270,
        271,
        272,
        269,
        270,
        271,
        272,
        269,
        270,
        271,
        272,
        269,
        270,
        271,
        272,
        269,
        270,
        271,
        272,
        269,
        270,
        271,
        272,
        269,
        270,
        271,
        272,
        365,
        158,
        15,
        16,
        13,
        14,
        15,
        16,
        13,
        14,
        15,
        16,
        13,
        14,
        15,
        16,
        45,
        910,
        783,
        816,
        897,
        770,
        803,
        132,
        1,
        2,
        3,
        4,
        1,
        2,
        3,
        4,
        1,
        2,
        3,
        4,
        1,
        2,
        3,
        4,
        49,
        450,
        323,
        260,
        257,
        258,
        259,
        260,
        257,
        258,
        259,
        260,
        257,
        258,
        259,
        260,
        257,
        258,
        259,
        260,
        257,
        258,
        259,
        260,
        257,
        258,
        259,
        260,
        257,
        258,
        259,
        260,
        257,
        258,
        259,
        260,
        257,
        258,
        259,
        260,
        257,
        258,
        259,
        260,
        257,
        258,
        259,
        260,
        257,
        258,
        259,
        260,
        257,
        258,
        259,
        260,
        257,
        258,
        259,
        260,
        257,
        258,
        259,
        260,
        257,
        258,
        259,
        260,
        257,
        258,
        259,
        260,
        257,
        258,
        259,
        260,
        257,
        258,
        259,
        260,
        257,
        258,
        259,
        260,
        257,
        258,
        323,
        356,
        145,
        2,
        3,
        4,
        1,
        2,
        3,
        4,
        1,
        2,
        3,
        4,
        1,
        2,
        3,
        4,
        1,
        2,
        3,
        4,
        1,
        2,
        3,
        4,
        1,
        2,
        3,
        4,
        1,
        2,
        3,
        4,
        1,
        2,
        3,
        4,
        1,
        2,
        3,
        4,
        49,
        450,
        323,
        260,
        257,
        258,
        259,
        260,
        257,
        258,
        259,
        260,
        257,
        258,
        259,
        260,
        257,
        258,
        259,
        260,
        257,
        258,
        259,
        260,
        257,
        258,
        259,
        260,
        257,
        258,
        259,
        260,
        257,
        258,
        259,
        260,
        257,
        258,
        259,
        260,
        257,
        258,
        259,
        260,
        257,
        258,
        259,
        260,
        257,
        258,
        259,
        260,
        257,
        258,
        259,
        260,
        257,
        258,
        259,
        260,
        257,
        258,
        259,
        260,
        257,
        258,
        259,
        260,
        257,
        258,
        259,
        260,
        257,
        258,
        259,
        260,
        257,
        258,
        259,
        260,
        257,
        258,
        259,
        260,
        257,
        258,
        323,
        356,
        145,
        2,
        3,
        4,
        1,
        2,
        3,
        4,
        1,
        2,
        3,
        4,
        1,
        2,
        3,
        4,
        33,
        898,
        771,
        804,
        901,
        774,
        807,
        136,
        5,
        6,
        7,
        8,
        5,
        6,
        7,
        8,
        5,
        6,
        7,
        8,
        5,
        6,
        7,
        8,
        5,
        22,
        55,
        456,
        325,
        326,
        263,
        264,
        261,
        262,
        263,
        264,
        261,
        262,
        263,
        264,
        261,
        262,
        263,
        264,
        261,
        262,
        263,
        264,
        261,
        262,
        263,
        264,
        261,
        262,
        263,
        264,
        261,
        262,
        263,
        264,
        261,
        262,
        263,
        264,
        261,
        262,
        263,
        264,
        261,
        262,
        263,
        264,
        261,
        262,
        263,
        264,
        261,
        262,
        263,
        264,
        261,
        262,
        263,
        264,
        261,
        262,
        263,
        264,
        261,
        262,
        263,
        264,
        261,
        262,
        263,
        264,
        261,
        262,
        263,
        264,
        261,
        262,
        263,
        264,
        261,
        262,
        263,
        328,
        325,
        358,
        151,
        24,
        5,
        6,
        7,
        8,
        5,
        6,
        7,
        8,
        5,
        6,
        7,
        8,
        5,
        6,
        7,
        8,
        5,
        6,
        7,
        8,
        5,
        6,
        7,
        8,
        5,
        6,
        7,
        8,
        5,
        6,
        7,
        8,
        5,
        6,
        7,
        8,
        5,
        6,
        7,
        8,
        5,
        22,
        55,
        456,
        325,
        326,
        263,
        264,
        261,
        262,
        263,
        264,
        261,
        262,
        263,
        264,
        261,
        262,
        263,
        264,
        261,
        262,
        263,
        264,
        261,
        262,
        263,
        264,
        261,
        262,
        263,
        264,
        261,
        262,
        263,
        264,
        261,
        262,
        263,
        264,
        261,
        262,
        263,
        264,
        261,
        262,
        263,
        264,
        261,
        262,
        263,
        264,
        261,
        262,
        263,
        264,
        261,
        262,
        263,
        264,
        261,
        262,
        263,
        264,
        261,
        262,
        263,
        264,
        261,
        262,
        263,
        264,
        261,
        262,
        263,
        264,
        261,
        262,
        263,
        264,
        261,
        262,
        263,
        328,
        325,
        358,
        151,
        24,
        5,
        6,
        7,
        8,
        5,
        6,
        7,
        8,
        5,
        6,
        7,
        8,
        5,
        6,
        7,
        8,
        37,
        902,
        775,
        808,
        905,
        778,
        811,
        140,
        9,
        10,
        11,
        12,
        9,
        10,
        11,
        12,
        9,
        10,
        11,
        12,
        9,
        10,
        11,
        12,
        9,
        10,
        11,
        28,
        25,
        58,
        459,
        332,
        329,
        330,
        331,
        332,
        329,
        330,
        331,
        332,
        329,
        330,
        331,
        332,
        329,
        330,
        331,
        332,
        329,
        330,
        331,
        332,
        329,
        330,
        331,
        332,
        329,
        330,
        331,
        332,
        329,
        330,
        331,
        332,
        329,
        330,
        331,
        332,
        329,
        330,
        331,
        332,
        329,
        330,
        331,
        332,
        329,
        330,
        331,
        332,
        329,
        330,
        331,
        332,
        329,
        330,
        331,
        332,
        329,
        330,
        331,
        332,
        329,
        330,
        331,
        332,
        329,
        330,
        331,
        332,
        329,
        330,
        331,
        332,
        329,
        330,
        363,
        156,
        25,
        26,
        11,
        12,
        9,
        10,
        11,
        12,
        9,
        10,
        11,
        12,
        9,
        10,
        11,
        12,
        9,
        10,
        11,
        12,
        9,
        10,
        11,
        12,
        9,
        10,
        11,
        12,
        9,
        10,
        11,
        12,
        9,
        10,
        11,
        12,
        9,
        10,
        11,
        12,
        9,
        10,
        11,
        12,
        9,
        10,
        11,
        28,
        25,
        58,
        459,
        332,
        329,
        330,
        331,
        332,
        329,
        330,
        331,
        332,
        329,
        330,
        331,
        332,
        329,
        330,
        331,
        332,
        329,
        330,
        331,
        332,
        329,
        330,
        331,
        332,
        329,
        330,
        331,
        332,
        329,
        330,
        331,
        332,
        329,
        330,
        331,
        332,
        329,
        330,
        331,
        332,
        329,
        330,
        331,
        332,
        329,
        330,
        331,
        332,
        329,
        330,
        331,
        332,
        329,
        330,
        331,
        332,
        329,
        330,
        331,
        332,
        329,
        330,
        331,
        332,
        329,
        330,
        331,
        332,
        329,
        330,
        331,
        332,
        329,
        330,
        363,
        156,
        25,
        26,
        11,
        12,
        9,
        10,
        11,
        12,
        9,
        10,
        11,
        12,
        9,
        10,
        11,
        12,
        9,
        10,
        11,
        12,
        41,
        906,
        779,
        812,
        909,
        782,
        815,
        144,
        13,
        14,
        15,
        16,
        13,
        14,
        15,
        16,
        13,
        14,
        15,
        16,
        13,
        14,
        15,
        16,
        13,
        14,
        15,
        16,
        13,
        14,
        31,
        32,
        29,
        30,
        31,
        32,
        29,
        30,
        31,
        32,
        29,
        30,
        31,
        32,
        29,
        30,
        31,
        32,
        29,
        30,
        31,
        32,
        29,
        30,
        31,
        32,
        29,
        30,
        31,
        32,
        29,
        30,
        31,
        32,
        29,
        30,
        31,
        32,
        29,
        30,
        31,
        32,
        29,
        30,
        31,
        32,
        29,
        30,
        31,
        32,
        29,
        30,
        31,
        32,
        29,
        30,
        31,
        32,
        29,
        30,
        31,
        32,
        29,
        30,
        31,
        32,
        29,
        30,
        31,
        32,
        29,
        30,
        31,
        32,
        29,
        30,
        31,
        16,
        13,
        14,
        15,
        16,
        13,
        14,
        15,
        16,
        13,
        14,
        15,
        16,
        13,
        14,
        15,
        16,
        13,
        14,
        15,
        16,
        13,
        14,
        15,
        16,
        13,
        14,
        15,
        16,
        13,
        14,
        15,
        16,
        13,
        14,
        15,
        16,
        13,
        14,
        15,
        16,
        13,
        14,
        15,
        16,
        13,
        14,
        15,
        16,
        13,
        14,
        31,
        32,
        29,
        30,
        31,
        32,
        29,
        30,
        31,
        32,
        29,
        30,
        31,
        32,
        29,
        30,
        31,
        32,
        29,
        30,
        31,
        32,
        29,
        30,
        31,
        32,
        29,
        30,
        31,
        32,
        29,
        30,
        31,
        32,
        29,
        30,
        31,
        32,
        29,
        30,
        31,
        32,
        29,
        30,
        31,
        32,
        29,
        30,
        31,
        32,
        29,
        30,
        31,
        32,
        29,
        30,
        31,
        32,
        29,
        30,
        31,
        32,
        29,
        30,
        31,
        32,
        29,
        30,
        31,
        32,
        29,
        30,
        31,
        32,
        29,
        30,
        31,
        16,
        13,
        14,
        15,
        16,
        13,
        14,
        15,
        16,
        13,
        14,
        15,
        16,
        13,
        14,
        15,
        16,
        13,
        14,
        15,
        16,
        45,
        910,
        783,
        816,
        897,
        770,
        803,
        132,
        1,
        2,
        3,
        4,
        1,
        2,
        3,
        4,
        1,
        2,
        3,
        4,
        1,
        2,
        3,
        4,
        1,
        2,
        3,
        4,
        1,
        2,
        3,
        4,
        1,
        2,
        3,
        4,
        1,
        2,
        3,
        4,
        1,
        2,
        3,
        4,
        1,
        2,
        3,
        4,
        1,
        2,
        3,
        4,
        1,
        2,
        3,
        4,
        1,
        2,
        3,
        4,
        1,
        2,
        3,
        4,
        1,
        2,
        3,
        4,
        1,
        2,
        3,
        4,
        1,
        2,
        3,
        4,
        1,
        2,
        3,
        4,
        1,
        2,
        3,
        4,
        1,
        2,
        3,
        4,
        1,
        2,
        3,
        4,
        1,
        2,
        3,
        4,
        1,
        2,
        3,
        4,
        1,
        2,
        3,
        4,
        1,
        2,
        3,
        4,
        1,
        2,
        3,
        4,
        1,
        2,
        3,
        4,
        1,
        2,
        3,
        4,
        1,
        2,
        3,
        4,
        1,
        2,
        3,
        4,
        1,
        2,
        3,
        4,
        1,
        2,
        3,
        4,
        1,
        2,
        3,
        4,
        1,
        2,
        3,
        4,
        1,
        2,
        3,
        4,
        1,
        2,
        3,
        4,
        1,
        2,
        3,
        4,
        1,
        2,
        3,
        4,
        1,
        2,
        3,
        4,
        1,
        2,
        3,
        4,
        1,
        2,
        3,
        4,
        1,
        2,
        3,
        4,
        1,
        2,
        3,
        4,
        1,
        2,
        3,
        4,
        1,
        2,
        3,
        4,
        1,
        2,
        3,
        4,
        1,
        2,
        3,
        4,
        1,
        2,
        3,
        4,
        1,
        2,
        3,
        4,
        1,
        2,
        3,
        4,
        1,
        2,
        3,
        4,
        1,
        2,
        3,
        4,
        1,
        2,
        3,
        4,
        1,
        2,
        3,
        4,
        1,
        2,
        3,
        4,
        1,
        2,
        3,
        4,
        1,
        2,
        3,
        4,
        1,
        2,
        3,
        4,
        1,
        2,
        3,
        4,
        1,
        2,
        3,
        4,
        1,
        2,
        3,
        4,
        1,
        2,
        3,
        4,
        33,
        898,
        771,
        804,
        901,
        774,
        807,
        136,
        5,
        6,
        7,
        8,
        5,
        6,
        7,
        8,
        5,
        6,
        7,
        8,
        5,
        6,
        7,
        8,
        5,
        6,
        7,
        8,
        5,
        6,
        7,
        8,
        5,
        6,
        7,
        8,
        5,
        6,
        7,
        8,
        5,
        6,
        7,
        8,
        5,
        6,
        7,
        8,
        5,
        6,
        7,
        8,
        5,
        6,
        7,
        8,
        5,
        6,
        7,
        8,
        5,
        6,
        7,
        8,
        5,
        6,
        7,
        8,
        5,
        6,
        7,
        8,
        5,
        6,
        7,
        8,
        5,
        6,
        7,
        8,
        5,
        6,
        7,
        8,
        5,
        6,
        7,
        8,
        5,
        6,
        7,
        8,
        5,
        6,
        7,
        8,
        5,
        6,
        7,
        8,
        5,
        6,
        7,
        8,
        5,
        6,
        7,
        8,
        5,
        6,
        7,
        8,
        5,
        6,
        7,
        8,
        5,
        6,
        7,
        8,
        5,
        6,
        7,
        8,
        5,
        6,
        7,
        8,
        5,
        6,
        7,
        8,
        5,
        6,
        7,
        8,
        5,
        6,
        7,
        8,
        5,
        6,
        7,
        8,
        5,
        6,
        7,
        8,
        5,
        6,
        7,
        8,
        5,
        6,
        7,
        8,
        5,
        6,
        7,
        8,
        5,
        6,
        7,
        8,
        5,
        6,
        7,
        8,
        5,
        6,
        7,
        8,
        5,
        6,
        7,
        8,
        5,
        6,
        7,
        8,
        5,
        6,
        7,
        8,
        5,
        6,
        7,
        8,
        5,
        6,
        7,
        8,
        5,
        6,
        7,
        8,
        5,
        6,
        7,
        8,
        5,
        6,
        7,
        8,
        5,
        6,
        7,
        8,
        5,
        6,
        7,
        8,
        5,
        6,
        7,
        8,
        5,
        6,
        7,
        8,
        5,
        6,
        7,
        8,
        5,
        6,
        7,
        8,
        5,
        6,
        7,
        8,
        5,
        6,
        7,
        8,
        5,
        6,
        7,
        8,
        5,
        6,
        7,
        8,
        5,
        6,
        7,
        8,
        5,
        6,
        7,
        8,
        5,
        6,
        7,
        8,
        37,
        902,
        775,
        808,
        905,
        778,
        811,
        140,
        9,
        10,
        11,
        12,
        9,
        10,
        11,
        12,
        9,
        10,
        11,
        12,
        9,
        10,
        11,
        12,
        9,
        10,
        11,
        12,
        9,
        10,
        11,
        12,
        9,
        10,
        11,
        12,
        9,
        10,
        11,
        12,
        9,
        10,
        11,
        12,
        9,
        10,
        11,
        12,
        9,
        10,
        11,
        12,
        9,
        10,
        11,
        12,
        9,
        10,
        11,
        12,
        9,
        10,
        11,
        12,
        9,
        10,
        11,
        12,
        9,
        10,
        11,
        12,
        9,
        10,
        11,
        12,
        9,
        10,
        11,
        12,
        9,
        10,
        11,
        12,
        9,
        10,
        11,
        12,
        9,
        10,
        11,
        12,
        9,
        10,
        11,
        12,
        9,
        10,
        11,
        12,
        9,
        10,
        11,
        12,
        9,
        10,
        11,
        12,
        9,
        10,
        11,
        12,
        9,
        10,
        11,
        12,
        9,
        10,
        11,
        12,
        9,
        10,
        11,
        12,
        9,
        10,
        11,
        12,
        9,
        10,
        11,
        12,
        9,
        10,
        11,
        12,
        9,
        10,
        11,
        12,
        9,
        10,
        11,
        12,
        9,
        10,
        11,
        12,
        9,
        10,
        11,
        12,
        9,
        10,
        11,
        12,
        9,
        10,
        11,
        12,
        9,
        10,
        11,
        12,
        9,
        10,
        11,
        12,
        9,
        10,
        11,
        12,
        9,
        10,
        11,
        12,
        9,
        10,
        11,
        12,
        9,
        10,
        11,
        12,
        9,
        10,
        11,
        12,
        9,
        10,
        11,
        12,
        9,
        10,
        11,
        12,
        9,
        10,
        11,
        12,
        9,
        10,
        11,
        12,
        9,
        10,
        11,
        12,
        9,
        10,
        11,
        12,
        9,
        10,
        11,
        12,
        9,
        10,
        11,
        12,
        9,
        10,
        11,
        12,
        9,
        10,
        11,
        12,
        9,
        10,
        11,
        12,
        9,
        10,
        11,
        12,
        9,
        10,
        11,
        12,
        9,
        10,
        11,
        12,
        9,
        10,
        11,
        12,
        9,
        10,
        11,
        12,
        9,
        10,
        11,
        12,
        41,
        906,
        779,
        812,
        909,
        782,
        815,
        144,
        13,
        14,
        15,
        16,
        13,
        14,
        15,
        16,
        13,
        14,
        15,
        16,
        13,
        14,
        15,
        16,
        13,
        14,
        15,
        16,
        13,
        14,
        15,
        16,
        13,
        14,
        15,
        16,
        13,
        14,
        15,
        16,
        13,
        14,
        15,
        16,
        13,
        14,
        15,
        16,
        13,
        14,
        15,
        16,
        13,
        14,
        15,
        16,
        13,
        14,
        15,
        16,
        13,
        14,
        15,
        16,
        13,
        14,
        15,
        16,
        13,
        14,
        15,
        16,
        13,
        14,
        15,
        16,
        13,
        14,
        15,
        16,
        13,
        14,
        15,
        16,
        13,
        14,
        15,
        16,
        13,
        14,
        15,
        16,
        13,
        14,
        15,
        16,
        13,
        14,
        15,
        16,
        13,
        14,
        15,
        16,
        13,
        14,
        15,
        16,
        13,
        14,
        15,
        16,
        13,
        14,
        15,
        16,
        13,
        14,
        15,
        16,
        13,
        14,
        15,
        16,
        13,
        14,
        15,
        16,
        13,
        14,
        15,
        16,
        13,
        14,
        15,
        16,
        13,
        14,
        15,
        16,
        13,
        14,
        15,
        16,
        13,
        14,
        15,
        16,
        13,
        14,
        15,
        16,
        13,
        14,
        15,
        16,
        13,
        14,
        15,
        16,
        13,
        14,
        15,
        16,
        13,
        14,
        15,
        16,
        13,
        14,
        15,
        16,
        13,
        14,
        15,
        16,
        13,
        14,
        15,
        16,
        13,
        14,
        15,
        16,
        13,
        14,
        15,
        16,
        13,
        14,
        15,
        16,
        13,
        14,
        15,
        16,
        13,
        14,
        15,
        16,
        13,
        14,
        15,
        16,
        13,
        14,
        15,
        16,
        13,
        14,
        15,
        16,
        13,
        14,
        15,
        16,
        13,
        14,
        15,
        16,
        13,
        14,
        15,
        16,
        13,
        14,
        15,
        16,
        13,
        14,
        15,
        16,
        13,
        14,
        15,
        16,
        13,
        14,
        15,
        16,
        13,
        14,
        15,
        16,
        13,
        14,
        15,
        16,
        13,
        14,
        15,
        16,
        13,
        14,
        15,
        16,
        45,
        910,
        783,
        816,
        897,
        770,
        803,
        132,
        1,
        2,
        3,
        4,
        1,
        2,
        3,
        4,
        1,
        2,
        3,
        4,
        1,
        2,
        3,
        4,
        1,
        2,
        3,
        4,
        1,
        2,
        3,
        4,
        1,
        2,
        3,
        4,
        1,
        2,
        3,
        4,
        1,
        2,
        3,
        4,
        1,
        2,
        3,
        4,
        1,
        2,
        3,
        4,
        1,
        2,
        3,
        4,
        1,
        2,
        3,
        4,
        1,
        2,
        3,
        4,
        1,
        2,
        3,
        4,
        1,
        2,
        3,
        4,
        1,
        2,
        3,
        4,
        1,
        2,
        3,
        4,
        1,
        2,
        3,
        4,
        1,
        2,
        3,
        4,
        1,
        2,
        3,
        4,
        1,
        2,
        3,
        4,
        1,
        2,
        3,
        4,
        1,
        2,
        3,
        4,
        1,
        2,
        3,
        4,
        1,
        2,
        3,
        4,
        1,
        2,
        3,
        4,
        1,
        2,
        3,
        4,
        1,
        2,
        3,
        4,
        1,
        2,
        3,
        4,
        1,
        2,
        3,
        4,
        1,
        2,
        3,
        4,
        1,
        2,
        3,
        4,
        1,
        2,
        3,
        4,
        1,
        2,
        3,
        4,
        1,
        2,
        3,
        4,
        1,
        2,
        3,
        4,
        1,
        2,
        3,
        4,
        1,
        2,
        3,
        4,
        1,
        2,
        3,
        4,
        1,
        2,
        3,
        4,
        1,
        2,
        3,
        4,
        1,
        2,
        3,
        4,
        1,
        2,
        3,
        4,
        1,
        2,
        3,
        4,
        1,
        2,
        3,
        4,
        1,
        2,
        3,
        4,
        1,
        2,
        3,
        4,
        1,
        2,
        3,
        4,
        1,
        2,
        3,
        4,
        1,
        2,
        3,
        4,
        1,
        2,
        3,
        4,
        1,
        2,
        3,
        4,
        1,
        2,
        3,
        4,
        1,
        2,
        3,
        4,
        1,
        2,
        3,
        4,
        1,
        2,
        3,
        4,
        1,
        2,
        3,
        4,
        1,
        2,
        3,
        4,
        1,
        2,
        3,
        4,
        1,
        2,
        3,
        4,
        1,
        2,
        3,
        4,
        33,
        898,
        771,
        804,
        901,
        774,
        807,
        136,
        5,
        6,
        7,
        8,
        5,
        6,
        7,
        8,
        5,
        6,
        7,
        8,
        5,
        6,
        7,
        8,
        5,
        6,
        7,
        8,
        5,
        6,
        7,
        8,
        5,
        6,
        7,
        8,
        5,
        6,
        7,
        8,
        5,
        6,
        7,
        8,
        5,
        6,
        7,
        8,
        5,
        6,
        7,
        8,
        5,
        6,
        7,
        8,
        5,
        6,
        7,
        8,
        5,
        6,
        7,
        8,
        5,
        6,
        7,
        8,
        5,
        6,
        7,
        8,
        5,
        6,
        7,
        8,
        5,
        6,
        7,
        8,
        5,
        6,
        7,
        8,
        5,
        6,
        7,
        8,
        5,
        6,
        7,
        8,
        5,
        6,
        7,
        8,
        5,
        6,
        7,
        8,
        5,
        6,
        7,
        8,
        5,
        6,
        7,
        8,
        5,
        6,
        7,
        8,
        5,
        6,
        7,
        8,
        5,
        6,
        7,
        8,
        5,
        6,
        7,
        8,
        5,
        6,
        7,
        8,
        5,
        6,
        7,
        8,
        5,
        6,
        7,
        8,
        5,
        6,
        7,
        8,
        5,
        6,
        7,
        8,
        5,
        6,
        7,
        8,
        5,
        6,
        7,
        8,
        5,
        6,
        7,
        8,
        5,
        6,
        7,
        8,
        5,
        6,
        7,
        8,
        5,
        6,
        7,
        8,
        5,
        6,
        7,
        8,
        5,
        6,
        7,
        8,
        5,
        6,
        7,
        8,
        5,
        6,
        7,
        8,
        5,
        6,
        7,
        8,
        5,
        6,
        7,
        8,
        5,
        6,
        7,
        8,
        5,
        6,
        7,
        8,
        5,
        6,
        7,
        8,
        5,
        6,
        7,
        8,
        5,
        6,
        7,
        8,
        5,
        6,
        7,
        8,
        5,
        6,
        7,
        8,
        5,
        6,
        7,
        8,
        5,
        6,
        7,
        8,
        5,
        6,
        7,
        8,
        5,
        6,
        7,
        8,
        5,
        6,
        7,
        8,
        5,
        6,
        7,
        8,
        5,
        6,
        7,
        8,
        5,
        6,
        7,
        8,
        5,
        6,
        7,
        8,
        37,
        902,
        775,
        808,
        905,
        778,
        811,
        140,
        9,
        10,
        11,
        12,
        9,
        10,
        11,
        12,
        9,
        10,
        11,
        12,
        9,
        10,
        11,
        12,
        9,
        10,
        11,
        12,
        9,
        10,
        11,
        12,
        9,
        10,
        11,
        12,
        9,
        10,
        11,
        12,
        9,
        10,
        11,
        12,
        9,
        10,
        11,
        12,
        9,
        10,
        11,
        12,
        9,
        10,
        11,
        12,
        9,
        10,
        11,
        12,
        9,
        10,
        11,
        12,
        9,
        10,
        11,
        12,
        9,
        10,
        11,
        12,
        9,
        10,
        11,
        12,
        9,
        10,
        11,
        12,
        9,
        10,
        11,
        12,
        9,
        10,
        11,
        12,
        9,
        10,
        11,
        12,
        9,
        10,
        11,
        12,
        9,
        10,
        11,
        12,
        9,
        10,
        11,
        12,
        9,
        10,
        11,
        12,
        9,
        10,
        11,
        12,
        9,
        10,
        11,
        12,
        9,
        10,
        11,
        12,
        9,
        10,
        11,
        12,
        9,
        10,
        11,
        12,
        9,
        10,
        11,
        12,
        9,
        10,
        11,
        12,
        9,
        10,
        11,
        12,
        9,
        10,
        11,
        12,
        9,
        10,
        11,
        12,
        9,
        10,
        11,
        12,
        9,
        10,
        11,
        12,
        9,
        10,
        11,
        12,
        9,
        10,
        11,
        12,
        9,
        10,
        11,
        12,
        9,
        10,
        11,
        12,
        9,
        10,
        11,
        12,
        9,
        10,
        11,
        12,
        9,
        10,
        11,
        12,
        9,
        10,
        11,
        12,
        9,
        10,
        11,
        12,
        9,
        10,
        11,
        12,
        9,
        10,
        11,
        12,
        9,
        10,
        11,
        12,
        9,
        10,
        11,
        12,
        9,
        10,
        11,
        12,
        9,
        10,
        11,
        12,
        9,
        10,
        11,
        12,
        9,
        10,
        11,
        12,
        9,
        10,
        11,
        12,
        9,
        10,
        11,
        12,
        9,
        10,
        11,
        12,
        9,
        10,
        11,
        12,
        9,
        10,
        11,
        12,
        9,
        10,
        11,
        12,
        9,
        10,
        11,
        12,
        9,
        10,
        11,
        12,
        41,
        906,
        779,
        812,
        909,
        782,
        815,
        144,
        13,
        14,
        15,
        16,
        13,
        14,
        15,
        16,
        13,
        14,
        15,
        16,
        13,
        14,
        15,
        16,
        13,
        14,
        15,
        16,
        13,
        14,
        15,
        16,
        13,
        14,
        15,
        16,
        13,
        14,
        15,
        16,
        13,
        14,
        15,
        16,
        13,
        14,
        15,
        16,
        13,
        14,
        15,
        16,
        13,
        14,
        15,
        16,
        13,
        14,
        15,
        16,
        13,
        14,
        15,
        16,
        13,
        14,
        15,
        16,
        13,
        14,
        15,
        16,
        13,
        14,
        15,
        16,
        13,
        14,
        15,
        16,
        13,
        14,
        15,
        16,
        13,
        14,
        15,
        16,
        13,
        14,
        15,
        16,
        13,
        14,
        15,
        16,
        13,
        14,
        15,
        16,
        13,
        14,
        15,
        16,
        13,
        14,
        15,
        16,
        13,
        14,
        15,
        16,
        13,
        14,
        15,
        16,
        13,
        14,
        15,
        16,
        13,
        14,
        15,
        16,
        13,
        14,
        15,
        16,
        13,
        14,
        15,
        16,
        13,
        14,
        15,
        16,
        13,
        14,
        15,
        16,
        13,
        14,
        15,
        16,
        13,
        14,
        15,
        16,
        13,
        14,
        15,
        16,
        13,
        14,
        15,
        16,
        13,
        14,
        15,
        16,
        13,
        14,
        15,
        16,
        13,
        14,
        15,
        16,
        13,
        14,
        15,
        16,
        13,
        14,
        15,
        16,
        13,
        14,
        15,
        16,
        13,
        14,
        15,
        16,
        13,
        14,
        15,
        16,
        13,
        14,
        15,
        16,
        13,
        14,
        15,
        16,
        13,
        14,
        15,
        16,
        13,
        14,
        15,
        16,
        13,
        14,
        15,
        16,
        13,
        14,
        15,
        16,
        13,
        14,
        15,
        16,
        13,
        14,
        15,
        16,
        13,
        14,
        15,
        16,
        13,
        14,
        15,
        16,
        13,
        14,
        15,
        16,
        13,
        14,
        15,
        16,
        13,
        14,
        15,
        16,
        13,
        14,
        15,
        16,
        13,
        14,
        15,
        16,
        13,
        14,
        15,
        16,
        13,
        14,
        15,
        16,
        45,
        910,
        783,
        816,
        897,
        770,
        803,
        196,
        65,
        66,
        67,
        68,
        65,
        66,
        67,
        68,
        65,
        66,
        67,
        68,
        65,
        66,
        67,
        68,
        65,
        66,
        67,
        68,
        65,
        66,
        67,
        68,
        65,
        66,
        67,
        68,
        65,
        66,
        67,
        68,
        65,
        66,
        67,
        68,
        65,
        66,
        67,
        68,
        65,
        66,
        67,
        68,
        65,
        66,
        67,
        68,
        65,
        66,
        67,
        68,
        65,
        66,
        67,
        68,
        65,
        66,
        67,
        68,
        65,
        66,
        67,
        68,
        65,
        66,
        67,
        68,
        65,
        66,
        67,
        68,
        65,
        66,
        67,
        68,
        65,
        66,
        67,
        68,
        65,
        66,
        67,
        68,
        65,
        66,
        67,
        68,
        65,
        66,
        67,
        68,
        65,
        66,
        67,
        68,
        65,
        66,
        67,
        68,
        65,
        66,
        67,
        68,
        65,
        66,
        67,
        68,
        65,
        66,
        67,
        68,
        65,
        66,
        67,
        68,
        65,
        66,
        67,
        68,
        65,
        66,
        67,
        68,
        65,
        66,
        67,
        68,
        65,
        66,
        67,
        68,
        65,
        66,
        67,
        68,
        65,
        66,
        67,
        68,
        65,
        66,
        67,
        68,
        65,
        66,
        67,
        68,
        65,
        66,
        67,
        68,
        65,
        66,
        67,
        68,
        65,
        66,
        67,
        68,
        65,
        66,
        67,
        68,
        65,
        66,
        67,
        68,
        65,
        66,
        67,
        68,
        65,
        66,
        67,
        68,
        65,
        66,
        67,
        68,
        65,
        66,
        67,
        68,
        65,
        66,
        67,
        68,
        65,
        66,
        67,
        68,
        65,
        66,
        67,
        68,
        65,
        66,
        67,
        68,
        65,
        66,
        67,
        68,
        65,
        66,
        67,
        68,
        65,
        66,
        67,
        68,
        65,
        66,
        67,
        68,
        65,
        66,
        67,
        68,
        65,
        66,
        67,
        68,
        65,
        66,
        67,
        68,
        65,
        66,
        67,
        68,
        65,
        66,
        67,
        68,
        65,
        66,
        67,
        68,
        65,
        66,
        67,
        68,
        65,
        66,
        67,
        68,
        97,
        898,
        771,
        804,
        901,
        774,
        775,
        792,
        789,
        790,
        791,
        792,
        789,
        790,
        791,
        792,
        789,
        790,
        791,
        792,
        789,
        790,
        791,
        792,
        789,
        790,
        791,
        792,
        789,
        790,
        791,
        792,
        789,
        790,
        791,
        792,
        789,
        790,
        791,
        792,
        789,
        790,
        791,
        792,
        789,
        790,
        791,
        792,
        789,
        790,
        791,
        792,
        789,
        790,
        791,
        792,
        789,
        790,
        791,
        792,
        789,
        790,
        791,
        792,
        789,
        790,
        791,
        792,
        789,
        790,
        791,
        792,
        789,
        790,
        791,
        792,
        789,
        790,
        791,
        792,
        789,
        790,
        791,
        792,
        789,
        790,
        791,
        792,
        789,
        790,
        791,
        792,
        789,
        790,
        791,
        792,
        789,
        790,
        791,
        792,
        789,
        790,
        791,
        792,
        789,
        790,
        791,
        792,
        789,
        790,
        791,
        792,
        789,
        790,
        791,
        792,
        789,
        790,
        791,
        792,
        789,
        790,
        791,
        792,
        789,
        790,
        791,
        792,
        789,
        790,
        791,
        792,
        789,
        790,
        791,
        792,
        789,
        790,
        791,
        792,
        789,
        790,
        791,
        792,
        789,
        790,
        791,
        792,
        789,
        790,
        791,
        792,
        789,
        790,
        791,
        792,
        789,
        790,
        791,
        792,
        789,
        790,
        791,
        792,
        789,
        790,
        791,
        792,
        789,
        790,
        791,
        792,
        789,
        790,
        791,
        792,
        789,
        790,
        791,
        792,
        789,
        790,
        791,
        792,
        789,
        790,
        791,
        792,
        789,
        790,
        791,
        792,
        789,
        790,
        791,
        792,
        789,
        790,
        791,
        792,
        789,
        790,
        791,
        792,
        789,
        790,
        791,
        792,
        789,
        790,
        791,
        792,
        789,
        790,
        791,
        792,
        789,
        790,
        791,
        792,
        789,
        790,
        791,
        792,
        789,
        790,
        791,
        792,
        789,
        790,
        791,
        792,
        789,
        790,
        791,
        792,
        789,
        790,
        791,
        792,
        789,
        790,
        791,
        792,
        789,
        790,
        791,
        792,
        789,
        790,
        791,
        792,
        789,
        790,
        791,
        792,
        789,
        774,
        775,
        808,
        905,
        778,
        779,
        780,
        777,
        778,
        779,
        780,
        777,
        778,
        779,
        780,
        777,
        778,
        779,
        780,
        777,
        778,
        779,
        780,
        777,
        778,
        779,
        780,
        777,
        778,
        779,
        780,
        777,
        778,
        779,
        780,
        777,
        778,
        779,
        780,
        777,
        778,
        779,
        780,
        777,
        778,
        779,
        780,
        777,
        778,
        779,
        780,
        777,
        778,
        779,
        780,
        777,
        778,
        779,
        780,
        777,
        778,
        779,
        780,
        777,
        778,
        779,
        780,
        777,
        778,
        779,
        780,
        777,
        778,
        779,
        780,
        777,
        778,
        779,
        780,
        777,
        778,
        779,
        780,
        777,
        778,
        779,
        780,
        777,
        778,
        779,
        780,
        777,
        778,
        779,
        780,
        777,
        778,
        779,
        780,
        777,
        778,
        779,
        780,
        777,
        778,
        779,
        780,
        777,
        778,
        779,
        780,
        777,
        778,
        779,
        780,
        777,
        778,
        779,
        780,
        777,
        778,
        779,
        780,
        777,
        778,
        779,
        780,
        777,
        778,
        779,
        812,
        905,
        778,
        779,
        780,
        777,
        778,
        779,
        780,
        777,
        778,
        779,
        780,
        777,
        778,
        779,
        780,
        777,
        778,
        779,
        780,
        777,
        778,
        779,
        780,
        777,
        778,
        779,
        780,
        777,
        778,
        779,
        780,
        777,
        778,
        779,
        780,
        777,
        778,
        779,
        780,
        777,
        778,
        779,
        780,
        777,
        778,
        779,
        780,
        777,
        778,
        779,
        780,
        777,
        778,
        779,
        780,
        777,
        778,
        779,
        780,
        777,
        778,
        779,
        780,
        777,
        778,
        779,
        780,
        777,
        778,
        779,
        780,
        777,
        778,
        779,
        780,
        777,
        778,
        779,
        780,
        777,
        778,
        779,
        780,
        777,
        778,
        779,
        780,
        777,
        778,
        779,
        780,
        777,
        778,
        779,
        780,
        777,
        778,
        779,
        780,
        777,
        778,
        779,
        780,
        777,
        778,
        779,
        780,
        777,
        778,
        779,
        780,
        777,
        778,
        779,
        780,
        777,
        778,
        779,
        780,
        777,
        778,
        779,
        780,
        777,
        778,
        779,
        812,
        973,
        846,
        847,
        848,
        845,
        846,
        847,
        848,
        845,
        846,
        847,
        848,
        845,
        846,
        847,
        848,
        845,
        846,
        847,
        848,
        845,
        846,
        847,
        848,
        845,
        846,
        847,
        848,
        845,
        846,
        847,
        848,
        845,
        846,
        847,
        848,
        845,
        846,
        847,
        848,
        845,
        846,
        847,
        848,
        845,
        846,
        847,
        848,
        845,
        846,
        847,
        848,
        845,
        846,
        847,
        848,
        845,
        846,
        847,
        848,
        845,
        846,
        847,
        848,
        845,
        846,
        847,
        848,
        845,
        846,
        847,
        848,
        845,
        846,
        847,
        848,
        845,
        846,
        847,
        848,
        845,
        846,
        847,
        848,
        845,
        846,
        847,
        848,
        845,
        846,
        847,
        848,
        845,
        846,
        847,
        848,
        845,
        846,
        847,
        848,
        845,
        846,
        847,
        848,
        845,
        846,
        847,
        848,
        845,
        846,
        847,
        848,
        845,
        846,
        847,
        848,
        845,
        846,
        847,
        848,
        845,
        846,
        847,
        848,
        845,
        846,
        847,
        880,
        973,
        846,
        847,
        848,
        845,
        846,
        847,
        848,
        845,
        846,
        847,
        848,
        845,
        846,
        847,
        848,
        845,
        846,
        847,
        848,
        845,
        846,
        847,
        848,
        845,
        846,
        847,
        848,
        845,
        846,
        847,
        848,
        845,
        846,
        847,
        848,
        845,
        846,
        847,
        848,
        845,
        846,
        847,
        848,
        845,
        846,
        847,
        848,
        845,
        846,
        847,
        848,
        845,
        846,
        847,
        848,
        845,
        846,
        847,
        848,
        845,
        846,
        847,
        848,
        845,
        846,
        847,
        848,
        845,
        846,
        847,
        848,
        845,
        846,
        847,
        848,
        845,
        846,
        847,
        848,
        845,
        846,
        847,
        848,
        845,
        846,
        847,
        848,
        845,
        846,
        847,
        848,
        845,
        846,
        847,
        848,
        845,
        846,
        847,
        848,
        845,
        846,
        847,
        848,
        845,
        846,
        847,
        848,
        845,
        846,
        847,
        848,
        845,
        846,
        847,
        848,
        845,
        846,
        847,
        848,
        845,
        846,
        847,
        848,
        845,
        846,
        847,
        880
      ]
    },
    {
      "id": 2,
      "name": "Objects",
      "type": "objectgroup",
      "x": 0,
      "y": 0,
      "opacity": 1,
      "visible": true,
      "draworder": "topdown",
      "objects": [
        {
          "id": 1,
          "name": "garage",
          "type": "scenery",
          "gid": 1285,
          "x": 416,
          "y": 1440,
          "width": 128,
          "height": 96,
          "rotation": 0,
          "visible": true
        },
        {
          "id": 2,
          "name": "cottage",
          "type": "scenery",
          "gid": 1286,
          "x": 352,
          "y": 688,
          "width": 96,
          "height": 80,
          "rotation": 0,
          "visible": true
        },
        {
          "id": 3,
          "name": "cottage",
          "type": "scenery",
          "gid": 1286,
          "x": 480,
          "y": 720,
          "width": 96,
          "height": 80,
          "rotation": 0,
          "visible": true
        },
        {
          "id": 4,
          "name": "fence_h",
          "type": "scenery",
          "gid": 1287,
          "x": 400,
          "y": 1344,
          "width": 64,
          "height": 32,
          "rotation": 0,
          "visible": true
        },
        {
          "id": 5,
          "name": "fence_h",
          "type": "scenery",
          "gid": 1287,
          "x": 464,
          "y": 1344,
          "width": 64,
          "height": 32,
          "rotation": 0,
          "visible": true
        },
        {
          "id": 6,
          "name": "fence_h",
          "type": "scenery",
          "gid": 1287,
          "x": 528,
          "y": 1344,
          "width": 64,
          "height": 32,
          "rotation": 0,
          "visible": true
        },
        {
          "id": 7,
          "name": "rocks",
          "type": "scenery",
          "gid": 1283,
          "x": 1376,
          "y": 1168,
          "width": 48,
          "height": 32,
          "rotation": 0,
          "visible": true
        },
        {
          "id": 8,
          "name": "rocks",
          "type": "scenery",
          "gid": 1283,
          "x": 1488,
          "y": 1168,
          "width": 48,
          "height": 32,
          "rotation": 0,
          "visible": true
        },
        {
          "id": 9,
          "name": "rocks",
          "type": "scenery",
          "gid": 1283,
          "x": 1584,
          "y": 1168,
          "width": 48,
          "height": 32,
          "rotation": 0,
          "visible": true
        },
        {
          "id": 10,
          "name": "tree",
          "type": "scenery",
          "gid": 1282,
          "x": 160,
          "y": 160,
          "width": 64,
          "height": 64,
          "rotation": 0,
          "visible": true
        },
        {
          "id": 11,
          "name": "pine",
          "type": "scenery",
          "gid": 1281,
          "x": 224,
          "y": 160,
          "width": 48,
          "height": 64,
          "rotation": 0,
          "visible": true
        },
        {
          "id": 12,
          "name": "tree",
          "type": "scenery",
          "gid": 1282,
          "x": 288,
          "y": 160,
          "width": 64,
          "height": 64,
          "rotation": 0,
          "visible": true
        },
        {
          "id": 13,
          "name": "rocks",
          "type": "scenery",
          "gid": 1283,
          "x": 416,
          "y": 128,
          "width": 48,
          "height": 32,
          "rotation": 0,
          "visible": true
        },
        {
          "id": 14,
          "name": "pine",
          "type": "scenery",
          "gid": 1281,
          "x": 480,
          "y": 160,
          "width": 48,
          "height": 64,
          "rotation": 0,
          "visible": true
        },
        {
          "id": 15,
          "name": "pine",
          "type": "scenery",
          "gid": 1281,
          "x": 544,
          "y": 160,
          "width": 48,
          "height": 64,
          "rotation": 0,
          "visible": true
        },
        {
          "id": 16,
          "name": "pine",
          "type": "scenery",
          "gid": 1281,
          "x": 672,
          "y": 160,
          "width": 48,
          "height": 64,
          "rotation": 0,
          "visible": true
        },
        {
          "id": 17,
          "name": "rocks",
          "type": "scenery",
          "gid": 1283,
          "x": 736,
          "y": 128,
          "width": 48,
          "height": 32,
          "rotation": 0,
          "visible": true
        },
        {
          "id": 18,
          "name": "pine",
          "type": "scenery",
          "gid": 1281,
          "x": 864,
          "y": 160,
          "width": 48,
          "height": 64,
          "rotation": 0,
          "visible": true
        },
        {
          "id": 19,
          "name": "pine",
          "type": "scenery",
          "gid": 1281,
          "x": 928,
          "y": 160,
          "width": 48,
          "height": 64,
          "rotation": 0,
          "visible": true
        },
        {
          "id": 20,
          "name": "tree",
          "type": "scenery",
          "gid": 1282,
          "x": 992,
          "y": 160,
          "width": 64,
          "height": 64,
          "rotation": 0,
          "visible": true
        },
        {
          "id": 21,
          "name": "pine",
          "type": "scenery",
          "gid": 1281,
          "x": 1056,
          "y": 160,
          "width": 48,
          "height": 64,
          "rotation": 0,
          "visible": true
        },
        {
          "id": 22,
          "name": "rocks",
          "type": "scenery",
          "gid": 1283,
          "x": 1120,
          "y": 128,
          "width": 48,
          "height": 32,
          "rotation": 0,
          "visible": true
        },
        {
          "id": 23,
          "name": "pine",
          "type": "scenery",
          "gid": 1281,
          "x": 1248,
          "y": 160,
          "width": 48,
          "height": 64,
          "rotation": 0,
          "visible": true
        },
        {
          "id": 24,
          "name": "pine",
          "type": "scenery",
          "gid": 1281,
          "x": 1312,
          "y": 160,
          "width": 48,
          "height": 64,
          "rotation": 0,
          "visible": true
        },
        {
          "id": 25,
          "name": "bush",
          "type": "scenery",
          "gid": 1284,
          "x": 1504,
          "y": 128,
          "width": 32,
          "height": 32,
          "rotation": 0,
          "visible": true
        },
        {
          "id": 26,
          "name": "pine",
          "type": "scenery",
          "gid": 1281,
          "x": 1568,
          "y": 160,
          "width": 48,
          "height": 64,
          "rotation": 0,
          "visible": true
        },
        {
          "id": 27,
          "name": "rocks",
          "type": "scenery",
          "gid": 1283,
          "x": 1696,
          "y": 128,
          "width": 48,
          "height": 32,
          "rotation": 0,
          "visible": true
        },
        {
          "id": 28,
          "name": "pine",
          "type": "scenery",
          "gid": 1281,
          "x": 1760,
          "y": 160,
          "width": 48,
          "height": 64,
          "rotation": 0,
          "visible": true
        },
        {
          "id": 29,
          "name": "rocks",
          "type": "scenery",
          "gid": 1283,
          "x": 1824,
          "y": 128,
          "width": 48,
          "height": 32,
          "rotation": 0,
          "visible": true
        },
        {
          "id": 30,
          "name": "bush",
          "type": "scenery",
          "gid": 1284,
          "x": 1888,
          "y": 128,
          "width": 32,
          "height": 32,
          "rotation": 0,
          "visible": true
        },
        {
          "id": 31,
          "name": "bush",
          "type": "scenery",
          "gid": 1284,
          "x": 96,
          "y": 192,
          "width": 32,
          "height": 32,
          "rotation": 0,
          "visible": true
        },
        {
          "id": 32,
          "name": "pine",
          "type": "scenery",
          "gid": 1281,
          "x": 160,
          "y": 224,
          "width": 48,
          "height": 64,
          "rotation": 0,
          "visible": true
        },
        {
          "id": 33,
          "name": "pine",
          "type": "scenery",
          "gid": 1281,
          "x": 224,
          "y": 224,
          "width": 48,
          "height": 64,
          "rotation": 0,
          "visible": true
        },
        {
          "id": 34,
          "name": "tree",
          "type": "scenery",
          "gid": 1282,
          "x": 1696,
          "y": 224,
          "width": 64,
          "height": 64,
          "rotation": 0,
          "visible": true
        },
        {
          "id": 35,
          "name": "bush",
          "type": "scenery",
          "gid": 1284,
          "x": 1888,
          "y": 192,
          "width": 32,
          "height": 32,
          "rotation": 0,
          "visible": true
        },
        {
          "id": 36,
          "name": "rocks",
          "type": "scenery",
          "gid": 1283,
          "x": 96,
          "y": 256,
          "width": 48,
          "height": 32,
          "rotation": 0,
          "visible": true
        },
        {
          "id": 37,
          "name": "pine",
          "type": "scenery",
          "gid": 1281,
          "x": 1824,
          "y": 288,
          "width": 48,
          "height": 64,
          "rotation": 0,
          "visible": true
        },
        {
          "id": 38,
          "name": "bush",
          "type": "scenery",
          "gid": 1284,
          "x": 1888,
          "y": 256,
          "width": 32,
          "height": 32,
          "rotation": 0,
          "visible": true
        },
        {
          "id": 39,
          "name": "bush",
          "type": "scenery",
          "gid": 1284,
          "x": 160,
          "y": 320,
          "width": 32,
          "height": 32,
          "rotation": 0,
          "visible": true
        },
        {
          "id": 40,
          "name": "pine",
          "type": "scenery",
          "gid": 1281,
          "x": 96,
          "y": 416,
          "width": 48,
          "height": 64,
          "rotation": 0,
          "visible": true
        },
        {
          "id": 41,
          "name": "tree",
          "type": "scenery",
          "gid": 1282,
          "x": 416,
          "y": 416,
          "width": 64,
          "height": 64,
          "rotation": 0,
          "visible": true
        },
        {
          "id": 42,
          "name": "bush",
          "type": "scenery",
          "gid": 1284,
          "x": 480,
          "y": 384,
          "width": 32,
          "height": 32,
          "rotation": 0,
          "visible": true
        },
        {
          "id": 43,
          "name": "pine",
          "type": "scenery",
          "gid": 1281,
          "x": 544,
          "y": 416,
          "width": 48,
          "height": 64,
          "rotation": 0,
          "visible": true
        },
        {
          "id": 44,
          "name": "pine",
          "type": "scenery",
          "gid": 1281,
          "x": 608,
          "y": 416,
          "width": 48,
          "height": 64,
          "rotation": 0,
          "visible": true
        },
        {
          "id": 45,
          "name": "tree",
          "type": "scenery",
          "gid": 1282,
          "x": 736,
          "y": 416,
          "width": 64,
          "height": 64,
          "rotation": 0,
          "visible": true
        },
        {
          "id": 46,
          "name": "tree",
          "type": "scenery",
          "gid": 1282,
          "x": 800,
          "y": 416,
          "width": 64,
          "height": 64,
          "rotation": 0,
          "visible": true
        },
        {
          "id": 47,
          "name": "tree",
          "type": "scenery",
          "gid": 1282,
          "x": 864,
          "y": 416,
          "width": 64,
          "height": 64,
          "rotation": 0,
          "visible": true
        },
        {
          "id": 48,
          "name": "pine",
          "type": "scenery",
          "gid": 1281,
          "x": 1120,
          "y": 416,
          "width": 48,
          "height": 64,
          "rotation": 0,
          "visible": true
        },
        {
          "id": 49,
          "name": "bush",
          "type": "scenery",
          "gid": 1284,
          "x": 1248,
          "y": 384,
          "width": 32,
          "height": 32,
          "rotation": 0,
          "visible": true
        },
        {
          "id": 50,
          "name": "pine",
          "type": "scenery",
          "gid": 1281,
          "x": 1312,
          "y": 416,
          "width": 48,
          "height": 64,
          "rotation": 0,
          "visible": true
        },
        {
          "id": 51,
          "name": "bush",
          "type": "scenery",
          "gid": 1284,
          "x": 1376,
          "y": 384,
          "width": 32,
          "height": 32,
          "rotation": 0,
          "visible": true
        },
        {
          "id": 52,
          "name": "tree",
          "type": "scenery",
          "gid": 1282,
          "x": 1440,
          "y": 416,
          "width": 64,
          "height": 64,
          "rotation": 0,
          "visible": true
        },
        {
          "id": 53,
          "name": "pine",
          "type": "scenery",
          "gid": 1281,
          "x": 1504,
          "y": 416,
          "width": 48,
          "height": 64,
          "rotation": 0,
          "visible": true
        },
        {
          "id": 54,
          "name": "pine",
          "type": "scenery",
          "gid": 1281,
          "x": 1568,
          "y": 416,
          "width": 48,
          "height": 64,
          "rotation": 0,
          "visible": true
        },
        {
          "id": 55,
          "name": "pine",
          "type": "scenery",
          "gid": 1281,
          "x": 1888,
          "y": 416,
          "width": 48,
          "height": 64,
          "rotation": 0,
          "visible": true
        },
        {
          "id": 56,
          "name": "pine",
          "type": "scenery",
          "gid": 1281,
          "x": 96,
          "y": 480,
          "width": 48,
          "height": 64,
          "rotation": 0,
          "visible": true
        },
        {
          "id": 57,
          "name": "bush",
          "type": "scenery",
          "gid": 1284,
          "x": 96,
          "y": 512,
          "width": 32,
          "height": 32,
          "rotation": 0,
          "visible": true
        },
        {
          "id": 58,
          "name": "pine",
          "type": "scenery",
          "gid": 1281,
          "x": 1888,
          "y": 544,
          "width": 48,
          "height": 64,
          "rotation": 0,
          "visible": true
        },
        {
          "id": 59,
          "name": "bush",
          "type": "scenery",
          "gid": 1284,
          "x": 96,
          "y": 576,
          "width": 32,
          "height": 32,
          "rotation": 0,
          "visible": true
        },
        {
          "id": 60,
          "name": "bush",
          "type": "scenery",
          "gid": 1284,
          "x": 672,
          "y": 640,
          "width": 32,
          "height": 32,
          "rotation": 0,
          "visible": true
        },
        {
          "id": 61,
          "name": "pine",
          "type": "scenery",
          "gid": 1281,
          "x": 736,
          "y": 672,
          "width": 48,
          "height": 64,
          "rotation": 0,
          "visible": true
        },
        {
          "id": 62,
          "name": "pine",
          "type": "scenery",
          "gid": 1281,
          "x": 1184,
          "y": 672,
          "width": 48,
          "height": 64,
          "rotation": 0,
          "visible": true
        },
        {
          "id": 63,
          "name": "pine",
          "type": "scenery",
          "gid": 1281,
          "x": 1248,
          "y": 672,
          "width": 48,
          "height": 64,
          "rotation": 0,
          "visible": true
        },
        {
          "id": 64,
          "name": "pine",
          "type": "scenery",
          "gid": 1281,
          "x": 1888,
          "y": 672,
          "width": 48,
          "height": 64,
          "rotation": 0,
          "visible": true
        },
        {
          "id": 65,
          "name": "pine",
          "type": "scenery",
          "gid": 1281,
          "x": 96,
          "y": 736,
          "width": 48,
          "height": 64,
          "rotation": 0,
          "visible": true
        },
        {
          "id": 66,
          "name": "tree",
          "type": "scenery",
          "gid": 1282,
          "x": 736,
          "y": 736,
          "width": 64,
          "height": 64,
          "rotation": 0,
          "visible": true
        },
        {
          "id": 67,
          "name": "bush",
          "type": "scenery",
          "gid": 1284,
          "x": 864,
          "y": 704,
          "width": 32,
          "height": 32,
          "rotation": 0,
          "visible": true
        },
        {
          "id": 68,
          "name": "rocks",
          "type": "scenery",
          "gid": 1283,
          "x": 864,
          "y": 768,
          "width": 48,
          "height": 32,
          "rotation": 0,
          "visible": true
        },
        {
          "id": 69,
          "name": "pine",
          "type": "scenery",
          "gid": 1281,
          "x": 1184,
          "y": 800,
          "width": 48,
          "height": 64,
          "rotation": 0,
          "visible": true
        },
        {
          "id": 70,
          "name": "pine",
          "type": "scenery",
          "gid": 1281,
          "x": 1888,
          "y": 800,
          "width": 48,
          "height": 64,
          "rotation": 0,
          "visible": true
        },
        {
          "id": 71,
          "name": "pine",
          "type": "scenery",
          "gid": 1281,
          "x": 352,
          "y": 864,
          "width": 48,
          "height": 64,
          "rotation": 0,
          "visible": true
        },
        {
          "id": 72,
          "name": "pine",
          "type": "scenery",
          "gid": 1281,
          "x": 544,
          "y": 864,
          "width": 48,
          "height": 64,
          "rotation": 0,
          "visible": true
        },
        {
          "id": 73,
          "name": "pine",
          "type": "scenery",
          "gid": 1281,
          "x": 608,
          "y": 864,
          "width": 48,
          "height": 64,
          "rotation": 0,
          "visible": true
        },
        {
          "id": 74,
          "name": "pine",
          "type": "scenery",
          "gid": 1281,
          "x": 864,
          "y": 864,
          "width": 48,
          "height": 64,
          "rotation": 0,
          "visible": true
        },
        {
          "id": 75,
          "name": "pine",
          "type": "scenery",
          "gid": 1281,
          "x": 1888,
          "y": 864,
          "width": 48,
          "height": 64,
          "rotation": 0,
          "visible": true
        },
        {
          "id": 76,
          "name": "pine",
          "type": "scenery",
          "gid": 1281,
          "x": 96,
          "y": 928,
          "width": 48,
          "height": 64,
          "rotation": 0,
          "visible": true
        },
        {
          "id": 77,
          "name": "pine",
          "type": "scenery",
          "gid": 1281,
          "x": 352,
          "y": 928,
          "width": 48,
          "height": 64,
          "rotation": 0,
          "visible": true
        },
        {
          "id": 78,
          "name": "pine",
          "type": "scenery",
          "gid": 1281,
          "x": 480,
          "y": 928,
          "width": 48,
          "height": 64,
          "rotation": 0,
          "visible": true
        },
        {
          "id": 79,
          "name": "tree",
          "type": "scenery",
          "gid": 1282,
          "x": 1888,
          "y": 928,
          "width": 64,
          "height": 64,
          "rotation": 0,
          "visible": true
        },
        {
          "id": 80,
          "name": "tree",
          "type": "scenery",
          "gid": 1282,
          "x": 96,
          "y": 992,
          "width": 64,
          "height": 64,
          "rotation": 0,
          "visible": true
        },
        {
          "id": 81,
          "name": "pine",
          "type": "scenery",
          "gid": 1281,
          "x": 352,
          "y": 992,
          "width": 48,
          "height": 64,
          "rotation": 0,
          "visible": true
        },
        {
          "id": 82,
          "name": "pine",
          "type": "scenery",
          "gid": 1281,
          "x": 736,
          "y": 992,
          "width": 48,
          "height": 64,
          "rotation": 0,
          "visible": true
        },
        {
          "id": 83,
          "name": "pine",
          "type": "scenery",
          "gid": 1281,
          "x": 96,
          "y": 1056,
          "width": 48,
          "height": 64,
          "rotation": 0,
          "visible": true
        },
        {
          "id": 84,
          "name": "pine",
          "type": "scenery",
          "gid": 1281,
          "x": 352,
          "y": 1056,
          "width": 48,
          "height": 64,
          "rotation": 0,
          "visible": true
        },
        {
          "id": 85,
          "name": "pine",
          "type": "scenery",
          "gid": 1281,
          "x": 864,
          "y": 1056,
          "width": 48,
          "height": 64,
          "rotation": 0,
          "visible": true
        },
        {
          "id": 86,
          "name": "bush",
          "type": "scenery",
          "gid": 1284,
          "x": 1888,
          "y": 1024,
          "width": 32,
          "height": 32,
          "rotation": 0,
          "visible": true
        },
        {
          "id": 87,
          "name": "bush",
          "type": "scenery",
          "gid": 1284,
          "x": 96,
          "y": 1088,
          "width": 32,
          "height": 32,
          "rotation": 0,
          "visible": true
        },
        {
          "id": 88,
          "name": "bush",
          "type": "scenery",
          "gid": 1284,
          "x": 352,
          "y": 1088,
          "width": 32,
          "height": 32,
          "rotation": 0,
          "visible": true
        },
        {
          "id": 89,
          "name": "rocks",
          "type": "scenery",
          "gid": 1283,
          "x": 416,
          "y": 1088,
          "width": 48,
          "height": 32,
          "rotation": 0,
          "visible": true
        },
        {
          "id": 90,
          "name": "pine",
          "type": "scenery",
          "gid": 1281,
          "x": 544,
          "y": 1120,
          "width": 48,
          "height": 64,
          "rotation": 0,
          "visible": true
        },
        {
          "id": 91,
          "name": "bush",
          "type": "scenery",
          "gid": 1284,
          "x": 1120,
          "y": 1088,
          "width": 32,
          "height": 32,
          "rotation": 0,
          "visible": true
        },
        {
          "id": 92,
          "name": "rocks",
          "type": "scenery",
          "gid": 1283,
          "x": 1888,
          "y": 1088,
          "width": 48,
          "height": 32,
          "rotation": 0,
          "visible": true
        },
        {
          "id": 93,
          "name": "pine",
          "type": "scenery",
          "gid": 1281,
          "x": 96,
          "y": 1184,
          "width": 48,
          "height": 64,
          "rotation": 0,
          "visible": true
        },
        {
          "id": 94,
          "name": "pine",
          "type": "scenery",
          "gid": 1281,
          "x": 352,
          "y": 1184,
          "width": 48,
          "height": 64,
          "rotation": 0,
          "visible": true
        },
        {
          "id": 95,
          "name": "pine",
          "type": "scenery",
          "gid": 1281,
          "x": 480,
          "y": 1184,
          "width": 48,
          "height": 64,
          "rotation": 0,
          "visible": true
        },
        {
          "id": 96,
          "name": "pine",
          "type": "scenery",
          "gid": 1281,
          "x": 608,
          "y": 1184,
          "width": 48,
          "height": 64,
          "rotation": 0,
          "visible": true
        },
        {
          "id": 97,
          "name": "rocks",
          "type": "scenery",
          "gid": 1283,
          "x": 1888,
          "y": 1152,
          "width": 48,
          "height": 32,
          "rotation": 0,
          "visible": true
        },
        {
          "id": 98,
          "name": "tree",
          "type": "scenery",
          "gid": 1282,
          "x": 96,
          "y": 1248,
          "width": 64,
          "height": 64,
          "rotation": 0,
          "visible": true
        },
        {
          "id": 99,
          "name": "pine",
          "type": "scenery",
          "gid": 1281,
          "x": 1888,
          "y": 1248,
          "width": 48,
          "height": 64,
          "rotation": 0,
          "visible": true
        },
        {
          "id": 100,
          "name": "bush",
          "type": "scenery",
          "gid": 1284,
          "x": 96,
          "y": 1280,
          "width": 32,
          "height": 32,
          "rotation": 0,
          "visible": true
        },
        {
          "id": 101,
          "name": "pine",
          "type": "scenery",
          "gid": 1281,
          "x": 1888,
          "y": 1312,
          "width": 48,
          "height": 64,
          "rotation": 0,
          "visible": true
        },
        {
          "id": 102,
          "name": "pine",
          "type": "scenery",
          "gid": 1281,
          "x": 96,
          "y": 1376,
          "width": 48,
          "height": 64,
          "rotation": 0,
          "visible": true
        },
        {
          "id": 103,
          "name": "tree",
          "type": "scenery",
          "gid": 1282,
          "x": 736,
          "y": 1376,
          "width": 64,
          "height": 64,
          "rotation": 0,
          "visible": true
        },
        {
          "id": 104,
          "name": "pine",
          "type": "scenery",
          "gid": 1281,
          "x": 1568,
          "y": 1376,
          "width": 48,
          "height": 64,
          "rotation": 0,
          "visible": true
        },
        {
          "id": 105,
          "name": "tree",
          "type": "scenery",
          "gid": 1282,
          "x": 1888,
          "y": 1376,
          "width": 64,
          "height": 64,
          "rotation": 0,
          "visible": true
        },
        {
          "id": 106,
          "name": "pine",
          "type": "scenery",
          "gid": 1281,
          "x": 1312,
          "y": 1440,
          "width": 48,
          "height": 64,
          "rotation": 0,
          "visible": true
        },
        {
          "id": 107,
          "name": "pine",
          "type": "scenery",
          "gid": 1281,
          "x": 1632,
          "y": 1440,
          "width": 48,
          "height": 64,
          "rotation": 0,
          "visible": true
        },
        {
          "id": 108,
          "name": "pine",
          "type": "scenery",
          "gid": 1281,
          "x": 1888,
          "y": 1440,
          "width": 48,
          "height": 64,
          "rotation": 0,
          "visible": true
        },
        {
          "id": 109,
          "name": "pine",
          "type": "scenery",
          "gid": 1281,
          "x": 96,
          "y": 1504,
          "width": 48,
          "height": 64,
          "rotation": 0,
          "visible": true
        },
        {
          "id": 110,
          "name": "pine",
          "type": "scenery",
          "gid": 1281,
          "x": 96,
          "y": 1568,
          "width": 48,
          "height": 64,
          "rotation": 0,
          "visible": true
        },
        {
          "id": 111,
          "name": "bush",
          "type": "scenery",
          "gid": 1284,
          "x": 96,
          "y": 1600,
          "width": 32,
          "height": 32,
          "rotation": 0,
          "visible": true
        },
        {
          "id": 112,
          "name": "pine",
          "type": "scenery",
          "gid": 1281,
          "x": 96,
          "y": 1696,
          "width": 48,
          "height": 64,
          "rotation": 0,
          "visible": true
        },
        {
          "id": 113,
          "name": "pine",
          "type": "scenery",
          "gid": 1281,
          "x": 416,
          "y": 1696,
          "width": 48,
          "height": 64,
          "rotation": 0,
          "visible": true
        },
        {
          "id": 114,
          "name": "pine",
          "type": "scenery",
          "gid": 1281,
          "x": 1184,
          "y": 1696,
          "width": 48,
          "height": 64,
          "rotation": 0,
          "visible": true
        },
        {
          "id": 115,
          "name": "tree",
          "type": "scenery",
          "gid": 1282,
          "x": 1248,
          "y": 1696,
          "width": 64,
          "height": 64,
          "rotation": 0,
          "visible": true
        },
        {
          "id": 116,
          "name": "pine",
          "type": "scenery",
          "gid": 1281,
          "x": 1888,
          "y": 1696,
          "width": 48,
          "height": 64,
          "rotation": 0,
          "visible": true
        },
        {
          "id": 117,
          "name": "pine",
          "type": "scenery",
          "gid": 1281,
          "x": 96,
          "y": 1760,
          "width": 48,
          "height": 64,
          "rotation": 0,
          "visible": true
        },
        {
          "id": 118,
          "name": "pine",
          "type": "scenery",
          "gid": 1281,
          "x": 1888,
          "y": 1760,
          "width": 48,
          "height": 64,
          "rotation": 0,
          "visible": true
        },
        {
          "id": 119,
          "name": "pine",
          "type": "scenery",
          "gid": 1281,
          "x": 96,
          "y": 1824,
          "width": 48,
          "height": 64,
          "rotation": 0,
          "visible": true
        },
        {
          "id": 120,
          "name": "tree",
          "type": "scenery",
          "gid": 1282,
          "x": 160,
          "y": 1824,
          "width": 64,
          "height": 64,
          "rotation": 0,
          "visible": true
        },
        {
          "id": 121,
          "name": "pine",
          "type": "scenery",
          "gid": 1281,
          "x": 1824,
          "y": 1824,
          "width": 48,
          "height": 64,
          "rotation": 0,
          "visible": true
        },
        {
          "id": 122,
          "name": "pine",
          "type": "scenery",
          "gid": 1281,
          "x": 1888,
          "y": 1824,
          "width": 48,
          "height": 64,
          "rotation": 0,
          "visible": true
        },
        {
          "id": 123,
          "name": "pine",
          "type": "scenery",
          "gid": 1281,
          "x": 96,
          "y": 1888,
          "width": 48,
          "height": 64,
          "rotation": 0,
          "visible": true
        },
        {
          "id": 124,
          "name": "bush",
          "type": "scenery",
          "gid": 1284,
          "x": 160,
          "y": 1856,
          "width": 32,
          "height": 32,
          "rotation": 0,
          "visible": true
        },
        {
          "id": 125,
          "name": "pine",
          "type": "scenery",
          "gid": 1281,
          "x": 288,
          "y": 1888,
          "width": 48,
          "height": 64,
          "rotation": 0,
          "visible": true
        },
        {
          "id": 126,
          "name": "pine",
          "type": "scenery",
          "gid": 1281,
          "x": 1760,
          "y": 1888,
          "width": 48,
          "height": 64,
          "rotation": 0,
          "visible": true
        },
        {
          "id": 127,
          "name": "tree",
          "type": "scenery",
          "gid": 1282,
          "x": 1824,
          "y": 1888,
          "width": 64,
          "height": 64,
          "rotation": 0,
          "visible": true
        },
        {
          "id": 128,
          "name": "pine",
          "type": "scenery",
          "gid": 1281,
          "x": 1888,
          "y": 1888,
          "width": 48,
          "height": 64,
          "rotation": 0,
          "visible": true
        },
        {
          "id": 129,
          "name": "tree",
          "type": "scenery",
          "gid": 1282,
          "x": 96,
          "y": 1952,
          "width": 64,
          "height": 64,
          "rotation": 0,
          "visible": true
        },
        {
          "id": 130,
          "name": "bush",
          "type": "scenery",
          "gid": 1284,
          "x": 160,
          "y": 1920,
          "width": 32,
          "height": 32,
          "rotation": 0,
          "visible": true
        },
        {
          "id": 131,
          "name": "rocks",
          "type": "scenery",
          "gid": 1283,
          "x": 224,
          "y": 1920,
          "width": 48,
          "height": 32,
          "rotation": 0,
          "visible": true
        },
        {
          "id": 132,
          "name": "bush",
          "type": "scenery",
          "gid": 1284,
          "x": 288,
          "y": 1920,
          "width": 32,
          "height": 32,
          "rotation": 0,
          "visible": true
        },
        {
          "id": 133,
          "name": "bush",
          "type": "scenery",
          "gid": 1284,
          "x": 416,
          "y": 1920,
          "width": 32,
          "height": 32,
          "rotation": 0,
          "visible": true
        },
        {
          "id": 134,
          "name": "pine",
          "type": "scenery",
          "gid": 1281,
          "x": 480,
          "y": 1952,
          "width": 48,
          "height": 64,
          "rotation": 0,
          "visible": true
        },
        {
          "id": 135,
          "name": "tree",
          "type": "scenery",
          "gid": 1282,
          "x": 544,
          "y": 1952,
          "width": 64,
          "height": 64,
          "rotation": 0,
          "visible": true
        },
        {
          "id": 136,
          "name": "tree",
          "type": "scenery",
          "gid": 1282,
          "x": 608,
          "y": 1952,
          "width": 64,
          "height": 64,
          "rotation": 0,
          "visible": true
        },
        {
          "id": 137,
          "name": "pine",
          "type": "scenery",
          "gid": 1281,
          "x": 672,
          "y": 1952,
          "width": 48,
          "height": 64,
          "rotation": 0,
          "visible": true
        },
        {
          "id": 138,
          "name": "pine",
          "type": "scenery",
          "gid": 1281,
          "x": 736,
          "y": 1952,
          "width": 48,
          "height": 64,
          "rotation": 0,
          "visible": true
        },
        {
          "id": 139,
          "name": "pine",
          "type": "scenery",
          "gid": 1281,
          "x": 800,
          "y": 1952,
          "width": 48,
          "height": 64,
          "rotation": 0,
          "visible": true
        },
        {
          "id": 140,
          "name": "bush",
          "type": "scenery",
          "gid": 1284,
          "x": 864,
          "y": 1920,
          "width": 32,
          "height": 32,
          "rotation": 0,
          "visible": true
        },
        {
          "id": 141,
          "name": "pine",
          "type": "scenery",
          "gid": 1281,
          "x": 1120,
          "y": 1952,
          "width": 48,
          "height": 64,
          "rotation": 0,
          "visible": true
        },
        {
          "id": 142,
          "name": "pine",
          "type": "scenery",
          "gid": 1281,
          "x": 1184,
          "y": 1952,
          "width": 48,
          "height": 64,
          "rotation": 0,
          "visible": true
        },
        {
          "id": 143,
          "name": "pine",
          "type": "scenery",
          "gid": 1281,
          "x": 1248,
          "y": 1952,
          "width": 48,
          "height": 64,
          "rotation": 0,
          "visible": true
        },
        {
          "id": 144,
          "name": "bush",
          "type": "scenery",
          "gid": 1284,
          "x": 1312,
          "y": 1920,
          "width": 32,
          "height": 32,
          "rotation": 0,
          "visible": true
        },
        {
          "id": 145,
          "name": "rocks",
          "type": "scenery",
          "gid": 1283,
          "x": 1440,
          "y": 1920,
          "width": 48,
          "height": 32,
          "rotation": 0,
          "visible": true
        },
        {
          "id": 146,
          "name": "pine",
          "type": "scenery",
          "gid": 1281,
          "x": 1504,
          "y": 1952,
          "width": 48,
          "height": 64,
          "rotation": 0,
          "visible": true
        },
        {
          "id": 147,
          "name": "pine",
          "type": "scenery",
          "gid": 1281,
          "x": 1568,
          "y": 1952,
          "width": 48,
          "height": 64,
          "rotation": 0,
          "visible": true
        },
        {
          "id": 148,
          "name": "pine",
          "type": "scenery",
          "gid": 1281,
          "x": 1696,
          "y": 1952,
          "width": 48,
          "height": 64,
          "rotation": 0,
          "visible": true
        },
        {
          "id": 149,
          "name": "rocks",
          "type": "scenery",
          "gid": 1283,
          "x": 1760,
          "y": 1920,
          "width": 48,
          "height": 32,
          "rotation": 0,
          "visible": true
        },
        {
          "id": 150,
          "name": "bush",
          "type": "scenery",
          "gid": 1284,
          "x": 1888,
          "y": 1920,
          "width": 32,
          "height": 32,
          "rotation": 0,
          "visible": true
        },
        {
          "id": 151,
          "name": "start",
          "type": "spawn",
          "point": true,
          "x": 512,
          "y": 1536,
          "width": 0,
          "height": 0,
          "rotation": 0,
          "visible": true
        },
        {
          "id": 152,
          "name": "verification_route",
          "type": "test_route",
          "x": 0,
          "y": 0,
          "width": 0,
          "height": 0,
          "rotation": 0,
          "visible": true,
          "polyline": [
            {
              "x": 512,
              "y": 1536
            },
            {
              "x": 1024,
              "y": 1536
            },
            {
              "x": 1728,
              "y": 1536
            },
            {
              "x": 1776,
              "y": 1488
            },
            {
              "x": 1776,
              "y": 1344
            },
            {
              "x": 1664,
              "y": 1248
            },
            {
              "x": 1280,
              "y": 1248
            },
            {
              "x": 1136,
              "y": 1216
            },
            {
              "x": 1024,
              "y": 1152
            },
            {
              "x": 896,
              "y": 1152
            },
            {
              "x": 768,
              "y": 1152
            },
            {
              "x": 624,
              "y": 1264
            },
            {
              "x": 624,
              "y": 1424
            },
            {
              "x": 576,
              "y": 1488
            },
            {
              "x": 512,
              "y": 1536
            },
            {
              "x": 3008,
              "y": 1536
            },
            {
              "x": 3072,
              "y": 1600
            },
            {
              "x": 3072,
              "y": 3520
            },
            {
              "x": 3008,
              "y": 3584
            },
            {
              "x": 1088,
              "y": 3584
            },
            {
              "x": 1024,
              "y": 3520
            },
            {
              "x": 1024,
              "y": 1600
            },
            {
              "x": 960,
              "y": 1536
            },
            {
              "x": 512,
              "y": 1536
            }
          ]
        },
        {
          "id": 153,
          "name": "garage",
          "type": "scenery",
          "gid": 1285,
          "x": 2464,
          "y": 1440,
          "width": 128,
          "height": 96,
          "rotation": 0,
          "visible": true
        },
        {
          "id": 154,
          "name": "cottage",
          "type": "scenery",
          "gid": 1286,
          "x": 2400,
          "y": 688,
          "width": 96,
          "height": 80,
          "rotation": 0,
          "visible": true
        },
        {
          "id": 155,
          "name": "cottage",
          "type": "scenery",
          "gid": 1286,
          "x": 2528,
          "y": 720,
          "width": 96,
          "height": 80,
          "rotation": 0,
          "visible": true
        },
        {
          "id": 156,
          "name": "fence_h",
          "type": "scenery",
          "gid": 1287,
          "x": 2448,
          "y": 1344,
          "width": 64,
          "height": 32,
          "rotation": 0,
          "visible": true
        },
        {
          "id": 157,
          "name": "fence_h",
          "type": "scenery",
          "gid": 1287,
          "x": 2512,
          "y": 1344,
          "width": 64,
          "height": 32,
          "rotation": 0,
          "visible": true
        },
        {
          "id": 158,
          "name": "fence_h",
          "type": "scenery",
          "gid": 1287,
          "x": 2576,
          "y": 1344,
          "width": 64,
          "height": 32,
          "rotation": 0,
          "visible": true
        },
        {
          "id": 159,
          "name": "rocks",
          "type": "scenery",
          "gid": 1283,
          "x": 3424,
          "y": 1168,
          "width": 48,
          "height": 32,
          "rotation": 0,
          "visible": true
        },
        {
          "id": 160,
          "name": "rocks",
          "type": "scenery",
          "gid": 1283,
          "x": 3536,
          "y": 1168,
          "width": 48,
          "height": 32,
          "rotation": 0,
          "visible": true
        },
        {
          "id": 161,
          "name": "rocks",
          "type": "scenery",
          "gid": 1283,
          "x": 3632,
          "y": 1168,
          "width": 48,
          "height": 32,
          "rotation": 0,
          "visible": true
        },
        {
          "id": 162,
          "name": "tree",
          "type": "scenery",
          "gid": 1282,
          "x": 2208,
          "y": 160,
          "width": 64,
          "height": 64,
          "rotation": 0,
          "visible": true
        },
        {
          "id": 163,
          "name": "pine",
          "type": "scenery",
          "gid": 1281,
          "x": 2272,
          "y": 160,
          "width": 48,
          "height": 64,
          "rotation": 0,
          "visible": true
        },
        {
          "id": 164,
          "name": "tree",
          "type": "scenery",
          "gid": 1282,
          "x": 2336,
          "y": 160,
          "width": 64,
          "height": 64,
          "rotation": 0,
          "visible": true
        },
        {
          "id": 165,
          "name": "rocks",
          "type": "scenery",
          "gid": 1283,
          "x": 2464,
          "y": 128,
          "width": 48,
          "height": 32,
          "rotation": 0,
          "visible": true
        },
        {
          "id": 166,
          "name": "pine",
          "type": "scenery",
          "gid": 1281,
          "x": 2528,
          "y": 160,
          "width": 48,
          "height": 64,
          "rotation": 0,
          "visible": true
        },
        {
          "id": 167,
          "name": "pine",
          "type": "scenery",
          "gid": 1281,
          "x": 2592,
          "y": 160,
          "width": 48,
          "height": 64,
          "rotation": 0,
          "visible": true
        },
        {
          "id": 168,
          "name": "pine",
          "type": "scenery",
          "gid": 1281,
          "x": 2720,
          "y": 160,
          "width": 48,
          "height": 64,
          "rotation": 0,
          "visible": true
        },
        {
          "id": 169,
          "name": "rocks",
          "type": "scenery",
          "gid": 1283,
          "x": 2784,
          "y": 128,
          "width": 48,
          "height": 32,
          "rotation": 0,
          "visible": true
        },
        {
          "id": 170,
          "name": "pine",
          "type": "scenery",
          "gid": 1281,
          "x": 2912,
          "y": 160,
          "width": 48,
          "height": 64,
          "rotation": 0,
          "visible": true
        },
        {
          "id": 171,
          "name": "pine",
          "type": "scenery",
          "gid": 1281,
          "x": 2976,
          "y": 160,
          "width": 48,
          "height": 64,
          "rotation": 0,
          "visible": true
        },
        {
          "id": 172,
          "name": "tree",
          "type": "scenery",
          "gid": 1282,
          "x": 3040,
          "y": 160,
          "width": 64,
          "height": 64,
          "rotation": 0,
          "visible": true
        },
        {
          "id": 173,
          "name": "pine",
          "type": "scenery",
          "gid": 1281,
          "x": 3104,
          "y": 160,
          "width": 48,
          "height": 64,
          "rotation": 0,
          "visible": true
        },
        {
          "id": 174,
          "name": "rocks",
          "type": "scenery",
          "gid": 1283,
          "x": 3168,
          "y": 128,
          "width": 48,
          "height": 32,
          "rotation": 0,
          "visible": true
        },
        {
          "id": 175,
          "name": "pine",
          "type": "scenery",
          "gid": 1281,
          "x": 3296,
          "y": 160,
          "width": 48,
          "height": 64,
          "rotation": 0,
          "visible": true
        },
        {
          "id": 176,
          "name": "pine",
          "type": "scenery",
          "gid": 1281,
          "x": 3360,
          "y": 160,
          "width": 48,
          "height": 64,
          "rotation": 0,
          "visible": true
        },
        {
          "id": 177,
          "name": "bush",
          "type": "scenery",
          "gid": 1284,
          "x": 3552,
          "y": 128,
          "width": 32,
          "height": 32,
          "rotation": 0,
          "visible": true
        },
        {
          "id": 178,
          "name": "pine",
          "type": "scenery",
          "gid": 1281,
          "x": 3616,
          "y": 160,
          "width": 48,
          "height": 64,
          "rotation": 0,
          "visible": true
        },
        {
          "id": 179,
          "name": "rocks",
          "type": "scenery",
          "gid": 1283,
          "x": 3744,
          "y": 128,
          "width": 48,
          "height": 32,
          "rotation": 0,
          "visible": true
        },
        {
          "id": 180,
          "name": "pine",
          "type": "scenery",
          "gid": 1281,
          "x": 3808,
          "y": 160,
          "width": 48,
          "height": 64,
          "rotation": 0,
          "visible": true
        },
        {
          "id": 181,
          "name": "rocks",
          "type": "scenery",
          "gid": 1283,
          "x": 3872,
          "y": 128,
          "width": 48,
          "height": 32,
          "rotation": 0,
          "visible": true
        },
        {
          "id": 182,
          "name": "bush",
          "type": "scenery",
          "gid": 1284,
          "x": 3936,
          "y": 128,
          "width": 32,
          "height": 32,
          "rotation": 0,
          "visible": true
        },
        {
          "id": 183,
          "name": "bush",
          "type": "scenery",
          "gid": 1284,
          "x": 2144,
          "y": 192,
          "width": 32,
          "height": 32,
          "rotation": 0,
          "visible": true
        },
        {
          "id": 184,
          "name": "pine",
          "type": "scenery",
          "gid": 1281,
          "x": 2208,
          "y": 224,
          "width": 48,
          "height": 64,
          "rotation": 0,
          "visible": true
        },
        {
          "id": 185,
          "name": "pine",
          "type": "scenery",
          "gid": 1281,
          "x": 2272,
          "y": 224,
          "width": 48,
          "height": 64,
          "rotation": 0,
          "visible": true
        },
        {
          "id": 186,
          "name": "tree",
          "type": "scenery",
          "gid": 1282,
          "x": 3744,
          "y": 224,
          "width": 64,
          "height": 64,
          "rotation": 0,
          "visible": true
        },
        {
          "id": 187,
          "name": "bush",
          "type": "scenery",
          "gid": 1284,
          "x": 3936,
          "y": 192,
          "width": 32,
          "height": 32,
          "rotation": 0,
          "visible": true
        },
        {
          "id": 188,
          "name": "rocks",
          "type": "scenery",
          "gid": 1283,
          "x": 2144,
          "y": 256,
          "width": 48,
          "height": 32,
          "rotation": 0,
          "visible": true
        },
        {
          "id": 189,
          "name": "pine",
          "type": "scenery",
          "gid": 1281,
          "x": 3872,
          "y": 288,
          "width": 48,
          "height": 64,
          "rotation": 0,
          "visible": true
        },
        {
          "id": 190,
          "name": "bush",
          "type": "scenery",
          "gid": 1284,
          "x": 3936,
          "y": 256,
          "width": 32,
          "height": 32,
          "rotation": 0,
          "visible": true
        },
        {
          "id": 191,
          "name": "bush",
          "type": "scenery",
          "gid": 1284,
          "x": 2208,
          "y": 320,
          "width": 32,
          "height": 32,
          "rotation": 0,
          "visible": true
        },
        {
          "id": 192,
          "name": "pine",
          "type": "scenery",
          "gid": 1281,
          "x": 2144,
          "y": 416,
          "width": 48,
          "height": 64,
          "rotation": 0,
          "visible": true
        },
        {
          "id": 193,
          "name": "tree",
          "type": "scenery",
          "gid": 1282,
          "x": 2464,
          "y": 416,
          "width": 64,
          "height": 64,
          "rotation": 0,
          "visible": true
        },
        {
          "id": 194,
          "name": "bush",
          "type": "scenery",
          "gid": 1284,
          "x": 2528,
          "y": 384,
          "width": 32,
          "height": 32,
          "rotation": 0,
          "visible": true
        },
        {
          "id": 195,
          "name": "pine",
          "type": "scenery",
          "gid": 1281,
          "x": 2592,
          "y": 416,
          "width": 48,
          "height": 64,
          "rotation": 0,
          "visible": true
        },
        {
          "id": 196,
          "name": "pine",
          "type": "scenery",
          "gid": 1281,
          "x": 2656,
          "y": 416,
          "width": 48,
          "height": 64,
          "rotation": 0,
          "visible": true
        },
        {
          "id": 197,
          "name": "tree",
          "type": "scenery",
          "gid": 1282,
          "x": 2784,
          "y": 416,
          "width": 64,
          "height": 64,
          "rotation": 0,
          "visible": true
        },
        {
          "id": 198,
          "name": "tree",
          "type": "scenery",
          "gid": 1282,
          "x": 2848,
          "y": 416,
          "width": 64,
          "height": 64,
          "rotation": 0,
          "visible": true
        },
        {
          "id": 199,
          "name": "tree",
          "type": "scenery",
          "gid": 1282,
          "x": 2912,
          "y": 416,
          "width": 64,
          "height": 64,
          "rotation": 0,
          "visible": true
        },
        {
          "id": 200,
          "name": "pine",
          "type": "scenery",
          "gid": 1281,
          "x": 3168,
          "y": 416,
          "width": 48,
          "height": 64,
          "rotation": 0,
          "visible": true
        },
        {
          "id": 201,
          "name": "bush",
          "type": "scenery",
          "gid": 1284,
          "x": 3296,
          "y": 384,
          "width": 32,
          "height": 32,
          "rotation": 0,
          "visible": true
        },
        {
          "id": 202,
          "name": "pine",
          "type": "scenery",
          "gid": 1281,
          "x": 3360,
          "y": 416,
          "width": 48,
          "height": 64,
          "rotation": 0,
          "visible": true
        },
        {
          "id": 203,
          "name": "bush",
          "type": "scenery",
          "gid": 1284,
          "x": 3424,
          "y": 384,
          "width": 32,
          "height": 32,
          "rotation": 0,
          "visible": true
        },
        {
          "id": 204,
          "name": "tree",
          "type": "scenery",
          "gid": 1282,
          "x": 3488,
          "y": 416,
          "width": 64,
          "height": 64,
          "rotation": 0,
          "visible": true
        },
        {
          "id": 205,
          "name": "pine",
          "type": "scenery",
          "gid": 1281,
          "x": 3552,
          "y": 416,
          "width": 48,
          "height": 64,
          "rotation": 0,
          "visible": true
        },
        {
          "id": 206,
          "name": "pine",
          "type": "scenery",
          "gid": 1281,
          "x": 3616,
          "y": 416,
          "width": 48,
          "height": 64,
          "rotation": 0,
          "visible": true
        },
        {
          "id": 207,
          "name": "pine",
          "type": "scenery",
          "gid": 1281,
          "x": 3936,
          "y": 416,
          "width": 48,
          "height": 64,
          "rotation": 0,
          "visible": true
        },
        {
          "id": 208,
          "name": "pine",
          "type": "scenery",
          "gid": 1281,
          "x": 2144,
          "y": 480,
          "width": 48,
          "height": 64,
          "rotation": 0,
          "visible": true
        },
        {
          "id": 209,
          "name": "bush",
          "type": "scenery",
          "gid": 1284,
          "x": 2144,
          "y": 512,
          "width": 32,
          "height": 32,
          "rotation": 0,
          "visible": true
        },
        {
          "id": 210,
          "name": "pine",
          "type": "scenery",
          "gid": 1281,
          "x": 3936,
          "y": 544,
          "width": 48,
          "height": 64,
          "rotation": 0,
          "visible": true
        },
        {
          "id": 211,
          "name": "bush",
          "type": "scenery",
          "gid": 1284,
          "x": 2144,
          "y": 576,
          "width": 32,
          "height": 32,
          "rotation": 0,
          "visible": true
        },
        {
          "id": 212,
          "name": "bush",
          "type": "scenery",
          "gid": 1284,
          "x": 2720,
          "y": 640,
          "width": 32,
          "height": 32,
          "rotation": 0,
          "visible": true
        },
        {
          "id": 213,
          "name": "pine",
          "type": "scenery",
          "gid": 1281,
          "x": 2784,
          "y": 672,
          "width": 48,
          "height": 64,
          "rotation": 0,
          "visible": true
        },
        {
          "id": 214,
          "name": "pine",
          "type": "scenery",
          "gid": 1281,
          "x": 3232,
          "y": 672,
          "width": 48,
          "height": 64,
          "rotation": 0,
          "visible": true
        },
        {
          "id": 215,
          "name": "pine",
          "type": "scenery",
          "gid": 1281,
          "x": 3296,
          "y": 672,
          "width": 48,
          "height": 64,
          "rotation": 0,
          "visible": true
        },
        {
          "id": 216,
          "name": "pine",
          "type": "scenery",
          "gid": 1281,
          "x": 3936,
          "y": 672,
          "width": 48,
          "height": 64,
          "rotation": 0,
          "visible": true
        },
        {
          "id": 217,
          "name": "pine",
          "type": "scenery",
          "gid": 1281,
          "x": 2144,
          "y": 736,
          "width": 48,
          "height": 64,
          "rotation": 0,
          "visible": true
        },
        {
          "id": 218,
          "name": "tree",
          "type": "scenery",
          "gid": 1282,
          "x": 2784,
          "y": 736,
          "width": 64,
          "height": 64,
          "rotation": 0,
          "visible": true
        },
        {
          "id": 219,
          "name": "bush",
          "type": "scenery",
          "gid": 1284,
          "x": 2912,
          "y": 704,
          "width": 32,
          "height": 32,
          "rotation": 0,
          "visible": true
        },
        {
          "id": 220,
          "name": "rocks",
          "type": "scenery",
          "gid": 1283,
          "x": 2912,
          "y": 768,
          "width": 48,
          "height": 32,
          "rotation": 0,
          "visible": true
        },
        {
          "id": 221,
          "name": "pine",
          "type": "scenery",
          "gid": 1281,
          "x": 3232,
          "y": 800,
          "width": 48,
          "height": 64,
          "rotation": 0,
          "visible": true
        },
        {
          "id": 222,
          "name": "pine",
          "type": "scenery",
          "gid": 1281,
          "x": 3936,
          "y": 800,
          "width": 48,
          "height": 64,
          "rotation": 0,
          "visible": true
        },
        {
          "id": 223,
          "name": "pine",
          "type": "scenery",
          "gid": 1281,
          "x": 2400,
          "y": 864,
          "width": 48,
          "height": 64,
          "rotation": 0,
          "visible": true
        },
        {
          "id": 224,
          "name": "pine",
          "type": "scenery",
          "gid": 1281,
          "x": 2592,
          "y": 864,
          "width": 48,
          "height": 64,
          "rotation": 0,
          "visible": true
        },
        {
          "id": 225,
          "name": "pine",
          "type": "scenery",
          "gid": 1281,
          "x": 2656,
          "y": 864,
          "width": 48,
          "height": 64,
          "rotation": 0,
          "visible": true
        },
        {
          "id": 226,
          "name": "pine",
          "type": "scenery",
          "gid": 1281,
          "x": 2912,
          "y": 864,
          "width": 48,
          "height": 64,
          "rotation": 0,
          "visible": true
        },
        {
          "id": 227,
          "name": "pine",
          "type": "scenery",
          "gid": 1281,
          "x": 3936,
          "y": 864,
          "width": 48,
          "height": 64,
          "rotation": 0,
          "visible": true
        },
        {
          "id": 228,
          "name": "pine",
          "type": "scenery",
          "gid": 1281,
          "x": 2144,
          "y": 928,
          "width": 48,
          "height": 64,
          "rotation": 0,
          "visible": true
        },
        {
          "id": 229,
          "name": "pine",
          "type": "scenery",
          "gid": 1281,
          "x": 2400,
          "y": 928,
          "width": 48,
          "height": 64,
          "rotation": 0,
          "visible": true
        },
        {
          "id": 230,
          "name": "pine",
          "type": "scenery",
          "gid": 1281,
          "x": 2528,
          "y": 928,
          "width": 48,
          "height": 64,
          "rotation": 0,
          "visible": true
        },
        {
          "id": 231,
          "name": "tree",
          "type": "scenery",
          "gid": 1282,
          "x": 3936,
          "y": 928,
          "width": 64,
          "height": 64,
          "rotation": 0,
          "visible": true
        },
        {
          "id": 232,
          "name": "tree",
          "type": "scenery",
          "gid": 1282,
          "x": 2144,
          "y": 992,
          "width": 64,
          "height": 64,
          "rotation": 0,
          "visible": true
        },
        {
          "id": 233,
          "name": "pine",
          "type": "scenery",
          "gid": 1281,
          "x": 2400,
          "y": 992,
          "width": 48,
          "height": 64,
          "rotation": 0,
          "visible": true
        },
        {
          "id": 234,
          "name": "pine",
          "type": "scenery",
          "gid": 1281,
          "x": 2784,
          "y": 992,
          "width": 48,
          "height": 64,
          "rotation": 0,
          "visible": true
        },
        {
          "id": 235,
          "name": "pine",
          "type": "scenery",
          "gid": 1281,
          "x": 2144,
          "y": 1056,
          "width": 48,
          "height": 64,
          "rotation": 0,
          "visible": true
        },
        {
          "id": 236,
          "name": "pine",
          "type": "scenery",
          "gid": 1281,
          "x": 2400,
          "y": 1056,
          "width": 48,
          "height": 64,
          "rotation": 0,
          "visible": true
        },
        {
          "id": 237,
          "name": "pine",
          "type": "scenery",
          "gid": 1281,
          "x": 2912,
          "y": 1056,
          "width": 48,
          "height": 64,
          "rotation": 0,
          "visible": true
        },
        {
          "id": 238,
          "name": "bush",
          "type": "scenery",
          "gid": 1284,
          "x": 3936,
          "y": 1024,
          "width": 32,
          "height": 32,
          "rotation": 0,
          "visible": true
        },
        {
          "id": 239,
          "name": "bush",
          "type": "scenery",
          "gid": 1284,
          "x": 2144,
          "y": 1088,
          "width": 32,
          "height": 32,
          "rotation": 0,
          "visible": true
        },
        {
          "id": 240,
          "name": "bush",
          "type": "scenery",
          "gid": 1284,
          "x": 2400,
          "y": 1088,
          "width": 32,
          "height": 32,
          "rotation": 0,
          "visible": true
        },
        {
          "id": 241,
          "name": "rocks",
          "type": "scenery",
          "gid": 1283,
          "x": 2464,
          "y": 1088,
          "width": 48,
          "height": 32,
          "rotation": 0,
          "visible": true
        },
        {
          "id": 242,
          "name": "pine",
          "type": "scenery",
          "gid": 1281,
          "x": 2592,
          "y": 1120,
          "width": 48,
          "height": 64,
          "rotation": 0,
          "visible": true
        },
        {
          "id": 243,
          "name": "bush",
          "type": "scenery",
          "gid": 1284,
          "x": 3168,
          "y": 1088,
          "width": 32,
          "height": 32,
          "rotation": 0,
          "visible": true
        },
        {
          "id": 244,
          "name": "rocks",
          "type": "scenery",
          "gid": 1283,
          "x": 3936,
          "y": 1088,
          "width": 48,
          "height": 32,
          "rotation": 0,
          "visible": true
        },
        {
          "id": 245,
          "name": "pine",
          "type": "scenery",
          "gid": 1281,
          "x": 2144,
          "y": 1184,
          "width": 48,
          "height": 64,
          "rotation": 0,
          "visible": true
        },
        {
          "id": 246,
          "name": "pine",
          "type": "scenery",
          "gid": 1281,
          "x": 2400,
          "y": 1184,
          "width": 48,
          "height": 64,
          "rotation": 0,
          "visible": true
        },
        {
          "id": 247,
          "name": "pine",
          "type": "scenery",
          "gid": 1281,
          "x": 2528,
          "y": 1184,
          "width": 48,
          "height": 64,
          "rotation": 0,
          "visible": true
        },
        {
          "id": 248,
          "name": "pine",
          "type": "scenery",
          "gid": 1281,
          "x": 2656,
          "y": 1184,
          "width": 48,
          "height": 64,
          "rotation": 0,
          "visible": true
        },
        {
          "id": 249,
          "name": "rocks",
          "type": "scenery",
          "gid": 1283,
          "x": 3936,
          "y": 1152,
          "width": 48,
          "height": 32,
          "rotation": 0,
          "visible": true
        },
        {
          "id": 250,
          "name": "tree",
          "type": "scenery",
          "gid": 1282,
          "x": 2144,
          "y": 1248,
          "width": 64,
          "height": 64,
          "rotation": 0,
          "visible": true
        },
        {
          "id": 251,
          "name": "pine",
          "type": "scenery",
          "gid": 1281,
          "x": 3936,
          "y": 1248,
          "width": 48,
          "height": 64,
          "rotation": 0,
          "visible": true
        },
        {
          "id": 252,
          "name": "bush",
          "type": "scenery",
          "gid": 1284,
          "x": 2144,
          "y": 1280,
          "width": 32,
          "height": 32,
          "rotation": 0,
          "visible": true
        },
        {
          "id": 253,
          "name": "pine",
          "type": "scenery",
          "gid": 1281,
          "x": 3936,
          "y": 1312,
          "width": 48,
          "height": 64,
          "rotation": 0,
          "visible": true
        },
        {
          "id": 254,
          "name": "pine",
          "type": "scenery",
          "gid": 1281,
          "x": 2144,
          "y": 1376,
          "width": 48,
          "height": 64,
          "rotation": 0,
          "visible": true
        },
        {
          "id": 255,
          "name": "tree",
          "type": "scenery",
          "gid": 1282,
          "x": 2784,
          "y": 1376,
          "width": 64,
          "height": 64,
          "rotation": 0,
          "visible": true
        },
        {
          "id": 256,
          "name": "pine",
          "type": "scenery",
          "gid": 1281,
          "x": 3616,
          "y": 1376,
          "width": 48,
          "height": 64,
          "rotation": 0,
          "visible": true
        },
        {
          "id": 257,
          "name": "tree",
          "type": "scenery",
          "gid": 1282,
          "x": 3936,
          "y": 1376,
          "width": 64,
          "height": 64,
          "rotation": 0,
          "visible": true
        },
        {
          "id": 258,
          "name": "pine",
          "type": "scenery",
          "gid": 1281,
          "x": 3360,
          "y": 1440,
          "width": 48,
          "height": 64,
          "rotation": 0,
          "visible": true
        },
        {
          "id": 259,
          "name": "pine",
          "type": "scenery",
          "gid": 1281,
          "x": 3680,
          "y": 1440,
          "width": 48,
          "height": 64,
          "rotation": 0,
          "visible": true
        },
        {
          "id": 260,
          "name": "pine",
          "type": "scenery",
          "gid": 1281,
          "x": 3936,
          "y": 1440,
          "width": 48,
          "height": 64,
          "rotation": 0,
          "visible": true
        },
        {
          "id": 261,
          "name": "pine",
          "type": "scenery",
          "gid": 1281,
          "x": 3936,
          "y": 1504,
          "width": 48,
          "height": 64,
          "rotation": 0,
          "visible": true
        },
        {
          "id": 262,
          "name": "pine",
          "type": "scenery",
          "gid": 1281,
          "x": 3936,
          "y": 1632,
          "width": 48,
          "height": 64,
          "rotation": 0,
          "visible": true
        },
        {
          "id": 263,
          "name": "pine",
          "type": "scenery",
          "gid": 1281,
          "x": 2144,
          "y": 1696,
          "width": 48,
          "height": 64,
          "rotation": 0,
          "visible": true
        },
        {
          "id": 264,
          "name": "pine",
          "type": "scenery",
          "gid": 1281,
          "x": 2464,
          "y": 1696,
          "width": 48,
          "height": 64,
          "rotation": 0,
          "visible": true
        },
        {
          "id": 265,
          "name": "pine",
          "type": "scenery",
          "gid": 1281,
          "x": 3232,
          "y": 1696,
          "width": 48,
          "height": 64,
          "rotation": 0,
          "visible": true
        },
        {
          "id": 266,
          "name": "tree",
          "type": "scenery",
          "gid": 1282,
          "x": 3296,
          "y": 1696,
          "width": 64,
          "height": 64,
          "rotation": 0,
          "visible": true
        },
        {
          "id": 267,
          "name": "pine",
          "type": "scenery",
          "gid": 1281,
          "x": 3936,
          "y": 1696,
          "width": 48,
          "height": 64,
          "rotation": 0,
          "visible": true
        },
        {
          "id": 268,
          "name": "pine",
          "type": "scenery",
          "gid": 1281,
          "x": 2144,
          "y": 1760,
          "width": 48,
          "height": 64,
          "rotation": 0,
          "visible": true
        },
        {
          "id": 269,
          "name": "pine",
          "type": "scenery",
          "gid": 1281,
          "x": 3936,
          "y": 1760,
          "width": 48,
          "height": 64,
          "rotation": 0,
          "visible": true
        },
        {
          "id": 270,
          "name": "pine",
          "type": "scenery",
          "gid": 1281,
          "x": 2144,
          "y": 1824,
          "width": 48,
          "height": 64,
          "rotation": 0,
          "visible": true
        },
        {
          "id": 271,
          "name": "tree",
          "type": "scenery",
          "gid": 1282,
          "x": 2208,
          "y": 1824,
          "width": 64,
          "height": 64,
          "rotation": 0,
          "visible": true
        },
        {
          "id": 272,
          "name": "pine",
          "type": "scenery",
          "gid": 1281,
          "x": 3872,
          "y": 1824,
          "width": 48,
          "height": 64,
          "rotation": 0,
          "visible": true
        },
        {
          "id": 273,
          "name": "pine",
          "type": "scenery",
          "gid": 1281,
          "x": 3936,
          "y": 1824,
          "width": 48,
          "height": 64,
          "rotation": 0,
          "visible": true
        },
        {
          "id": 274,
          "name": "pine",
          "type": "scenery",
          "gid": 1281,
          "x": 2144,
          "y": 1888,
          "width": 48,
          "height": 64,
          "rotation": 0,
          "visible": true
        },
        {
          "id": 275,
          "name": "bush",
          "type": "scenery",
          "gid": 1284,
          "x": 2208,
          "y": 1856,
          "width": 32,
          "height": 32,
          "rotation": 0,
          "visible": true
        },
        {
          "id": 276,
          "name": "pine",
          "type": "scenery",
          "gid": 1281,
          "x": 2336,
          "y": 1888,
          "width": 48,
          "height": 64,
          "rotation": 0,
          "visible": true
        },
        {
          "id": 277,
          "name": "pine",
          "type": "scenery",
          "gid": 1281,
          "x": 3808,
          "y": 1888,
          "width": 48,
          "height": 64,
          "rotation": 0,
          "visible": true
        },
        {
          "id": 278,
          "name": "tree",
          "type": "scenery",
          "gid": 1282,
          "x": 3872,
          "y": 1888,
          "width": 64,
          "height": 64,
          "rotation": 0,
          "visible": true
        },
        {
          "id": 279,
          "name": "pine",
          "type": "scenery",
          "gid": 1281,
          "x": 3936,
          "y": 1888,
          "width": 48,
          "height": 64,
          "rotation": 0,
          "visible": true
        },
        {
          "id": 280,
          "name": "tree",
          "type": "scenery",
          "gid": 1282,
          "x": 2144,
          "y": 1952,
          "width": 64,
          "height": 64,
          "rotation": 0,
          "visible": true
        },
        {
          "id": 281,
          "name": "bush",
          "type": "scenery",
          "gid": 1284,
          "x": 2208,
          "y": 1920,
          "width": 32,
          "height": 32,
          "rotation": 0,
          "visible": true
        },
        {
          "id": 282,
          "name": "rocks",
          "type": "scenery",
          "gid": 1283,
          "x": 2272,
          "y": 1920,
          "width": 48,
          "height": 32,
          "rotation": 0,
          "visible": true
        },
        {
          "id": 283,
          "name": "bush",
          "type": "scenery",
          "gid": 1284,
          "x": 2336,
          "y": 1920,
          "width": 32,
          "height": 32,
          "rotation": 0,
          "visible": true
        },
        {
          "id": 284,
          "name": "bush",
          "type": "scenery",
          "gid": 1284,
          "x": 2464,
          "y": 1920,
          "width": 32,
          "height": 32,
          "rotation": 0,
          "visible": true
        },
        {
          "id": 285,
          "name": "pine",
          "type": "scenery",
          "gid": 1281,
          "x": 2528,
          "y": 1952,
          "width": 48,
          "height": 64,
          "rotation": 0,
          "visible": true
        },
        {
          "id": 286,
          "name": "tree",
          "type": "scenery",
          "gid": 1282,
          "x": 2592,
          "y": 1952,
          "width": 64,
          "height": 64,
          "rotation": 0,
          "visible": true
        },
        {
          "id": 287,
          "name": "tree",
          "type": "scenery",
          "gid": 1282,
          "x": 2656,
          "y": 1952,
          "width": 64,
          "height": 64,
          "rotation": 0,
          "visible": true
        },
        {
          "id": 288,
          "name": "pine",
          "type": "scenery",
          "gid": 1281,
          "x": 2720,
          "y": 1952,
          "width": 48,
          "height": 64,
          "rotation": 0,
          "visible": true
        },
        {
          "id": 289,
          "name": "pine",
          "type": "scenery",
          "gid": 1281,
          "x": 2784,
          "y": 1952,
          "width": 48,
          "height": 64,
          "rotation": 0,
          "visible": true
        },
        {
          "id": 290,
          "name": "pine",
          "type": "scenery",
          "gid": 1281,
          "x": 2848,
          "y": 1952,
          "width": 48,
          "height": 64,
          "rotation": 0,
          "visible": true
        },
        {
          "id": 291,
          "name": "bush",
          "type": "scenery",
          "gid": 1284,
          "x": 2912,
          "y": 1920,
          "width": 32,
          "height": 32,
          "rotation": 0,
          "visible": true
        },
        {
          "id": 292,
          "name": "pine",
          "type": "scenery",
          "gid": 1281,
          "x": 3168,
          "y": 1952,
          "width": 48,
          "height": 64,
          "rotation": 0,
          "visible": true
        },
        {
          "id": 293,
          "name": "pine",
          "type": "scenery",
          "gid": 1281,
          "x": 3232,
          "y": 1952,
          "width": 48,
          "height": 64,
          "rotation": 0,
          "visible": true
        },
        {
          "id": 294,
          "name": "pine",
          "type": "scenery",
          "gid": 1281,
          "x": 3296,
          "y": 1952,
          "width": 48,
          "height": 64,
          "rotation": 0,
          "visible": true
        },
        {
          "id": 295,
          "name": "bush",
          "type": "scenery",
          "gid": 1284,
          "x": 3360,
          "y": 1920,
          "width": 32,
          "height": 32,
          "rotation": 0,
          "visible": true
        },
        {
          "id": 296,
          "name": "rocks",
          "type": "scenery",
          "gid": 1283,
          "x": 3488,
          "y": 1920,
          "width": 48,
          "height": 32,
          "rotation": 0,
          "visible": true
        },
        {
          "id": 297,
          "name": "pine",
          "type": "scenery",
          "gid": 1281,
          "x": 3552,
          "y": 1952,
          "width": 48,
          "height": 64,
          "rotation": 0,
          "visible": true
        },
        {
          "id": 298,
          "name": "pine",
          "type": "scenery",
          "gid": 1281,
          "x": 3616,
          "y": 1952,
          "width": 48,
          "height": 64,
          "rotation": 0,
          "visible": true
        },
        {
          "id": 299,
          "name": "pine",
          "type": "scenery",
          "gid": 1281,
          "x": 3744,
          "y": 1952,
          "width": 48,
          "height": 64,
          "rotation": 0,
          "visible": true
        },
        {
          "id": 300,
          "name": "rocks",
          "type": "scenery",
          "gid": 1283,
          "x": 3808,
          "y": 1920,
          "width": 48,
          "height": 32,
          "rotation": 0,
          "visible": true
        },
        {
          "id": 301,
          "name": "bush",
          "type": "scenery",
          "gid": 1284,
          "x": 3936,
          "y": 1920,
          "width": 32,
          "height": 32,
          "rotation": 0,
          "visible": true
        },
        {
          "id": 302,
          "name": "garage",
          "type": "scenery",
          "gid": 1285,
          "x": 416,
          "y": 3488,
          "width": 128,
          "height": 96,
          "rotation": 0,
          "visible": true
        },
        {
          "id": 303,
          "name": "cottage",
          "type": "scenery",
          "gid": 1286,
          "x": 352,
          "y": 2736,
          "width": 96,
          "height": 80,
          "rotation": 0,
          "visible": true
        },
        {
          "id": 304,
          "name": "cottage",
          "type": "scenery",
          "gid": 1286,
          "x": 480,
          "y": 2768,
          "width": 96,
          "height": 80,
          "rotation": 0,
          "visible": true
        },
        {
          "id": 305,
          "name": "fence_h",
          "type": "scenery",
          "gid": 1287,
          "x": 400,
          "y": 3392,
          "width": 64,
          "height": 32,
          "rotation": 0,
          "visible": true
        },
        {
          "id": 306,
          "name": "fence_h",
          "type": "scenery",
          "gid": 1287,
          "x": 464,
          "y": 3392,
          "width": 64,
          "height": 32,
          "rotation": 0,
          "visible": true
        },
        {
          "id": 307,
          "name": "fence_h",
          "type": "scenery",
          "gid": 1287,
          "x": 528,
          "y": 3392,
          "width": 64,
          "height": 32,
          "rotation": 0,
          "visible": true
        },
        {
          "id": 308,
          "name": "rocks",
          "type": "scenery",
          "gid": 1283,
          "x": 1376,
          "y": 3216,
          "width": 48,
          "height": 32,
          "rotation": 0,
          "visible": true
        },
        {
          "id": 309,
          "name": "rocks",
          "type": "scenery",
          "gid": 1283,
          "x": 1488,
          "y": 3216,
          "width": 48,
          "height": 32,
          "rotation": 0,
          "visible": true
        },
        {
          "id": 310,
          "name": "rocks",
          "type": "scenery",
          "gid": 1283,
          "x": 1584,
          "y": 3216,
          "width": 48,
          "height": 32,
          "rotation": 0,
          "visible": true
        },
        {
          "id": 311,
          "name": "tree",
          "type": "scenery",
          "gid": 1282,
          "x": 160,
          "y": 2208,
          "width": 64,
          "height": 64,
          "rotation": 0,
          "visible": true
        },
        {
          "id": 312,
          "name": "pine",
          "type": "scenery",
          "gid": 1281,
          "x": 224,
          "y": 2208,
          "width": 48,
          "height": 64,
          "rotation": 0,
          "visible": true
        },
        {
          "id": 313,
          "name": "tree",
          "type": "scenery",
          "gid": 1282,
          "x": 288,
          "y": 2208,
          "width": 64,
          "height": 64,
          "rotation": 0,
          "visible": true
        },
        {
          "id": 314,
          "name": "rocks",
          "type": "scenery",
          "gid": 1283,
          "x": 416,
          "y": 2176,
          "width": 48,
          "height": 32,
          "rotation": 0,
          "visible": true
        },
        {
          "id": 315,
          "name": "pine",
          "type": "scenery",
          "gid": 1281,
          "x": 480,
          "y": 2208,
          "width": 48,
          "height": 64,
          "rotation": 0,
          "visible": true
        },
        {
          "id": 316,
          "name": "pine",
          "type": "scenery",
          "gid": 1281,
          "x": 544,
          "y": 2208,
          "width": 48,
          "height": 64,
          "rotation": 0,
          "visible": true
        },
        {
          "id": 317,
          "name": "pine",
          "type": "scenery",
          "gid": 1281,
          "x": 672,
          "y": 2208,
          "width": 48,
          "height": 64,
          "rotation": 0,
          "visible": true
        },
        {
          "id": 318,
          "name": "rocks",
          "type": "scenery",
          "gid": 1283,
          "x": 736,
          "y": 2176,
          "width": 48,
          "height": 32,
          "rotation": 0,
          "visible": true
        },
        {
          "id": 319,
          "name": "pine",
          "type": "scenery",
          "gid": 1281,
          "x": 864,
          "y": 2208,
          "width": 48,
          "height": 64,
          "rotation": 0,
          "visible": true
        },
        {
          "id": 320,
          "name": "rocks",
          "type": "scenery",
          "gid": 1283,
          "x": 1120,
          "y": 2176,
          "width": 48,
          "height": 32,
          "rotation": 0,
          "visible": true
        },
        {
          "id": 321,
          "name": "pine",
          "type": "scenery",
          "gid": 1281,
          "x": 1248,
          "y": 2208,
          "width": 48,
          "height": 64,
          "rotation": 0,
          "visible": true
        },
        {
          "id": 322,
          "name": "pine",
          "type": "scenery",
          "gid": 1281,
          "x": 1312,
          "y": 2208,
          "width": 48,
          "height": 64,
          "rotation": 0,
          "visible": true
        },
        {
          "id": 323,
          "name": "bush",
          "type": "scenery",
          "gid": 1284,
          "x": 1504,
          "y": 2176,
          "width": 32,
          "height": 32,
          "rotation": 0,
          "visible": true
        },
        {
          "id": 324,
          "name": "pine",
          "type": "scenery",
          "gid": 1281,
          "x": 1568,
          "y": 2208,
          "width": 48,
          "height": 64,
          "rotation": 0,
          "visible": true
        },
        {
          "id": 325,
          "name": "rocks",
          "type": "scenery",
          "gid": 1283,
          "x": 1696,
          "y": 2176,
          "width": 48,
          "height": 32,
          "rotation": 0,
          "visible": true
        },
        {
          "id": 326,
          "name": "pine",
          "type": "scenery",
          "gid": 1281,
          "x": 1760,
          "y": 2208,
          "width": 48,
          "height": 64,
          "rotation": 0,
          "visible": true
        },
        {
          "id": 327,
          "name": "rocks",
          "type": "scenery",
          "gid": 1283,
          "x": 1824,
          "y": 2176,
          "width": 48,
          "height": 32,
          "rotation": 0,
          "visible": true
        },
        {
          "id": 328,
          "name": "bush",
          "type": "scenery",
          "gid": 1284,
          "x": 1888,
          "y": 2176,
          "width": 32,
          "height": 32,
          "rotation": 0,
          "visible": true
        },
        {
          "id": 329,
          "name": "bush",
          "type": "scenery",
          "gid": 1284,
          "x": 96,
          "y": 2240,
          "width": 32,
          "height": 32,
          "rotation": 0,
          "visible": true
        },
        {
          "id": 330,
          "name": "pine",
          "type": "scenery",
          "gid": 1281,
          "x": 160,
          "y": 2272,
          "width": 48,
          "height": 64,
          "rotation": 0,
          "visible": true
        },
        {
          "id": 331,
          "name": "pine",
          "type": "scenery",
          "gid": 1281,
          "x": 224,
          "y": 2272,
          "width": 48,
          "height": 64,
          "rotation": 0,
          "visible": true
        },
        {
          "id": 332,
          "name": "tree",
          "type": "scenery",
          "gid": 1282,
          "x": 1696,
          "y": 2272,
          "width": 64,
          "height": 64,
          "rotation": 0,
          "visible": true
        },
        {
          "id": 333,
          "name": "bush",
          "type": "scenery",
          "gid": 1284,
          "x": 1888,
          "y": 2240,
          "width": 32,
          "height": 32,
          "rotation": 0,
          "visible": true
        },
        {
          "id": 334,
          "name": "rocks",
          "type": "scenery",
          "gid": 1283,
          "x": 96,
          "y": 2304,
          "width": 48,
          "height": 32,
          "rotation": 0,
          "visible": true
        },
        {
          "id": 335,
          "name": "pine",
          "type": "scenery",
          "gid": 1281,
          "x": 1824,
          "y": 2336,
          "width": 48,
          "height": 64,
          "rotation": 0,
          "visible": true
        },
        {
          "id": 336,
          "name": "bush",
          "type": "scenery",
          "gid": 1284,
          "x": 1888,
          "y": 2304,
          "width": 32,
          "height": 32,
          "rotation": 0,
          "visible": true
        },
        {
          "id": 337,
          "name": "bush",
          "type": "scenery",
          "gid": 1284,
          "x": 160,
          "y": 2368,
          "width": 32,
          "height": 32,
          "rotation": 0,
          "visible": true
        },
        {
          "id": 338,
          "name": "pine",
          "type": "scenery",
          "gid": 1281,
          "x": 96,
          "y": 2464,
          "width": 48,
          "height": 64,
          "rotation": 0,
          "visible": true
        },
        {
          "id": 339,
          "name": "tree",
          "type": "scenery",
          "gid": 1282,
          "x": 416,
          "y": 2464,
          "width": 64,
          "height": 64,
          "rotation": 0,
          "visible": true
        },
        {
          "id": 340,
          "name": "bush",
          "type": "scenery",
          "gid": 1284,
          "x": 480,
          "y": 2432,
          "width": 32,
          "height": 32,
          "rotation": 0,
          "visible": true
        },
        {
          "id": 341,
          "name": "pine",
          "type": "scenery",
          "gid": 1281,
          "x": 544,
          "y": 2464,
          "width": 48,
          "height": 64,
          "rotation": 0,
          "visible": true
        },
        {
          "id": 342,
          "name": "pine",
          "type": "scenery",
          "gid": 1281,
          "x": 608,
          "y": 2464,
          "width": 48,
          "height": 64,
          "rotation": 0,
          "visible": true
        },
        {
          "id": 343,
          "name": "tree",
          "type": "scenery",
          "gid": 1282,
          "x": 736,
          "y": 2464,
          "width": 64,
          "height": 64,
          "rotation": 0,
          "visible": true
        },
        {
          "id": 344,
          "name": "tree",
          "type": "scenery",
          "gid": 1282,
          "x": 800,
          "y": 2464,
          "width": 64,
          "height": 64,
          "rotation": 0,
          "visible": true
        },
        {
          "id": 345,
          "name": "tree",
          "type": "scenery",
          "gid": 1282,
          "x": 864,
          "y": 2464,
          "width": 64,
          "height": 64,
          "rotation": 0,
          "visible": true
        },
        {
          "id": 346,
          "name": "pine",
          "type": "scenery",
          "gid": 1281,
          "x": 1120,
          "y": 2464,
          "width": 48,
          "height": 64,
          "rotation": 0,
          "visible": true
        },
        {
          "id": 347,
          "name": "bush",
          "type": "scenery",
          "gid": 1284,
          "x": 1248,
          "y": 2432,
          "width": 32,
          "height": 32,
          "rotation": 0,
          "visible": true
        },
        {
          "id": 348,
          "name": "pine",
          "type": "scenery",
          "gid": 1281,
          "x": 1312,
          "y": 2464,
          "width": 48,
          "height": 64,
          "rotation": 0,
          "visible": true
        },
        {
          "id": 349,
          "name": "bush",
          "type": "scenery",
          "gid": 1284,
          "x": 1376,
          "y": 2432,
          "width": 32,
          "height": 32,
          "rotation": 0,
          "visible": true
        },
        {
          "id": 350,
          "name": "tree",
          "type": "scenery",
          "gid": 1282,
          "x": 1440,
          "y": 2464,
          "width": 64,
          "height": 64,
          "rotation": 0,
          "visible": true
        },
        {
          "id": 351,
          "name": "pine",
          "type": "scenery",
          "gid": 1281,
          "x": 1504,
          "y": 2464,
          "width": 48,
          "height": 64,
          "rotation": 0,
          "visible": true
        },
        {
          "id": 352,
          "name": "pine",
          "type": "scenery",
          "gid": 1281,
          "x": 1568,
          "y": 2464,
          "width": 48,
          "height": 64,
          "rotation": 0,
          "visible": true
        },
        {
          "id": 353,
          "name": "pine",
          "type": "scenery",
          "gid": 1281,
          "x": 1888,
          "y": 2464,
          "width": 48,
          "height": 64,
          "rotation": 0,
          "visible": true
        },
        {
          "id": 354,
          "name": "pine",
          "type": "scenery",
          "gid": 1281,
          "x": 96,
          "y": 2528,
          "width": 48,
          "height": 64,
          "rotation": 0,
          "visible": true
        },
        {
          "id": 355,
          "name": "bush",
          "type": "scenery",
          "gid": 1284,
          "x": 96,
          "y": 2560,
          "width": 32,
          "height": 32,
          "rotation": 0,
          "visible": true
        },
        {
          "id": 356,
          "name": "pine",
          "type": "scenery",
          "gid": 1281,
          "x": 1888,
          "y": 2592,
          "width": 48,
          "height": 64,
          "rotation": 0,
          "visible": true
        },
        {
          "id": 357,
          "name": "bush",
          "type": "scenery",
          "gid": 1284,
          "x": 96,
          "y": 2624,
          "width": 32,
          "height": 32,
          "rotation": 0,
          "visible": true
        },
        {
          "id": 358,
          "name": "bush",
          "type": "scenery",
          "gid": 1284,
          "x": 672,
          "y": 2688,
          "width": 32,
          "height": 32,
          "rotation": 0,
          "visible": true
        },
        {
          "id": 359,
          "name": "pine",
          "type": "scenery",
          "gid": 1281,
          "x": 736,
          "y": 2720,
          "width": 48,
          "height": 64,
          "rotation": 0,
          "visible": true
        },
        {
          "id": 360,
          "name": "pine",
          "type": "scenery",
          "gid": 1281,
          "x": 1184,
          "y": 2720,
          "width": 48,
          "height": 64,
          "rotation": 0,
          "visible": true
        },
        {
          "id": 361,
          "name": "pine",
          "type": "scenery",
          "gid": 1281,
          "x": 1248,
          "y": 2720,
          "width": 48,
          "height": 64,
          "rotation": 0,
          "visible": true
        },
        {
          "id": 362,
          "name": "pine",
          "type": "scenery",
          "gid": 1281,
          "x": 1888,
          "y": 2720,
          "width": 48,
          "height": 64,
          "rotation": 0,
          "visible": true
        },
        {
          "id": 363,
          "name": "pine",
          "type": "scenery",
          "gid": 1281,
          "x": 96,
          "y": 2784,
          "width": 48,
          "height": 64,
          "rotation": 0,
          "visible": true
        },
        {
          "id": 364,
          "name": "tree",
          "type": "scenery",
          "gid": 1282,
          "x": 736,
          "y": 2784,
          "width": 64,
          "height": 64,
          "rotation": 0,
          "visible": true
        },
        {
          "id": 365,
          "name": "bush",
          "type": "scenery",
          "gid": 1284,
          "x": 864,
          "y": 2752,
          "width": 32,
          "height": 32,
          "rotation": 0,
          "visible": true
        },
        {
          "id": 366,
          "name": "rocks",
          "type": "scenery",
          "gid": 1283,
          "x": 864,
          "y": 2816,
          "width": 48,
          "height": 32,
          "rotation": 0,
          "visible": true
        },
        {
          "id": 367,
          "name": "pine",
          "type": "scenery",
          "gid": 1281,
          "x": 1184,
          "y": 2848,
          "width": 48,
          "height": 64,
          "rotation": 0,
          "visible": true
        },
        {
          "id": 368,
          "name": "pine",
          "type": "scenery",
          "gid": 1281,
          "x": 1888,
          "y": 2848,
          "width": 48,
          "height": 64,
          "rotation": 0,
          "visible": true
        },
        {
          "id": 369,
          "name": "pine",
          "type": "scenery",
          "gid": 1281,
          "x": 352,
          "y": 2912,
          "width": 48,
          "height": 64,
          "rotation": 0,
          "visible": true
        },
        {
          "id": 370,
          "name": "pine",
          "type": "scenery",
          "gid": 1281,
          "x": 544,
          "y": 2912,
          "width": 48,
          "height": 64,
          "rotation": 0,
          "visible": true
        },
        {
          "id": 371,
          "name": "pine",
          "type": "scenery",
          "gid": 1281,
          "x": 608,
          "y": 2912,
          "width": 48,
          "height": 64,
          "rotation": 0,
          "visible": true
        },
        {
          "id": 372,
          "name": "pine",
          "type": "scenery",
          "gid": 1281,
          "x": 864,
          "y": 2912,
          "width": 48,
          "height": 64,
          "rotation": 0,
          "visible": true
        },
        {
          "id": 373,
          "name": "pine",
          "type": "scenery",
          "gid": 1281,
          "x": 1888,
          "y": 2912,
          "width": 48,
          "height": 64,
          "rotation": 0,
          "visible": true
        },
        {
          "id": 374,
          "name": "pine",
          "type": "scenery",
          "gid": 1281,
          "x": 96,
          "y": 2976,
          "width": 48,
          "height": 64,
          "rotation": 0,
          "visible": true
        },
        {
          "id": 375,
          "name": "pine",
          "type": "scenery",
          "gid": 1281,
          "x": 352,
          "y": 2976,
          "width": 48,
          "height": 64,
          "rotation": 0,
          "visible": true
        },
        {
          "id": 376,
          "name": "pine",
          "type": "scenery",
          "gid": 1281,
          "x": 480,
          "y": 2976,
          "width": 48,
          "height": 64,
          "rotation": 0,
          "visible": true
        },
        {
          "id": 377,
          "name": "tree",
          "type": "scenery",
          "gid": 1282,
          "x": 1888,
          "y": 2976,
          "width": 64,
          "height": 64,
          "rotation": 0,
          "visible": true
        },
        {
          "id": 378,
          "name": "tree",
          "type": "scenery",
          "gid": 1282,
          "x": 96,
          "y": 3040,
          "width": 64,
          "height": 64,
          "rotation": 0,
          "visible": true
        },
        {
          "id": 379,
          "name": "pine",
          "type": "scenery",
          "gid": 1281,
          "x": 352,
          "y": 3040,
          "width": 48,
          "height": 64,
          "rotation": 0,
          "visible": true
        },
        {
          "id": 380,
          "name": "pine",
          "type": "scenery",
          "gid": 1281,
          "x": 736,
          "y": 3040,
          "width": 48,
          "height": 64,
          "rotation": 0,
          "visible": true
        },
        {
          "id": 381,
          "name": "pine",
          "type": "scenery",
          "gid": 1281,
          "x": 96,
          "y": 3104,
          "width": 48,
          "height": 64,
          "rotation": 0,
          "visible": true
        },
        {
          "id": 382,
          "name": "pine",
          "type": "scenery",
          "gid": 1281,
          "x": 352,
          "y": 3104,
          "width": 48,
          "height": 64,
          "rotation": 0,
          "visible": true
        },
        {
          "id": 383,
          "name": "pine",
          "type": "scenery",
          "gid": 1281,
          "x": 864,
          "y": 3104,
          "width": 48,
          "height": 64,
          "rotation": 0,
          "visible": true
        },
        {
          "id": 384,
          "name": "bush",
          "type": "scenery",
          "gid": 1284,
          "x": 1888,
          "y": 3072,
          "width": 32,
          "height": 32,
          "rotation": 0,
          "visible": true
        },
        {
          "id": 385,
          "name": "bush",
          "type": "scenery",
          "gid": 1284,
          "x": 96,
          "y": 3136,
          "width": 32,
          "height": 32,
          "rotation": 0,
          "visible": true
        },
        {
          "id": 386,
          "name": "bush",
          "type": "scenery",
          "gid": 1284,
          "x": 352,
          "y": 3136,
          "width": 32,
          "height": 32,
          "rotation": 0,
          "visible": true
        },
        {
          "id": 387,
          "name": "rocks",
          "type": "scenery",
          "gid": 1283,
          "x": 416,
          "y": 3136,
          "width": 48,
          "height": 32,
          "rotation": 0,
          "visible": true
        },
        {
          "id": 388,
          "name": "pine",
          "type": "scenery",
          "gid": 1281,
          "x": 544,
          "y": 3168,
          "width": 48,
          "height": 64,
          "rotation": 0,
          "visible": true
        },
        {
          "id": 389,
          "name": "bush",
          "type": "scenery",
          "gid": 1284,
          "x": 1120,
          "y": 3136,
          "width": 32,
          "height": 32,
          "rotation": 0,
          "visible": true
        },
        {
          "id": 390,
          "name": "rocks",
          "type": "scenery",
          "gid": 1283,
          "x": 1888,
          "y": 3136,
          "width": 48,
          "height": 32,
          "rotation": 0,
          "visible": true
        },
        {
          "id": 391,
          "name": "pine",
          "type": "scenery",
          "gid": 1281,
          "x": 96,
          "y": 3232,
          "width": 48,
          "height": 64,
          "rotation": 0,
          "visible": true
        },
        {
          "id": 392,
          "name": "pine",
          "type": "scenery",
          "gid": 1281,
          "x": 352,
          "y": 3232,
          "width": 48,
          "height": 64,
          "rotation": 0,
          "visible": true
        },
        {
          "id": 393,
          "name": "pine",
          "type": "scenery",
          "gid": 1281,
          "x": 480,
          "y": 3232,
          "width": 48,
          "height": 64,
          "rotation": 0,
          "visible": true
        },
        {
          "id": 394,
          "name": "pine",
          "type": "scenery",
          "gid": 1281,
          "x": 608,
          "y": 3232,
          "width": 48,
          "height": 64,
          "rotation": 0,
          "visible": true
        },
        {
          "id": 395,
          "name": "rocks",
          "type": "scenery",
          "gid": 1283,
          "x": 1888,
          "y": 3200,
          "width": 48,
          "height": 32,
          "rotation": 0,
          "visible": true
        },
        {
          "id": 396,
          "name": "tree",
          "type": "scenery",
          "gid": 1282,
          "x": 96,
          "y": 3296,
          "width": 64,
          "height": 64,
          "rotation": 0,
          "visible": true
        },
        {
          "id": 397,
          "name": "pine",
          "type": "scenery",
          "gid": 1281,
          "x": 1888,
          "y": 3296,
          "width": 48,
          "height": 64,
          "rotation": 0,
          "visible": true
        },
        {
          "id": 398,
          "name": "bush",
          "type": "scenery",
          "gid": 1284,
          "x": 96,
          "y": 3328,
          "width": 32,
          "height": 32,
          "rotation": 0,
          "visible": true
        },
        {
          "id": 399,
          "name": "pine",
          "type": "scenery",
          "gid": 1281,
          "x": 1888,
          "y": 3360,
          "width": 48,
          "height": 64,
          "rotation": 0,
          "visible": true
        },
        {
          "id": 400,
          "name": "pine",
          "type": "scenery",
          "gid": 1281,
          "x": 96,
          "y": 3424,
          "width": 48,
          "height": 64,
          "rotation": 0,
          "visible": true
        },
        {
          "id": 401,
          "name": "tree",
          "type": "scenery",
          "gid": 1282,
          "x": 736,
          "y": 3424,
          "width": 64,
          "height": 64,
          "rotation": 0,
          "visible": true
        },
        {
          "id": 402,
          "name": "pine",
          "type": "scenery",
          "gid": 1281,
          "x": 1568,
          "y": 3424,
          "width": 48,
          "height": 64,
          "rotation": 0,
          "visible": true
        },
        {
          "id": 403,
          "name": "tree",
          "type": "scenery",
          "gid": 1282,
          "x": 1888,
          "y": 3424,
          "width": 64,
          "height": 64,
          "rotation": 0,
          "visible": true
        },
        {
          "id": 404,
          "name": "pine",
          "type": "scenery",
          "gid": 1281,
          "x": 1312,
          "y": 3488,
          "width": 48,
          "height": 64,
          "rotation": 0,
          "visible": true
        },
        {
          "id": 405,
          "name": "pine",
          "type": "scenery",
          "gid": 1281,
          "x": 1632,
          "y": 3488,
          "width": 48,
          "height": 64,
          "rotation": 0,
          "visible": true
        },
        {
          "id": 406,
          "name": "pine",
          "type": "scenery",
          "gid": 1281,
          "x": 1888,
          "y": 3488,
          "width": 48,
          "height": 64,
          "rotation": 0,
          "visible": true
        },
        {
          "id": 407,
          "name": "pine",
          "type": "scenery",
          "gid": 1281,
          "x": 96,
          "y": 3552,
          "width": 48,
          "height": 64,
          "rotation": 0,
          "visible": true
        },
        {
          "id": 408,
          "name": "pine",
          "type": "scenery",
          "gid": 1281,
          "x": 96,
          "y": 3616,
          "width": 48,
          "height": 64,
          "rotation": 0,
          "visible": true
        },
        {
          "id": 409,
          "name": "bush",
          "type": "scenery",
          "gid": 1284,
          "x": 96,
          "y": 3648,
          "width": 32,
          "height": 32,
          "rotation": 0,
          "visible": true
        },
        {
          "id": 410,
          "name": "pine",
          "type": "scenery",
          "gid": 1281,
          "x": 96,
          "y": 3744,
          "width": 48,
          "height": 64,
          "rotation": 0,
          "visible": true
        },
        {
          "id": 411,
          "name": "pine",
          "type": "scenery",
          "gid": 1281,
          "x": 416,
          "y": 3744,
          "width": 48,
          "height": 64,
          "rotation": 0,
          "visible": true
        },
        {
          "id": 412,
          "name": "pine",
          "type": "scenery",
          "gid": 1281,
          "x": 1184,
          "y": 3744,
          "width": 48,
          "height": 64,
          "rotation": 0,
          "visible": true
        },
        {
          "id": 413,
          "name": "tree",
          "type": "scenery",
          "gid": 1282,
          "x": 1248,
          "y": 3744,
          "width": 64,
          "height": 64,
          "rotation": 0,
          "visible": true
        },
        {
          "id": 414,
          "name": "pine",
          "type": "scenery",
          "gid": 1281,
          "x": 1888,
          "y": 3744,
          "width": 48,
          "height": 64,
          "rotation": 0,
          "visible": true
        },
        {
          "id": 415,
          "name": "pine",
          "type": "scenery",
          "gid": 1281,
          "x": 96,
          "y": 3808,
          "width": 48,
          "height": 64,
          "rotation": 0,
          "visible": true
        },
        {
          "id": 416,
          "name": "pine",
          "type": "scenery",
          "gid": 1281,
          "x": 1888,
          "y": 3808,
          "width": 48,
          "height": 64,
          "rotation": 0,
          "visible": true
        },
        {
          "id": 417,
          "name": "pine",
          "type": "scenery",
          "gid": 1281,
          "x": 96,
          "y": 3872,
          "width": 48,
          "height": 64,
          "rotation": 0,
          "visible": true
        },
        {
          "id": 418,
          "name": "tree",
          "type": "scenery",
          "gid": 1282,
          "x": 160,
          "y": 3872,
          "width": 64,
          "height": 64,
          "rotation": 0,
          "visible": true
        },
        {
          "id": 419,
          "name": "pine",
          "type": "scenery",
          "gid": 1281,
          "x": 1824,
          "y": 3872,
          "width": 48,
          "height": 64,
          "rotation": 0,
          "visible": true
        },
        {
          "id": 420,
          "name": "pine",
          "type": "scenery",
          "gid": 1281,
          "x": 1888,
          "y": 3872,
          "width": 48,
          "height": 64,
          "rotation": 0,
          "visible": true
        },
        {
          "id": 421,
          "name": "pine",
          "type": "scenery",
          "gid": 1281,
          "x": 96,
          "y": 3936,
          "width": 48,
          "height": 64,
          "rotation": 0,
          "visible": true
        },
        {
          "id": 422,
          "name": "bush",
          "type": "scenery",
          "gid": 1284,
          "x": 160,
          "y": 3904,
          "width": 32,
          "height": 32,
          "rotation": 0,
          "visible": true
        },
        {
          "id": 423,
          "name": "pine",
          "type": "scenery",
          "gid": 1281,
          "x": 288,
          "y": 3936,
          "width": 48,
          "height": 64,
          "rotation": 0,
          "visible": true
        },
        {
          "id": 424,
          "name": "pine",
          "type": "scenery",
          "gid": 1281,
          "x": 1760,
          "y": 3936,
          "width": 48,
          "height": 64,
          "rotation": 0,
          "visible": true
        },
        {
          "id": 425,
          "name": "tree",
          "type": "scenery",
          "gid": 1282,
          "x": 1824,
          "y": 3936,
          "width": 64,
          "height": 64,
          "rotation": 0,
          "visible": true
        },
        {
          "id": 426,
          "name": "pine",
          "type": "scenery",
          "gid": 1281,
          "x": 1888,
          "y": 3936,
          "width": 48,
          "height": 64,
          "rotation": 0,
          "visible": true
        },
        {
          "id": 427,
          "name": "tree",
          "type": "scenery",
          "gid": 1282,
          "x": 96,
          "y": 4000,
          "width": 64,
          "height": 64,
          "rotation": 0,
          "visible": true
        },
        {
          "id": 428,
          "name": "bush",
          "type": "scenery",
          "gid": 1284,
          "x": 160,
          "y": 3968,
          "width": 32,
          "height": 32,
          "rotation": 0,
          "visible": true
        },
        {
          "id": 429,
          "name": "rocks",
          "type": "scenery",
          "gid": 1283,
          "x": 224,
          "y": 3968,
          "width": 48,
          "height": 32,
          "rotation": 0,
          "visible": true
        },
        {
          "id": 430,
          "name": "bush",
          "type": "scenery",
          "gid": 1284,
          "x": 288,
          "y": 3968,
          "width": 32,
          "height": 32,
          "rotation": 0,
          "visible": true
        },
        {
          "id": 431,
          "name": "bush",
          "type": "scenery",
          "gid": 1284,
          "x": 416,
          "y": 3968,
          "width": 32,
          "height": 32,
          "rotation": 0,
          "visible": true
        },
        {
          "id": 432,
          "name": "pine",
          "type": "scenery",
          "gid": 1281,
          "x": 480,
          "y": 4000,
          "width": 48,
          "height": 64,
          "rotation": 0,
          "visible": true
        },
        {
          "id": 433,
          "name": "tree",
          "type": "scenery",
          "gid": 1282,
          "x": 544,
          "y": 4000,
          "width": 64,
          "height": 64,
          "rotation": 0,
          "visible": true
        },
        {
          "id": 434,
          "name": "tree",
          "type": "scenery",
          "gid": 1282,
          "x": 608,
          "y": 4000,
          "width": 64,
          "height": 64,
          "rotation": 0,
          "visible": true
        },
        {
          "id": 435,
          "name": "pine",
          "type": "scenery",
          "gid": 1281,
          "x": 672,
          "y": 4000,
          "width": 48,
          "height": 64,
          "rotation": 0,
          "visible": true
        },
        {
          "id": 436,
          "name": "pine",
          "type": "scenery",
          "gid": 1281,
          "x": 736,
          "y": 4000,
          "width": 48,
          "height": 64,
          "rotation": 0,
          "visible": true
        },
        {
          "id": 437,
          "name": "pine",
          "type": "scenery",
          "gid": 1281,
          "x": 800,
          "y": 4000,
          "width": 48,
          "height": 64,
          "rotation": 0,
          "visible": true
        },
        {
          "id": 438,
          "name": "bush",
          "type": "scenery",
          "gid": 1284,
          "x": 864,
          "y": 3968,
          "width": 32,
          "height": 32,
          "rotation": 0,
          "visible": true
        },
        {
          "id": 439,
          "name": "pine",
          "type": "scenery",
          "gid": 1281,
          "x": 928,
          "y": 4000,
          "width": 48,
          "height": 64,
          "rotation": 0,
          "visible": true
        },
        {
          "id": 440,
          "name": "pine",
          "type": "scenery",
          "gid": 1281,
          "x": 1056,
          "y": 4000,
          "width": 48,
          "height": 64,
          "rotation": 0,
          "visible": true
        },
        {
          "id": 441,
          "name": "pine",
          "type": "scenery",
          "gid": 1281,
          "x": 1120,
          "y": 4000,
          "width": 48,
          "height": 64,
          "rotation": 0,
          "visible": true
        },
        {
          "id": 442,
          "name": "pine",
          "type": "scenery",
          "gid": 1281,
          "x": 1184,
          "y": 4000,
          "width": 48,
          "height": 64,
          "rotation": 0,
          "visible": true
        },
        {
          "id": 443,
          "name": "pine",
          "type": "scenery",
          "gid": 1281,
          "x": 1248,
          "y": 4000,
          "width": 48,
          "height": 64,
          "rotation": 0,
          "visible": true
        },
        {
          "id": 444,
          "name": "bush",
          "type": "scenery",
          "gid": 1284,
          "x": 1312,
          "y": 3968,
          "width": 32,
          "height": 32,
          "rotation": 0,
          "visible": true
        },
        {
          "id": 445,
          "name": "rocks",
          "type": "scenery",
          "gid": 1283,
          "x": 1440,
          "y": 3968,
          "width": 48,
          "height": 32,
          "rotation": 0,
          "visible": true
        },
        {
          "id": 446,
          "name": "pine",
          "type": "scenery",
          "gid": 1281,
          "x": 1504,
          "y": 4000,
          "width": 48,
          "height": 64,
          "rotation": 0,
          "visible": true
        },
        {
          "id": 447,
          "name": "pine",
          "type": "scenery",
          "gid": 1281,
          "x": 1568,
          "y": 4000,
          "width": 48,
          "height": 64,
          "rotation": 0,
          "visible": true
        },
        {
          "id": 448,
          "name": "pine",
          "type": "scenery",
          "gid": 1281,
          "x": 1696,
          "y": 4000,
          "width": 48,
          "height": 64,
          "rotation": 0,
          "visible": true
        },
        {
          "id": 449,
          "name": "rocks",
          "type": "scenery",
          "gid": 1283,
          "x": 1760,
          "y": 3968,
          "width": 48,
          "height": 32,
          "rotation": 0,
          "visible": true
        },
        {
          "id": 450,
          "name": "bush",
          "type": "scenery",
          "gid": 1284,
          "x": 1888,
          "y": 3968,
          "width": 32,
          "height": 32,
          "rotation": 0,
          "visible": true
        },
        {
          "id": 451,
          "name": "garage",
          "type": "scenery",
          "gid": 1285,
          "x": 2464,
          "y": 3488,
          "width": 128,
          "height": 96,
          "rotation": 0,
          "visible": true
        },
        {
          "id": 452,
          "name": "cottage",
          "type": "scenery",
          "gid": 1286,
          "x": 2400,
          "y": 2736,
          "width": 96,
          "height": 80,
          "rotation": 0,
          "visible": true
        },
        {
          "id": 453,
          "name": "cottage",
          "type": "scenery",
          "gid": 1286,
          "x": 2528,
          "y": 2768,
          "width": 96,
          "height": 80,
          "rotation": 0,
          "visible": true
        },
        {
          "id": 454,
          "name": "fence_h",
          "type": "scenery",
          "gid": 1287,
          "x": 2448,
          "y": 3392,
          "width": 64,
          "height": 32,
          "rotation": 0,
          "visible": true
        },
        {
          "id": 455,
          "name": "fence_h",
          "type": "scenery",
          "gid": 1287,
          "x": 2512,
          "y": 3392,
          "width": 64,
          "height": 32,
          "rotation": 0,
          "visible": true
        },
        {
          "id": 456,
          "name": "fence_h",
          "type": "scenery",
          "gid": 1287,
          "x": 2576,
          "y": 3392,
          "width": 64,
          "height": 32,
          "rotation": 0,
          "visible": true
        },
        {
          "id": 457,
          "name": "rocks",
          "type": "scenery",
          "gid": 1283,
          "x": 3424,
          "y": 3216,
          "width": 48,
          "height": 32,
          "rotation": 0,
          "visible": true
        },
        {
          "id": 458,
          "name": "rocks",
          "type": "scenery",
          "gid": 1283,
          "x": 3536,
          "y": 3216,
          "width": 48,
          "height": 32,
          "rotation": 0,
          "visible": true
        },
        {
          "id": 459,
          "name": "rocks",
          "type": "scenery",
          "gid": 1283,
          "x": 3632,
          "y": 3216,
          "width": 48,
          "height": 32,
          "rotation": 0,
          "visible": true
        },
        {
          "id": 460,
          "name": "tree",
          "type": "scenery",
          "gid": 1282,
          "x": 2208,
          "y": 2208,
          "width": 64,
          "height": 64,
          "rotation": 0,
          "visible": true
        },
        {
          "id": 461,
          "name": "pine",
          "type": "scenery",
          "gid": 1281,
          "x": 2272,
          "y": 2208,
          "width": 48,
          "height": 64,
          "rotation": 0,
          "visible": true
        },
        {
          "id": 462,
          "name": "tree",
          "type": "scenery",
          "gid": 1282,
          "x": 2336,
          "y": 2208,
          "width": 64,
          "height": 64,
          "rotation": 0,
          "visible": true
        },
        {
          "id": 463,
          "name": "rocks",
          "type": "scenery",
          "gid": 1283,
          "x": 2464,
          "y": 2176,
          "width": 48,
          "height": 32,
          "rotation": 0,
          "visible": true
        },
        {
          "id": 464,
          "name": "pine",
          "type": "scenery",
          "gid": 1281,
          "x": 2528,
          "y": 2208,
          "width": 48,
          "height": 64,
          "rotation": 0,
          "visible": true
        },
        {
          "id": 465,
          "name": "pine",
          "type": "scenery",
          "gid": 1281,
          "x": 2592,
          "y": 2208,
          "width": 48,
          "height": 64,
          "rotation": 0,
          "visible": true
        },
        {
          "id": 466,
          "name": "pine",
          "type": "scenery",
          "gid": 1281,
          "x": 2720,
          "y": 2208,
          "width": 48,
          "height": 64,
          "rotation": 0,
          "visible": true
        },
        {
          "id": 467,
          "name": "rocks",
          "type": "scenery",
          "gid": 1283,
          "x": 2784,
          "y": 2176,
          "width": 48,
          "height": 32,
          "rotation": 0,
          "visible": true
        },
        {
          "id": 468,
          "name": "pine",
          "type": "scenery",
          "gid": 1281,
          "x": 2912,
          "y": 2208,
          "width": 48,
          "height": 64,
          "rotation": 0,
          "visible": true
        },
        {
          "id": 469,
          "name": "rocks",
          "type": "scenery",
          "gid": 1283,
          "x": 3168,
          "y": 2176,
          "width": 48,
          "height": 32,
          "rotation": 0,
          "visible": true
        },
        {
          "id": 470,
          "name": "pine",
          "type": "scenery",
          "gid": 1281,
          "x": 3296,
          "y": 2208,
          "width": 48,
          "height": 64,
          "rotation": 0,
          "visible": true
        },
        {
          "id": 471,
          "name": "pine",
          "type": "scenery",
          "gid": 1281,
          "x": 3360,
          "y": 2208,
          "width": 48,
          "height": 64,
          "rotation": 0,
          "visible": true
        },
        {
          "id": 472,
          "name": "bush",
          "type": "scenery",
          "gid": 1284,
          "x": 3552,
          "y": 2176,
          "width": 32,
          "height": 32,
          "rotation": 0,
          "visible": true
        },
        {
          "id": 473,
          "name": "pine",
          "type": "scenery",
          "gid": 1281,
          "x": 3616,
          "y": 2208,
          "width": 48,
          "height": 64,
          "rotation": 0,
          "visible": true
        },
        {
          "id": 474,
          "name": "rocks",
          "type": "scenery",
          "gid": 1283,
          "x": 3744,
          "y": 2176,
          "width": 48,
          "height": 32,
          "rotation": 0,
          "visible": true
        },
        {
          "id": 475,
          "name": "pine",
          "type": "scenery",
          "gid": 1281,
          "x": 3808,
          "y": 2208,
          "width": 48,
          "height": 64,
          "rotation": 0,
          "visible": true
        },
        {
          "id": 476,
          "name": "rocks",
          "type": "scenery",
          "gid": 1283,
          "x": 3872,
          "y": 2176,
          "width": 48,
          "height": 32,
          "rotation": 0,
          "visible": true
        },
        {
          "id": 477,
          "name": "bush",
          "type": "scenery",
          "gid": 1284,
          "x": 3936,
          "y": 2176,
          "width": 32,
          "height": 32,
          "rotation": 0,
          "visible": true
        },
        {
          "id": 478,
          "name": "bush",
          "type": "scenery",
          "gid": 1284,
          "x": 2144,
          "y": 2240,
          "width": 32,
          "height": 32,
          "rotation": 0,
          "visible": true
        },
        {
          "id": 479,
          "name": "pine",
          "type": "scenery",
          "gid": 1281,
          "x": 2208,
          "y": 2272,
          "width": 48,
          "height": 64,
          "rotation": 0,
          "visible": true
        },
        {
          "id": 480,
          "name": "pine",
          "type": "scenery",
          "gid": 1281,
          "x": 2272,
          "y": 2272,
          "width": 48,
          "height": 64,
          "rotation": 0,
          "visible": true
        },
        {
          "id": 481,
          "name": "tree",
          "type": "scenery",
          "gid": 1282,
          "x": 3744,
          "y": 2272,
          "width": 64,
          "height": 64,
          "rotation": 0,
          "visible": true
        },
        {
          "id": 482,
          "name": "bush",
          "type": "scenery",
          "gid": 1284,
          "x": 3936,
          "y": 2240,
          "width": 32,
          "height": 32,
          "rotation": 0,
          "visible": true
        },
        {
          "id": 483,
          "name": "rocks",
          "type": "scenery",
          "gid": 1283,
          "x": 2144,
          "y": 2304,
          "width": 48,
          "height": 32,
          "rotation": 0,
          "visible": true
        },
        {
          "id": 484,
          "name": "pine",
          "type": "scenery",
          "gid": 1281,
          "x": 3872,
          "y": 2336,
          "width": 48,
          "height": 64,
          "rotation": 0,
          "visible": true
        },
        {
          "id": 485,
          "name": "bush",
          "type": "scenery",
          "gid": 1284,
          "x": 3936,
          "y": 2304,
          "width": 32,
          "height": 32,
          "rotation": 0,
          "visible": true
        },
        {
          "id": 486,
          "name": "bush",
          "type": "scenery",
          "gid": 1284,
          "x": 2208,
          "y": 2368,
          "width": 32,
          "height": 32,
          "rotation": 0,
          "visible": true
        },
        {
          "id": 487,
          "name": "pine",
          "type": "scenery",
          "gid": 1281,
          "x": 2144,
          "y": 2464,
          "width": 48,
          "height": 64,
          "rotation": 0,
          "visible": true
        },
        {
          "id": 488,
          "name": "tree",
          "type": "scenery",
          "gid": 1282,
          "x": 2464,
          "y": 2464,
          "width": 64,
          "height": 64,
          "rotation": 0,
          "visible": true
        },
        {
          "id": 489,
          "name": "bush",
          "type": "scenery",
          "gid": 1284,
          "x": 2528,
          "y": 2432,
          "width": 32,
          "height": 32,
          "rotation": 0,
          "visible": true
        },
        {
          "id": 490,
          "name": "pine",
          "type": "scenery",
          "gid": 1281,
          "x": 2592,
          "y": 2464,
          "width": 48,
          "height": 64,
          "rotation": 0,
          "visible": true
        },
        {
          "id": 491,
          "name": "pine",
          "type": "scenery",
          "gid": 1281,
          "x": 2656,
          "y": 2464,
          "width": 48,
          "height": 64,
          "rotation": 0,
          "visible": true
        },
        {
          "id": 492,
          "name": "tree",
          "type": "scenery",
          "gid": 1282,
          "x": 2784,
          "y": 2464,
          "width": 64,
          "height": 64,
          "rotation": 0,
          "visible": true
        },
        {
          "id": 493,
          "name": "tree",
          "type": "scenery",
          "gid": 1282,
          "x": 2848,
          "y": 2464,
          "width": 64,
          "height": 64,
          "rotation": 0,
          "visible": true
        },
        {
          "id": 494,
          "name": "tree",
          "type": "scenery",
          "gid": 1282,
          "x": 2912,
          "y": 2464,
          "width": 64,
          "height": 64,
          "rotation": 0,
          "visible": true
        },
        {
          "id": 495,
          "name": "pine",
          "type": "scenery",
          "gid": 1281,
          "x": 3168,
          "y": 2464,
          "width": 48,
          "height": 64,
          "rotation": 0,
          "visible": true
        },
        {
          "id": 496,
          "name": "bush",
          "type": "scenery",
          "gid": 1284,
          "x": 3296,
          "y": 2432,
          "width": 32,
          "height": 32,
          "rotation": 0,
          "visible": true
        },
        {
          "id": 497,
          "name": "pine",
          "type": "scenery",
          "gid": 1281,
          "x": 3360,
          "y": 2464,
          "width": 48,
          "height": 64,
          "rotation": 0,
          "visible": true
        },
        {
          "id": 498,
          "name": "bush",
          "type": "scenery",
          "gid": 1284,
          "x": 3424,
          "y": 2432,
          "width": 32,
          "height": 32,
          "rotation": 0,
          "visible": true
        },
        {
          "id": 499,
          "name": "tree",
          "type": "scenery",
          "gid": 1282,
          "x": 3488,
          "y": 2464,
          "width": 64,
          "height": 64,
          "rotation": 0,
          "visible": true
        },
        {
          "id": 500,
          "name": "pine",
          "type": "scenery",
          "gid": 1281,
          "x": 3552,
          "y": 2464,
          "width": 48,
          "height": 64,
          "rotation": 0,
          "visible": true
        },
        {
          "id": 501,
          "name": "pine",
          "type": "scenery",
          "gid": 1281,
          "x": 3616,
          "y": 2464,
          "width": 48,
          "height": 64,
          "rotation": 0,
          "visible": true
        },
        {
          "id": 502,
          "name": "pine",
          "type": "scenery",
          "gid": 1281,
          "x": 3936,
          "y": 2464,
          "width": 48,
          "height": 64,
          "rotation": 0,
          "visible": true
        },
        {
          "id": 503,
          "name": "pine",
          "type": "scenery",
          "gid": 1281,
          "x": 2144,
          "y": 2528,
          "width": 48,
          "height": 64,
          "rotation": 0,
          "visible": true
        },
        {
          "id": 504,
          "name": "bush",
          "type": "scenery",
          "gid": 1284,
          "x": 2144,
          "y": 2560,
          "width": 32,
          "height": 32,
          "rotation": 0,
          "visible": true
        },
        {
          "id": 505,
          "name": "pine",
          "type": "scenery",
          "gid": 1281,
          "x": 3936,
          "y": 2592,
          "width": 48,
          "height": 64,
          "rotation": 0,
          "visible": true
        },
        {
          "id": 506,
          "name": "bush",
          "type": "scenery",
          "gid": 1284,
          "x": 2144,
          "y": 2624,
          "width": 32,
          "height": 32,
          "rotation": 0,
          "visible": true
        },
        {
          "id": 507,
          "name": "bush",
          "type": "scenery",
          "gid": 1284,
          "x": 2720,
          "y": 2688,
          "width": 32,
          "height": 32,
          "rotation": 0,
          "visible": true
        },
        {
          "id": 508,
          "name": "pine",
          "type": "scenery",
          "gid": 1281,
          "x": 2784,
          "y": 2720,
          "width": 48,
          "height": 64,
          "rotation": 0,
          "visible": true
        },
        {
          "id": 509,
          "name": "pine",
          "type": "scenery",
          "gid": 1281,
          "x": 3232,
          "y": 2720,
          "width": 48,
          "height": 64,
          "rotation": 0,
          "visible": true
        },
        {
          "id": 510,
          "name": "pine",
          "type": "scenery",
          "gid": 1281,
          "x": 3296,
          "y": 2720,
          "width": 48,
          "height": 64,
          "rotation": 0,
          "visible": true
        },
        {
          "id": 511,
          "name": "pine",
          "type": "scenery",
          "gid": 1281,
          "x": 3936,
          "y": 2720,
          "width": 48,
          "height": 64,
          "rotation": 0,
          "visible": true
        },
        {
          "id": 512,
          "name": "pine",
          "type": "scenery",
          "gid": 1281,
          "x": 2144,
          "y": 2784,
          "width": 48,
          "height": 64,
          "rotation": 0,
          "visible": true
        },
        {
          "id": 513,
          "name": "tree",
          "type": "scenery",
          "gid": 1282,
          "x": 2784,
          "y": 2784,
          "width": 64,
          "height": 64,
          "rotation": 0,
          "visible": true
        },
        {
          "id": 514,
          "name": "bush",
          "type": "scenery",
          "gid": 1284,
          "x": 2912,
          "y": 2752,
          "width": 32,
          "height": 32,
          "rotation": 0,
          "visible": true
        },
        {
          "id": 515,
          "name": "rocks",
          "type": "scenery",
          "gid": 1283,
          "x": 2912,
          "y": 2816,
          "width": 48,
          "height": 32,
          "rotation": 0,
          "visible": true
        },
        {
          "id": 516,
          "name": "pine",
          "type": "scenery",
          "gid": 1281,
          "x": 3232,
          "y": 2848,
          "width": 48,
          "height": 64,
          "rotation": 0,
          "visible": true
        },
        {
          "id": 517,
          "name": "pine",
          "type": "scenery",
          "gid": 1281,
          "x": 3936,
          "y": 2848,
          "width": 48,
          "height": 64,
          "rotation": 0,
          "visible": true
        },
        {
          "id": 518,
          "name": "pine",
          "type": "scenery",
          "gid": 1281,
          "x": 2400,
          "y": 2912,
          "width": 48,
          "height": 64,
          "rotation": 0,
          "visible": true
        },
        {
          "id": 519,
          "name": "pine",
          "type": "scenery",
          "gid": 1281,
          "x": 2592,
          "y": 2912,
          "width": 48,
          "height": 64,
          "rotation": 0,
          "visible": true
        },
        {
          "id": 520,
          "name": "pine",
          "type": "scenery",
          "gid": 1281,
          "x": 2656,
          "y": 2912,
          "width": 48,
          "height": 64,
          "rotation": 0,
          "visible": true
        },
        {
          "id": 521,
          "name": "pine",
          "type": "scenery",
          "gid": 1281,
          "x": 2912,
          "y": 2912,
          "width": 48,
          "height": 64,
          "rotation": 0,
          "visible": true
        },
        {
          "id": 522,
          "name": "pine",
          "type": "scenery",
          "gid": 1281,
          "x": 3936,
          "y": 2912,
          "width": 48,
          "height": 64,
          "rotation": 0,
          "visible": true
        },
        {
          "id": 523,
          "name": "pine",
          "type": "scenery",
          "gid": 1281,
          "x": 2144,
          "y": 2976,
          "width": 48,
          "height": 64,
          "rotation": 0,
          "visible": true
        },
        {
          "id": 524,
          "name": "pine",
          "type": "scenery",
          "gid": 1281,
          "x": 2400,
          "y": 2976,
          "width": 48,
          "height": 64,
          "rotation": 0,
          "visible": true
        },
        {
          "id": 525,
          "name": "pine",
          "type": "scenery",
          "gid": 1281,
          "x": 2528,
          "y": 2976,
          "width": 48,
          "height": 64,
          "rotation": 0,
          "visible": true
        },
        {
          "id": 526,
          "name": "tree",
          "type": "scenery",
          "gid": 1282,
          "x": 3936,
          "y": 2976,
          "width": 64,
          "height": 64,
          "rotation": 0,
          "visible": true
        },
        {
          "id": 527,
          "name": "tree",
          "type": "scenery",
          "gid": 1282,
          "x": 2144,
          "y": 3040,
          "width": 64,
          "height": 64,
          "rotation": 0,
          "visible": true
        },
        {
          "id": 528,
          "name": "pine",
          "type": "scenery",
          "gid": 1281,
          "x": 2400,
          "y": 3040,
          "width": 48,
          "height": 64,
          "rotation": 0,
          "visible": true
        },
        {
          "id": 529,
          "name": "pine",
          "type": "scenery",
          "gid": 1281,
          "x": 2784,
          "y": 3040,
          "width": 48,
          "height": 64,
          "rotation": 0,
          "visible": true
        },
        {
          "id": 530,
          "name": "pine",
          "type": "scenery",
          "gid": 1281,
          "x": 2144,
          "y": 3104,
          "width": 48,
          "height": 64,
          "rotation": 0,
          "visible": true
        },
        {
          "id": 531,
          "name": "pine",
          "type": "scenery",
          "gid": 1281,
          "x": 2400,
          "y": 3104,
          "width": 48,
          "height": 64,
          "rotation": 0,
          "visible": true
        },
        {
          "id": 532,
          "name": "pine",
          "type": "scenery",
          "gid": 1281,
          "x": 2912,
          "y": 3104,
          "width": 48,
          "height": 64,
          "rotation": 0,
          "visible": true
        },
        {
          "id": 533,
          "name": "bush",
          "type": "scenery",
          "gid": 1284,
          "x": 3936,
          "y": 3072,
          "width": 32,
          "height": 32,
          "rotation": 0,
          "visible": true
        },
        {
          "id": 534,
          "name": "bush",
          "type": "scenery",
          "gid": 1284,
          "x": 2144,
          "y": 3136,
          "width": 32,
          "height": 32,
          "rotation": 0,
          "visible": true
        },
        {
          "id": 535,
          "name": "bush",
          "type": "scenery",
          "gid": 1284,
          "x": 2400,
          "y": 3136,
          "width": 32,
          "height": 32,
          "rotation": 0,
          "visible": true
        },
        {
          "id": 536,
          "name": "rocks",
          "type": "scenery",
          "gid": 1283,
          "x": 2464,
          "y": 3136,
          "width": 48,
          "height": 32,
          "rotation": 0,
          "visible": true
        },
        {
          "id": 537,
          "name": "pine",
          "type": "scenery",
          "gid": 1281,
          "x": 2592,
          "y": 3168,
          "width": 48,
          "height": 64,
          "rotation": 0,
          "visible": true
        },
        {
          "id": 538,
          "name": "bush",
          "type": "scenery",
          "gid": 1284,
          "x": 3168,
          "y": 3136,
          "width": 32,
          "height": 32,
          "rotation": 0,
          "visible": true
        },
        {
          "id": 539,
          "name": "rocks",
          "type": "scenery",
          "gid": 1283,
          "x": 3936,
          "y": 3136,
          "width": 48,
          "height": 32,
          "rotation": 0,
          "visible": true
        },
        {
          "id": 540,
          "name": "pine",
          "type": "scenery",
          "gid": 1281,
          "x": 2144,
          "y": 3232,
          "width": 48,
          "height": 64,
          "rotation": 0,
          "visible": true
        },
        {
          "id": 541,
          "name": "pine",
          "type": "scenery",
          "gid": 1281,
          "x": 2400,
          "y": 3232,
          "width": 48,
          "height": 64,
          "rotation": 0,
          "visible": true
        },
        {
          "id": 542,
          "name": "pine",
          "type": "scenery",
          "gid": 1281,
          "x": 2528,
          "y": 3232,
          "width": 48,
          "height": 64,
          "rotation": 0,
          "visible": true
        },
        {
          "id": 543,
          "name": "pine",
          "type": "scenery",
          "gid": 1281,
          "x": 2656,
          "y": 3232,
          "width": 48,
          "height": 64,
          "rotation": 0,
          "visible": true
        },
        {
          "id": 544,
          "name": "rocks",
          "type": "scenery",
          "gid": 1283,
          "x": 3936,
          "y": 3200,
          "width": 48,
          "height": 32,
          "rotation": 0,
          "visible": true
        },
        {
          "id": 545,
          "name": "tree",
          "type": "scenery",
          "gid": 1282,
          "x": 2144,
          "y": 3296,
          "width": 64,
          "height": 64,
          "rotation": 0,
          "visible": true
        },
        {
          "id": 546,
          "name": "pine",
          "type": "scenery",
          "gid": 1281,
          "x": 3936,
          "y": 3296,
          "width": 48,
          "height": 64,
          "rotation": 0,
          "visible": true
        },
        {
          "id": 547,
          "name": "bush",
          "type": "scenery",
          "gid": 1284,
          "x": 2144,
          "y": 3328,
          "width": 32,
          "height": 32,
          "rotation": 0,
          "visible": true
        },
        {
          "id": 548,
          "name": "pine",
          "type": "scenery",
          "gid": 1281,
          "x": 3936,
          "y": 3360,
          "width": 48,
          "height": 64,
          "rotation": 0,
          "visible": true
        },
        {
          "id": 549,
          "name": "pine",
          "type": "scenery",
          "gid": 1281,
          "x": 2144,
          "y": 3424,
          "width": 48,
          "height": 64,
          "rotation": 0,
          "visible": true
        },
        {
          "id": 550,
          "name": "tree",
          "type": "scenery",
          "gid": 1282,
          "x": 2784,
          "y": 3424,
          "width": 64,
          "height": 64,
          "rotation": 0,
          "visible": true
        },
        {
          "id": 551,
          "name": "pine",
          "type": "scenery",
          "gid": 1281,
          "x": 3616,
          "y": 3424,
          "width": 48,
          "height": 64,
          "rotation": 0,
          "visible": true
        },
        {
          "id": 552,
          "name": "tree",
          "type": "scenery",
          "gid": 1282,
          "x": 3936,
          "y": 3424,
          "width": 64,
          "height": 64,
          "rotation": 0,
          "visible": true
        },
        {
          "id": 553,
          "name": "pine",
          "type": "scenery",
          "gid": 1281,
          "x": 3360,
          "y": 3488,
          "width": 48,
          "height": 64,
          "rotation": 0,
          "visible": true
        },
        {
          "id": 554,
          "name": "pine",
          "type": "scenery",
          "gid": 1281,
          "x": 3680,
          "y": 3488,
          "width": 48,
          "height": 64,
          "rotation": 0,
          "visible": true
        },
        {
          "id": 555,
          "name": "pine",
          "type": "scenery",
          "gid": 1281,
          "x": 3936,
          "y": 3488,
          "width": 48,
          "height": 64,
          "rotation": 0,
          "visible": true
        },
        {
          "id": 556,
          "name": "pine",
          "type": "scenery",
          "gid": 1281,
          "x": 3936,
          "y": 3552,
          "width": 48,
          "height": 64,
          "rotation": 0,
          "visible": true
        },
        {
          "id": 557,
          "name": "pine",
          "type": "scenery",
          "gid": 1281,
          "x": 3936,
          "y": 3680,
          "width": 48,
          "height": 64,
          "rotation": 0,
          "visible": true
        },
        {
          "id": 558,
          "name": "pine",
          "type": "scenery",
          "gid": 1281,
          "x": 2144,
          "y": 3744,
          "width": 48,
          "height": 64,
          "rotation": 0,
          "visible": true
        },
        {
          "id": 559,
          "name": "pine",
          "type": "scenery",
          "gid": 1281,
          "x": 2464,
          "y": 3744,
          "width": 48,
          "height": 64,
          "rotation": 0,
          "visible": true
        },
        {
          "id": 560,
          "name": "pine",
          "type": "scenery",
          "gid": 1281,
          "x": 3232,
          "y": 3744,
          "width": 48,
          "height": 64,
          "rotation": 0,
          "visible": true
        },
        {
          "id": 561,
          "name": "tree",
          "type": "scenery",
          "gid": 1282,
          "x": 3296,
          "y": 3744,
          "width": 64,
          "height": 64,
          "rotation": 0,
          "visible": true
        },
        {
          "id": 562,
          "name": "pine",
          "type": "scenery",
          "gid": 1281,
          "x": 3936,
          "y": 3744,
          "width": 48,
          "height": 64,
          "rotation": 0,
          "visible": true
        },
        {
          "id": 563,
          "name": "pine",
          "type": "scenery",
          "gid": 1281,
          "x": 2144,
          "y": 3808,
          "width": 48,
          "height": 64,
          "rotation": 0,
          "visible": true
        },
        {
          "id": 564,
          "name": "pine",
          "type": "scenery",
          "gid": 1281,
          "x": 3936,
          "y": 3808,
          "width": 48,
          "height": 64,
          "rotation": 0,
          "visible": true
        },
        {
          "id": 565,
          "name": "pine",
          "type": "scenery",
          "gid": 1281,
          "x": 2144,
          "y": 3872,
          "width": 48,
          "height": 64,
          "rotation": 0,
          "visible": true
        },
        {
          "id": 566,
          "name": "tree",
          "type": "scenery",
          "gid": 1282,
          "x": 2208,
          "y": 3872,
          "width": 64,
          "height": 64,
          "rotation": 0,
          "visible": true
        },
        {
          "id": 567,
          "name": "pine",
          "type": "scenery",
          "gid": 1281,
          "x": 3872,
          "y": 3872,
          "width": 48,
          "height": 64,
          "rotation": 0,
          "visible": true
        },
        {
          "id": 568,
          "name": "pine",
          "type": "scenery",
          "gid": 1281,
          "x": 3936,
          "y": 3872,
          "width": 48,
          "height": 64,
          "rotation": 0,
          "visible": true
        },
        {
          "id": 569,
          "name": "pine",
          "type": "scenery",
          "gid": 1281,
          "x": 2144,
          "y": 3936,
          "width": 48,
          "height": 64,
          "rotation": 0,
          "visible": true
        },
        {
          "id": 570,
          "name": "bush",
          "type": "scenery",
          "gid": 1284,
          "x": 2208,
          "y": 3904,
          "width": 32,
          "height": 32,
          "rotation": 0,
          "visible": true
        },
        {
          "id": 571,
          "name": "pine",
          "type": "scenery",
          "gid": 1281,
          "x": 2336,
          "y": 3936,
          "width": 48,
          "height": 64,
          "rotation": 0,
          "visible": true
        },
        {
          "id": 572,
          "name": "pine",
          "type": "scenery",
          "gid": 1281,
          "x": 3808,
          "y": 3936,
          "width": 48,
          "height": 64,
          "rotation": 0,
          "visible": true
        },
        {
          "id": 573,
          "name": "tree",
          "type": "scenery",
          "gid": 1282,
          "x": 3872,
          "y": 3936,
          "width": 64,
          "height": 64,
          "rotation": 0,
          "visible": true
        },
        {
          "id": 574,
          "name": "pine",
          "type": "scenery",
          "gid": 1281,
          "x": 3936,
          "y": 3936,
          "width": 48,
          "height": 64,
          "rotation": 0,
          "visible": true
        },
        {
          "id": 575,
          "name": "tree",
          "type": "scenery",
          "gid": 1282,
          "x": 2144,
          "y": 4000,
          "width": 64,
          "height": 64,
          "rotation": 0,
          "visible": true
        },
        {
          "id": 576,
          "name": "bush",
          "type": "scenery",
          "gid": 1284,
          "x": 2208,
          "y": 3968,
          "width": 32,
          "height": 32,
          "rotation": 0,
          "visible": true
        },
        {
          "id": 577,
          "name": "rocks",
          "type": "scenery",
          "gid": 1283,
          "x": 2272,
          "y": 3968,
          "width": 48,
          "height": 32,
          "rotation": 0,
          "visible": true
        },
        {
          "id": 578,
          "name": "bush",
          "type": "scenery",
          "gid": 1284,
          "x": 2336,
          "y": 3968,
          "width": 32,
          "height": 32,
          "rotation": 0,
          "visible": true
        },
        {
          "id": 579,
          "name": "bush",
          "type": "scenery",
          "gid": 1284,
          "x": 2464,
          "y": 3968,
          "width": 32,
          "height": 32,
          "rotation": 0,
          "visible": true
        },
        {
          "id": 580,
          "name": "pine",
          "type": "scenery",
          "gid": 1281,
          "x": 2528,
          "y": 4000,
          "width": 48,
          "height": 64,
          "rotation": 0,
          "visible": true
        },
        {
          "id": 581,
          "name": "tree",
          "type": "scenery",
          "gid": 1282,
          "x": 2592,
          "y": 4000,
          "width": 64,
          "height": 64,
          "rotation": 0,
          "visible": true
        },
        {
          "id": 582,
          "name": "tree",
          "type": "scenery",
          "gid": 1282,
          "x": 2656,
          "y": 4000,
          "width": 64,
          "height": 64,
          "rotation": 0,
          "visible": true
        },
        {
          "id": 583,
          "name": "pine",
          "type": "scenery",
          "gid": 1281,
          "x": 2720,
          "y": 4000,
          "width": 48,
          "height": 64,
          "rotation": 0,
          "visible": true
        },
        {
          "id": 584,
          "name": "pine",
          "type": "scenery",
          "gid": 1281,
          "x": 2784,
          "y": 4000,
          "width": 48,
          "height": 64,
          "rotation": 0,
          "visible": true
        },
        {
          "id": 585,
          "name": "pine",
          "type": "scenery",
          "gid": 1281,
          "x": 2848,
          "y": 4000,
          "width": 48,
          "height": 64,
          "rotation": 0,
          "visible": true
        },
        {
          "id": 586,
          "name": "bush",
          "type": "scenery",
          "gid": 1284,
          "x": 2912,
          "y": 3968,
          "width": 32,
          "height": 32,
          "rotation": 0,
          "visible": true
        },
        {
          "id": 587,
          "name": "pine",
          "type": "scenery",
          "gid": 1281,
          "x": 2976,
          "y": 4000,
          "width": 48,
          "height": 64,
          "rotation": 0,
          "visible": true
        },
        {
          "id": 588,
          "name": "pine",
          "type": "scenery",
          "gid": 1281,
          "x": 3104,
          "y": 4000,
          "width": 48,
          "height": 64,
          "rotation": 0,
          "visible": true
        },
        {
          "id": 589,
          "name": "pine",
          "type": "scenery",
          "gid": 1281,
          "x": 3168,
          "y": 4000,
          "width": 48,
          "height": 64,
          "rotation": 0,
          "visible": true
        },
        {
          "id": 590,
          "name": "pine",
          "type": "scenery",
          "gid": 1281,
          "x": 3232,
          "y": 4000,
          "width": 48,
          "height": 64,
          "rotation": 0,
          "visible": true
        },
        {
          "id": 591,
          "name": "pine",
          "type": "scenery",
          "gid": 1281,
          "x": 3296,
          "y": 4000,
          "width": 48,
          "height": 64,
          "rotation": 0,
          "visible": true
        },
        {
          "id": 592,
          "name": "bush",
          "type": "scenery",
          "gid": 1284,
          "x": 3360,
          "y": 3968,
          "width": 32,
          "height": 32,
          "rotation": 0,
          "visible": true
        },
        {
          "id": 593,
          "name": "rocks",
          "type": "scenery",
          "gid": 1283,
          "x": 3488,
          "y": 3968,
          "width": 48,
          "height": 32,
          "rotation": 0,
          "visible": true
        },
        {
          "id": 594,
          "name": "pine",
          "type": "scenery",
          "gid": 1281,
          "x": 3552,
          "y": 4000,
          "width": 48,
          "height": 64,
          "rotation": 0,
          "visible": true
        },
        {
          "id": 595,
          "name": "pine",
          "type": "scenery",
          "gid": 1281,
          "x": 3616,
          "y": 4000,
          "width": 48,
          "height": 64,
          "rotation": 0,
          "visible": true
        },
        {
          "id": 596,
          "name": "pine",
          "type": "scenery",
          "gid": 1281,
          "x": 3744,
          "y": 4000,
          "width": 48,
          "height": 64,
          "rotation": 0,
          "visible": true
        },
        {
          "id": 597,
          "name": "rocks",
          "type": "scenery",
          "gid": 1283,
          "x": 3808,
          "y": 3968,
          "width": 48,
          "height": 32,
          "rotation": 0,
          "visible": true
        },
        {
          "id": 598,
          "name": "bush",
          "type": "scenery",
          "gid": 1284,
          "x": 3936,
          "y": 3968,
          "width": 32,
          "height": 32,
          "rotation": 0,
          "visible": true
        }
      ]
    }
  ]
}
